!!!!SEGMENT: pl-wtm--r-1740--001-001_stefani-jozef--la-noce-ou-les-amours-du-village-allegretto.krn
!!!cenid: 18xx:1900
!!!COM: Stefani, Józef
!!!COM-rismID: pe30024097
!!!CDT: 1800/04/16-1876/03/19
!!!CNT: Polish
!!!OPR: La Noce ou Les amours du Village
!!!OTL: Allegretto
!!!OMV: 001
!!!PDT:
!!!AGN: Secular
!!!OMD: Allegretto
!!!SMS-siglum: PL-Wtm
!!!SMS-shelfmark: R 1740
!!!SMS-shelfwork: 001-001 M
!!!SMS-variant:
!!!SMS-altvar:
!!!NIFC-rismSourceID: 1001137574
!!!NIFC-rismChildID: 1001137574
!!!NIFC-islandoraID: pl-wtm:28668
!!!URL-pdf-islandora: https://repozytorium.nifc.pl/islandora/object/pl-wtm%3A28668/datastream/PDF/view
!!!URL-scan: https://polish.musicsources.pl/pl/lokalizacje/galeria/rekopisy/6477 @EN{Scan on Polish Music Sources Website} @PL{Skany w portalu Dziedzictwo Muzyki Polskiej w otwartym dostępie}
!!!IIIF:
!!!ONB-nifc: UWAGA: No. 1., skan 0003-0008. Następna część: Andantino
!!!system-decoration: ({s1,s2},s3,s4,{s5,s6}, s7, s8, s9),({s10,s11}, s12, {s13,s14},s15)
!!!AIN: 1 cbass 1 cello 1 clars 2 cor 3 empty 1 fagot 1 flt 1 oboe 1 picco 1 timpa 1 tromt 1 viola
!!!key:
**kern	**dynam	**kern	**dynam	**kern	**dynam	**kern	**dynam	**kern	**dynam	**kern	**dynam	**kern	**dynam	**kern	**dynam	**kern	**dynam	**kern	**dynam	**kern	**dynam	**kern	**dynam	**kern	**dynam	**kern	**dynam	**kern	**dynam
*	*	*	*	*	*	*	*	*group1	*group1	*group1	*group1	*	*	*	*	*	*	*	*	*	*	*	*	*	*	*	*	*	*
*part15	*part15	*part14	*part14	*part13	*part13	*part12	*part12	*part11	*part11	*part10	*part10	*part9	*part9	*part8	*part8	*part7	*part7	*part6	*part6	*part5	*part5	*part4	*part4	*part3	*part3	*part2	*part2	*part1	*part1
*staff15	*	*staff14	*	*staff13	*	*staff12	*	*staff11	*	*staff10	*	*staff9	*	*staff8	*	*staff7	*	*staff6	*	*staff5	*	*staff4	*	*staff3	*	*staff2	*	*staff1	*
*	*	*	*	*	*	*	*	*I""Violini	*	*I""Violini	*	*	*	*	*	*	*	*	*	*	*	*	*	*	*	*	*	*	*
*Itimpa	*	*Icbass	*	*Icello	*	*Iviola	*	*Iempty	*	*Iempty	*	*Itromt	*	*Iempty	*	*Ifagot	*	*Icor	*	*Icor	*	*Iclars	*	*Ioboe	*	*Ipicco	*	*Iflt	*
*I"Tympani	*	*I"C: Baſsi	*	*I"Violoncelli	*	*I"Viole	*	*	*	*	*	*I"Trombone	*	*I"in C Tromby	*	*I"Fagotti	*	*I"in C Corni	*	*I"in G Corni	*	*I"in C Clarinetti	*	*I"Oboe	*	*I"Picolo	*	*I"Flauto	*
*	*	*	*	*	*	*	*	*I''vl	*	*I''vl	*	*	*	*	*	*	*	*	*	*	*	*	*	*	*	*	*	*	*
*I'timp	*	*I'cb	*	*I'vlc	*	*I'vla	*	*	*	*	*	*I'trb	*	*I'tr in C	*	*I'fag	*	*I'cor in C	*	*I'cor in G	*	*I'cl in C	*	*I'ob	*	*I'fl.picc	*	*I'fl	*
*>[A,B,B1,B,B2,C]	*	*>[A,B,B1,B,B2,C]	*	*>[A,B,B1,B,B2,C]	*	*>[A,B,B1,B,B2,C]	*	*>[A,B,B1,B,B2,C]	*	*>[A,B,B1,B,B2,C]	*	*>[A,B,B1,B,B2,C]	*	*>[A,B,B1,B,B2,C]	*	*>[A,B,B1,B,B2,C]	*	*>[A,B,B1,B,B2,C]	*	*>[A,B,B1,B,B2,C]	*	*>[A,B,B1,B,B2,C]	*	*>[A,B,B1,B,B2,C]	*	*>[A,B,B1,B,B2,C]	*	*>[A,B,B1,B,B2,C]	*
*stria1	*	*	*	*	*	*	*	*	*	*	*	*	*	*	*	*	*	*	*	*	*	*	*	*	*	*	*	*	*
*clefF1	*	*clefF4	*	*clefF4	*	*clefC3	*	*clefG2	*	*clefG2	*	*clefF4	*	*clefG2	*	*clefF4	*	*clefG2	*	*clefG2	*	*clefG2	*	*clefG2	*	*clefG2	*	*clefG2	*
*	*	*ITrd0c0	*	*	*	*	*	*	*	*	*	*	*	*	*	*	*	*	*	*ITrd3c5	*	*	*	*	*	*	*	*	*
*k[]	*	*k[f#]	*	*k[f#]	*	*k[f#]	*	*k[f#]	*	*k[f#]	*	*k[f#]	*	*k[f#]	*	*k[f#]	*	*k[f#]	*	*k[f#]	*	*k[f#]	*	*k[f#]	*	*k[f#]	*	*k[f#]	*
*G:	*	*G:	*	*G:	*	*G:	*	*G:	*	*G:	*	*G:	*	*G:	*	*G:	*	*G:	*	*G:	*	*G:	*	*G:	*	*G:	*	*G:	*
*M6/8	*	*M6/8	*	*M6/8	*	*M6/8	*	*M6/8	*	*M6/8	*	*M6/8	*	*M6/8	*	*M6/8	*	*M6/8	*	*M6/8	*	*M6/8	*	*M6/8	*	*M6/8	*	*M6/8	*
*>[	*	*	*	*	*	*	*	*	*	*	*	*	*	*	*	*	*	*	*	*	*	*	*	*	*	*	*	*	*
=1	=1	=1	=1	=1	=1	=1	=1	=1	=1	=1	=1	=1	=1	=1	=1	=1	=1	=1	=1	=1	=1	=1	=1	=1	=1	=1	=1	=1	=1
*>A	*	*>A	*	*>A	*	*>A	*	*>A	*	*>A	*	*>A	*	*>A	*	*>A	*	*>A	*	*>A	*	*>A	*	*>A	*	*>A	*	*>A	*
*all\right	*	*all\right	*	*all\right	*	*all\right	*	*all\right	*	*all\right	*	*all\right	*	*all\right	*	*all\right	*	*all\right	*	*all\right	*	*all\right	*	*all\right	*	*all\right	*	*all\right	*
!	!	!	!	!	!	!	!LO:DY:a:rj	!	!	!	!	!	!	!	!	!	!LO:DY:a:rj	!	!	!	!LO:DY:a:rj	!	!	!	!	!	!	!	!
2.r	.	2.G\	f	2.D/ 2.GG^/	.	2.d/^ 2.G/	f	2.d/ 2.B/	.	2.r	.	2.r	.	2.r	.	2.D/ 2.GG/	f	2.dd/ 2.G/	.	2.B/ 2.G/	f	2.r	.	2.r	.	2.r	.	2.r	.
=2	=2	=2	=2	=2	=2	=2	=2	=2	=2	=2	=2	=2	=2	=2	=2	=2	=2	=2	=2	=2	=2	=2	=2	=2	=2	=2	=2	=2	=2
2.r	.	2.G\	.	2.D/ 2.GG^/	.	2.d/^ 2.G/	.	2.d/ 2.B/	.	2.r	.	2.r	.	2.r	.	2.D/ 2.GG/	.	2.dd/ 2.G/	.	2.B/ 2.G/	.	2.r	.	2.r	.	2.r	.	2.r	.
=3	=3	=3	=3	=3	=3	=3	=3	=3	=3	=3	=3	=3	=3	=3	=3	=3	=3	=3	=3	=3	=3	=3	=3	=3	=3	=3	=3	=3	=3
2.r	.	2.G\	.	2.D/ 2.GG^/	.	2.d/^ 2.G/	.	2.d/ 2.B/	.	2.r	.	2.r	.	2.r	.	2.D/ 2.GG/	.	2.dd/ 2.G/	.	2.B/ 2.G/	.	2.r	.	2.r	.	2.r	.	2.r	.
=4	=4	=4	=4	=4	=4	=4	=4	=4	=4	=4	=4	=4	=4	=4	=4	=4	=4	=4	=4	=4	=4	=4	=4	=4	=4	=4	=4	=4	=4
2.r	.	2.G\	.	2.D/ 2.GG^/	.	2.d/^ 2.G/	.	4.d/ 4.B/	.	4r	.	2.r	.	2.r	.	2.D/ 2.GG/	.	2.dd/ 2.G/	.	2.B/ 2.G/	.	4r	.	4r	.	4r	.	2.r	.
!	!	!	!	!	!	!	!	!	!	!LO:TX:a:t=divisi	!	!	!	!	!	!	!	!	!	!	!	!	!	!	!	!	!	!	!
.	.	.	.	.	.	.	.	.	.	8r	.	.	.	.	.	.	.	.	.	.	.	8r	.	8r	.	8r	.	.	.
!	!	!	!	!	!	!	!	!	!	!	!	!	!	!	!	!	!	!	!	!	!	!	!LO:DY:a	!	!	!	!	!	!
.	.	.	.	.	.	.	.	4d/ 4B/	.	4r	.	.	.	.	.	.	.	.	.	.	.	4r	f	4r	.	4r	f	.	.
!	!	!	!	!	!	!	!	!	!	!	!LO:DY:rj	!	!	!	!	!	!	!	!	!	!	!	!	!	!	!	!	!	!
.	.	.	.	.	.	.	.	8d/ 8B/	.	8dd\ 8d\	f	.	.	.	.	.	.	.	.	.	.	8dd\ 8b\	.	8dd\ 8b\	.	8dd\	.	.	.
=5	=5	=5	=5	=5	=5	=5	=5	=5	=5	=5	=5	=5	=5	=5	=5	=5	=5	=5	=5	=5	=5	=5	=5	=5	=5	=5	=5	=5	=5
*	*	*	*	*	*	*^	*	*	*	*	*	*	*	*	*	*	*	*^	*	*^	*	*	*	*	*	*	*	*	*
!LO:SIC:s=4G\	!	!	!	!	!	!	!	!	!	!	!	!	!	!	!	!LO:DY:a:rj	!	!LO:DY:a:rj	!	!	!	!	!	!	!	!	!	!	!	!	!	!
4Re\	.	2.GG/	.	2.D/ 2.GG/	.	4d/	2.G/	.	4B/	.	4dd\ 4d\	.	2.G\	.	2.g/ 2.G/	f	4d\ 4B\	f	4dd/	2.G/	.	4B/	2.G\	.	4dd\ 4b\	.	4dd\ 4b\	.	4ddT\	.	2.r	.
8r	.	.	.	.	.	8e/	.	.	8c/	.	8ee\ 8e\	.	.	.	.	.	8e\ 8c\	.	8ee/	.	.	8c/	.	.	8ee\ 8cc\	.	8ee\ 8cc\	.	8ee\	.	.	.
4r	.	.	.	.	.	4.d/	.	.	4.B/	.	4dd\ 4d\	.	.	.	.	.	4d\ 4B\	.	4.dd/	.	.	4.B/	.	.	4dd\ 4b\	.	4dd\ 4b\	.	4ddT\	.	.	.
8r	.	.	.	.	.	.	.	.	.	.	8gg\ 8g\	.	.	.	.	.	8B\ 8G\	.	.	.	.	.	.	.	8gg\ 8b\	.	8gg\ 8b\	.	8gg\	.	.	.
=6	=6	=6	=6	=6	=6	=6	=6	=6	=6	=6	=6	=6	=6	=6	=6	=6	=6	=6	=6	=6	=6	=6	=6	=6	=6	=6	=6	=6	=6	=6	=6	=6
*	*	*	*	*	*	*	*	*	*	*	*	*	*	*	*	*	*	*	*	*	*	*	*	*	*^	*	*	*	*	*	*	*
*rep	*	*	*	*	*	*	*	*	*	*	*	*	*	*	*	*	*	*	*	*	*	*	*	*	*	*	*	*	*	*	*	*	*
!LO:SIC:s=4G\	!	!	!	!	!	!	!	!	!	!	!	!	!	!	!	!	!	!	!	!	!	!	!	!	!	!	!	!	!	!	!	!	!
4Re\	.	2.GG/	.	2.D/ 2.GG/	.	4d/	2.G/	.	4B/	.	4dd\ 4d\	.	2.G\	.	2.g/ 2.G/	.	4d\ 4B\	.	4dd/	2.G/	.	4B/	2.G\	.	4dd\ 4b\	4ryy	.	4dd\ 4b\	.	4ddT\	.	4r	.
8r	.	.	.	.	.	8e/	.	.	8c/	.	8ee\ 8e\	.	.	.	.	.	8e\ 8c\	.	8ee/	.	.	8c/	.	.	8ee\ 8cc\	8ryy	.	8ee\ 8cc\	.	8ee\	.	8r	.
4r	.	.	.	.	.	4.d/	.	.	4B/	.	4dd\ 4d\	.	.	.	.	.	4d\ 4B\	.	4.dd/	.	.	4.B/	.	.	4dd\ 4b\	4ryy	.	4dd\ 4b\	.	4ddT\	.	4r	.
8r	.	.	.	.	.	.	.	.	8d/	.	[8bb\ [>8b\	.	.	.	.	.	8B\ 8G\	.	.	.	.	.	.	.	[8b/	8b\	.	8dd\ 8b'\	.	8bb\	.	[8bb\	.
*	*	*	*	*	*	*v	*v	*	*	*	*	*	*	*	*	*	*	*	*	*	*	*	*	*	*	*	*	*	*	*	*	*	*
*Xrep	*	*	*	*	*	*	*	*	*	*	*	*	*	*	*	*	*	*	*	*	*	*	*	*	*	*	*	*	*	*	*	*
=7	=7	=7	=7	=7	=7	=7	=7	=7	=7	=7	=7	=7	=7	=7	=7	=7	=7	=7	=7	=7	=7	=7	=7	=7	=7	=7	=7	=7	=7	=7	=7	=7
*	*	*	*	*	*	*	*	*	*	*	*	*	*	*	*	*^	*	*	*	*	*	*	*	*	*	*	*^	*	*	*	*	*
2.r	.	4.GG/	.	4.D/ 4.GG/	.	4.G/	.	4.e/ 4.c/	.	8bb\]L 8b\]	.	2.r	.	2.r	.	4.c/	4.G\	.	4.ee/	4.G\	.	2.c/	4.G\	.	8b/L]	8b\L	.	4.ee\ 4.cc\	4.ryy	.	8bb\L	.	8bb\L]	.
.	.	.	.	.	.	.	.	.	.	(8ddd\ 8dd\	.	.	.	.	.	.	.	.	.	.	.	.	.	.	(8dd/	8dd\	.	.	.	.	(8ddd\	.	(8ddd\	.
.	.	.	.	.	.	.	.	.	.	8ccc\J 8cc\	.	.	.	.	.	.	.	.	.	.	.	.	.	.	8cc/J	8cc\J	.	.	.	.	8ccc\J	.	8ccc\J	.
.	.	4.GG/	.	4.D/ 4.GG/	.	4.A/ 4.F#/	.	4.e/ 4.c/	.	8aa\L 8a\	.	.	.	.	.	4.A/	4.F#\	.	4.dd/	4.G\	.	.	4.F#\	.	8a/L	8a\L	.	4.dd/	4.cc\	.	8aa\L	.	8aa\L	.
.	.	.	.	.	.	.	.	.	.	8ee\ 8e\	.	.	.	.	.	.	.	.	.	.	.	.	.	.	8e/	8e\	.	.	.	.	8ee\	.	8ee\	.
.	.	.	.	.	.	.	.	.	.	8ff#\J 8f#\)	.	.	.	.	.	.	.	.	.	.	.	.	.	.	8f#/J	8f#\J	.	.	.	.	8ff#\J	.	8ff#\J	.
*	*	*	*	*	*	*	*	*	*	*	*	*	*	*	*	*v	*v	*	*	*	*	*	*	*	*	*	*	*	*	*	*	*	*	*
=8	=8	=8	=8	=8	=8	=8	=8	=8	=8	=8	=8	=8	=8	=8	=8	=8	=8	=8	=8	=8	=8	=8	=8	=8	=8	=8	=8	=8	=8	=8	=8	=8	=8
*	*	*	*	*	*	*	*	*	*	*	*	*	*	*	*	*	*	*	*	*	*	*	*	*	*	*	*	*	*	*^	*	*	*
2.r	.	4.GG/	.	4.D/ 4.GG/	.	4.G/	.	4.d/ 4.B/	.	(4gg\ 4g\	.	2.r	.	2.r	.	4.B\ 4.G\	.	4.dd/	4.G\	.	4.B/	4.G\	.	4g/)	4g\	.	4.dd/	4.b\	.	(4gg\)	4.ryy	.	(4gg\)	.
.	.	.	.	.	.	.	.	.	.	16ff#\LL 16f#\	.	.	.	.	.	.	.	.	.	.	.	.	.	16f#/LL	16f#\LL	.	.	.	.	16ff#\LL	.	.	16ff#\LL	.
.	.	.	.	.	.	.	.	.	.	16ee\JJ 16e\)	.	.	.	.	.	.	.	.	.	.	.	.	.	16e/JJ	16e\JJ	.	.	.	.	16ee\JJ	.	.	16ee\JJ	.
.	.	4GG/	.	4D/ 4GG/	.	4G/	.	4d/ 4B/	.	4dd\ 4d\	.	.	.	.	.	4B\ 4G\	.	4.dd/	4G\	.	4B/	4G\	.	4d/	4d\	.	4dd/	4b\	.	4dd\)	4ryy	.	4dd\)	.
.	.	8GG/	.	8D/ 8GG/	.	8d/ 8G/	.	8B/	.	8dd\ 8d\	.	.	.	.	.	8d\ 8B\	.	.	8r	.	8r	8r	.	8dd\ 8b\	8ryy	.	8dd\ 8b\	8ryy	.	8dd\	8r	.	8r	.
*	*	*	*	*	*	*	*	*	*	*	*	*	*	*	*	*	*	*	*	*	*	*	*	*v	*v	*	*v	*v	*	*v	*v	*	*	*
=9	=9	=9	=9	=9	=9	=9	=9	=9	=9	=9	=9	=9	=9	=9	=9	=9	=9	=9	=9	=9	=9	=9	=9	=9	=9	=9	=9	=9	=9	=9	=9
!LO:SIC:s=4G\	!	!	!	!	!	!	!	!	!	!	!	!	!	!	!	!	!	!	!	!	!	!	!	!	!	!	!	!	!	!	!
4Re\	.	2.GG/	.	2.D/ 2.GG/	.	2.d/ 2.G/	.	4B/	.	4dd\ 4d\	.	2.G\	.	2.g/ 2.G/	.	4d\ 4B\	.	4dd/	2.G\	.	4B/	2.G\	.	4dd\ 4b\	.	4dd\ 4b\	.	4ddT\	.	2.r	.
8r	.	.	.	.	.	.	.	8c/	.	8ee\ 8e\	.	.	.	.	.	8e\ 8c\	.	8ee/	.	.	8c/	.	.	8ee\ 8cc\	.	8ee\ 8cc\	.	8ee\	.	.	.
4r	.	.	.	.	.	.	.	4.B/	.	4dd\ 4d\	.	.	.	.	.	4d\ 4B\	.	4.dd/	.	.	4.B/	.	.	4dd\ 4b\	.	4dd\ 4b\	.	4ddT\	.	.	.
8r	.	.	.	.	.	.	.	.	.	8gg\ 8g\	.	.	.	.	.	8B\ 8G\	.	.	.	.	.	.	.	8b/ 8g/	.	8gg\ 8b\	.	8gg\	.	.	.
!!LO:PB:g=original
=10	=10	=10	=10	=10	=10	=10	=10	=10	=10	=10	=10	=10	=10	=10	=10	=10	=10	=10	=10	=10	=10	=10	=10	=10	=10	=10	=10	=10	=10	=10	=10
*	*	*	*	*	*	*^	*	*	*	*	*	*	*	*	*	*	*	*	*	*	*	*	*	*^	*	*	*	*	*	*	*
!LO:SIC:s=4G\	!	!	!	!	!	!	!	!	!	!	!	!	!	!	!	!	!	!	!	!	!	!	!	!	!	!	!	!	!	!	!	!	!
4Re\	.	2.GG/	.	2.D/ 2.GG/	.	4d/	2.G/	.	4B/	.	4dd\ 4d'\	.	2.G\	.	2.g/ 2.G/	.	4d\ 4B\	.	4dd/	2.G/	.	4B/	2.G\	.	4dd\ 4b\	4ryy	.	4dd\ 4b\	.	4ddT\	.	4r	.
8r	.	.	.	.	.	8e/	.	.	8c/	.	8ee\ 8e'\	.	.	.	.	.	8e\ 8c\	.	8ee/	.	.	8c/	.	.	8ee\ 8cc\	8ryy	.	8ee\ 8cc\	.	8ee\	.	8r	.
4r	.	.	.	.	.	4.d/	.	.	4B/	.	4dd\ 4d'\	.	.	.	.	.	4d\ 4B\	.	4.dd/	.	.	4.B/	.	.	4dd\ 4b\	4ryy	.	4dd\ 4b\	.	4ddT\	.	4r	.
8r	.	.	.	.	.	.	.	.	8d/	.	[8bb\ [>8b\	.	.	.	.	.	8B\ 8G\	.	.	.	.	.	.	.	[8b/	8b\	.	8dd\ 8b\	.	[8bb\	.	[8bb\	.
*	*	*	*	*	*	*v	*v	*	*	*	*	*	*	*	*	*	*	*	*	*	*	*	*	*	*	*	*	*	*	*	*	*	*
=11	=11	=11	=11	=11	=11	=11	=11	=11	=11	=11	=11	=11	=11	=11	=11	=11	=11	=11	=11	=11	=11	=11	=11	=11	=11	=11	=11	=11	=11	=11	=11	=11
*	*	*	*	*	*	*	*	*	*	*	*	*	*	*	*	*	*	*	*	*	*	*	*	*	*	*	*^	*	*	*	*	*
!LO:SIC:s=4G\	!	!	!	!	!	!	!	!	!	!	!	!	!	!	!	!	!	!	!	!	!	!	!	!	!	!	!	!	!	!	!	!	!
4Re\	.	4.GG/	.	4.D/ 4.GG/	.	4.G/	.	4.e/ 4.c/	.	8bb\]L 8b\]	.	2.r	.	2.r	.	4.c\ 4.A\	.	4.ee/	4.G/	.	2.c/	4.G\	.	8b/L]	8b\L	.	4.ee/	4.cc\	.	8bb\L]	.	8bb\L]	.
.	.	.	.	.	.	.	.	.	.	(8ddd\ 8dd\	.	.	.	.	.	.	.	.	.	.	.	.	.	8dd/	8dd\	.	.	.	.	(8ddd\	.	(8ddd\	.
8r	.	.	.	.	.	.	.	.	.	8ccc\J 8cc\	.	.	.	.	.	.	.	.	.	.	.	.	.	8cc/J	8cc\J	.	.	.	.	8ccc\J	.	8ccc\J	.
!LO:SIC:s=4G\	!	!	!	!	!	!	!	!	!	!	!	!	!	!	!	!	!	!	!	!	!	!	!	!	!	!	!	!	!	!	!	!	!
4Re\	.	4.GG/	.	4.D/ 4.GG/	.	4.A/ 4.F#/	.	4.d/ 4.c/	.	8aa\L 8a\)	.	.	.	.	.	4.A\ 4.F#\	.	4.dd/	4.G/	.	.	4.F#\	.	8a/L	8a\L	.	4.dd/	4.cc\	.	8aa\L	.	8aa\L	.
.	.	.	.	.	.	.	.	.	.	8ee\ 8e\	.	.	.	.	.	.	.	.	.	.	.	.	.	8e/	8e\	.	.	.	.	8ee\	.	8ee\	.
8r	.	.	.	.	.	.	.	.	.	8ff#\J 8f#\	.	.	.	.	.	.	.	.	.	.	.	.	.	8f#/J	8f#\J	.	.	.	.	8ff#\J)	.	8ff#\J)	.
=12	=12	=12	=12	=12	=12	=12	=12	=12	=12	=12	=12	=12	=12	=12	=12	=12	=12	=12	=12	=12	=12	=12	=12	=12	=12	=12	=12	=12	=12	=12	=12	=12	=12
*	*	*	*	*	*	*tremolo	*	*tremolo	*	*tremolo	*	*	*	*	*	*	*	*	*	*	*	*	*	*	*	*	*	*	*	*	*	*	*
!LO:SIC:s=4.GT\	!	!	!	!	!	!	!	!	!	!	!	!	!	!	!	!	!	!	!	!	!	!	!	!	!	!	!	!	!	!	!	!	!
4.ReT\	.	8GG/L	.	8GG/L	.	8G/L	.	8d/L 8B/	.	[4.gg\ [>4.g\	.	4.G\	.	4.g/ 4.G/	.	8G\L	.	4.dd/	4.G/	.	4.B/	4.G\	.	((4.g/	4.g\	.	[4.dd/	[4.b\	.	(4.gg\	.	(4.gg\	.
.	.	8BB/	.	8BB/	.	8G/	.	8d/ 8B/	.	.	.	.	.	.	.	8B\	.	.	.	.	.	.	.	.	.	.	.	.	.	.	.	.	.
.	.	8D/J	.	8D/J	.	8G/J	.	8d/J 8B/	.	.	.	.	.	.	.	8d\J	.	.	.	.	.	.	.	.	.	.	.	.	.	.	.	.	.
!LO:SIC:s=8G\	!	!	!	!	!	!	!	!	!	!	!	!	!	!	!	!	!	!	!	!	!	!	!	!	!	!	!	!	!	!	!	!	!
8Re\	.	8GG/	.	8GG/	.	8G/	.	8d/ 8B/	.	8gg\] 8g\]	.	8G\	.	8g/ 8G/	.	8G\	.	8dd/	8G/	.	8B/	8G\	.	8gg/))	8gg\	.	8dd/]	8b\]	.	8ggg\)	.	8ggg\)	.
8r	.	8r	.	8r	.	8r	.	8r	.	8r	.	8r	.	8r	.	8r	.	8r	8r	.	8r	8ryy	.	8r	8ryy	.	8r	8ryy	.	8r	.	8r	.
8r	.	8r	.	8r	.	8r	.	8r	.	8r	.	8r	.	8r	.	8r	.	8r	8r	.	8r	8ryy	.	8r	8ryy	.	8r	8ryy	.	8r	.	8r	.
*	*	*	*	*	*	*	*	*	*	*	*	*	*	*	*	*	*	*	*	*	*v	*v	*	*	*	*	*	*	*	*	*	*	*
*	*	*	*	*	*	*	*	*	*	*	*	*	*	*	*	*	*	*	*	*	*	*	*v	*v	*	*	*	*	*	*	*	*
=13	=13	=13	=13	=13	=13	=13	=13	=13	=13	=13	=13	=13	=13	=13	=13	=13	=13	=13	=13	=13	=13	=13	=13	=13	=13	=13	=13	=13	=13	=13	=13
.	.	.	.	.	.	.	.	.	.	.	.	.	.	.	.	.	.	.	.	.	.	.	(16qqa/LL 16qqf#/	.	(16qqff#/LL	.	.	(16qqaa/LLyy	.	(16qqaa/LL	.
!	!	!	!	!LO:TX:a:t=pizz	!	!	!	!	!	!	!	!	!	!	!	!	!	!	!	!	!	!	!	!	!	!	!	!LO:TX:a:t=col Flauto	!	!	!
.	.	.	.	.	.	.	.	.	.	.	.	.	.	.	.	.	.	.	.	.	.	.	16qqb/JJ 16qqg/	.	16qqgg/JJ	.	.	16qqbb/JJyy	.	16qqbb/JJ	.
!	!	!	!	!	!	!	!	!	!	!	!	!	!	!	!	!	!LO:DY:a:rj	!	!	!LO:DY:a:rj	!	!	!	!	!	!	!	!	!	!	!
2.r	.	2.r	.	8D\L	.	8d\L	.	(16a/LL	p	(16cc\LL	p	2.r	.	2.r	.	2.d\	p	2.dd/	2.dd\	p	2.r	.	4cc/ 4a/)	.	4aa\	2.rf	.	4ccc\yy)	.	4ccc\)	.
.	.	.	.	.	.	.	.	16d/	.	16dd\	.	.	.	.	.	.	.	.	.	.	.	.	.	.	.	.	.	.	.	.	.
.	.	.	.	8F#\	.	8f#\	.	16a/	.	16cc\	.	.	.	.	.	.	.	.	.	.	.	.	.	.	.	.	.	.	.	.	.
.	.	.	.	.	.	.	.	16d/	.	16dd\	.	.	.	.	.	.	.	.	.	.	.	.	.	.	.	.	.	.	.	.	.
.	.	.	.	8A\J	.	8a\J	.	16a/	.	16cc\	.	.	.	.	.	.	.	.	.	.	.	.	8d/	.	8dd\	.	.	8dd\yy	.	8dd\	.
.	.	.	.	.	.	.	.	16d/JJ	.	16dd\JJ)	.	.	.	.	.	.	.	.	.	.	.	.	.	.	.	.	.	.	.	.	.
.	.	.	.	.	.	.	.	.	.	.	.	.	.	.	.	.	.	.	.	.	.	.	16qqa/LL 16qqf#/	.	16qqff#/LL	.	.	(16qqaa/LLyy	.	(16qqaa/LL	.
.	.	.	.	.	.	.	.	.	.	.	.	.	.	.	.	.	.	.	.	.	.	.	16qqb/JJ 16qqg/	.	16qqgg/JJ	.	.	16qqbb/JJyy	.	16qqbb/JJ	.
*	*	*	*	*	*	*	*	*rep	*	*rep	*	*	*	*	*	*	*	*	*	*	*	*	*	*	*	*	*	*	*	*	*
.	.	.	.	8D\	.	8d\	.	16a/LL	.	(16cc\LL	.	.	.	.	.	.	.	.	.	.	.	.	4cc/ 4a/	.	4aa\	.	.	4ccc\yy)	.	4ccc\)	.
.	.	.	.	.	.	.	.	16d/	.	16dd\	.	.	.	.	.	.	.	.	.	.	.	.	.	.	.	.	.	.	.	.	.
.	.	.	.	8r	.	8r	.	16a/	.	16cc\	.	.	.	.	.	.	.	.	.	.	.	.	.	.	.	.	.	.	.	.	.
.	.	.	.	.	.	.	.	16d/	.	16dd\	.	.	.	.	.	.	.	.	.	.	.	.	.	.	.	.	.	.	.	.	.
.	.	.	.	8r	.	8r	.	16a/	.	16cc\	.	.	.	.	.	.	.	.	.	.	.	.	8d/	.	8dd\	.	.	8dd\yy	.	8dd\	.
.	.	.	.	.	.	.	.	16d/JJ)	.	16dd\JJ)	.	.	.	.	.	.	.	.	.	.	.	.	.	.	.	.	.	.	.	.	.
*	*	*	*	*	*	*	*	*	*	*	*	*	*	*	*	*	*	*v	*v	*	*	*	*	*	*	*	*	*	*	*	*
*	*	*	*	*	*	*	*	*Xrep	*	*Xrep	*	*	*	*	*	*	*	*	*	*	*	*	*	*	*	*	*	*	*	*
=14	=14	=14	=14	=14	=14	=14	=14	=14	=14	=14	=14	=14	=14	=14	=14	=14	=14	=14	=14	=14	=14	=14	=14	=14	=14	=14	=14	=14	=14	=14
.	.	.	.	.	.	.	.	.	.	.	.	.	.	.	.	.	.	.	.	.	.	8qa/	.	.	.	.	8qaa/yy	.	8qaa/	.
*	*	*	*	*	*	*	*	*	*	*	*	*	*	*	*	*	*	*tremolo	*	*	*	*	*	*tremolo	*tremolo	*	*	*	*	*
2.r	.	2.r	.	8GG/L	.	8G/L	.	(16g/LL	.	16b\LL	.	2.r	.	2.r	.	8G\L	.	8dd/L 8g/	.	2.r	.	(<16g/LL	.	(8dd/L	(8b\L	.	(16gg\LLyy	.	(16gg\LL	.
.	.	.	.	.	.	.	.	16d/	.	16dd\	.	.	.	.	.	.	.	.	.	.	.	16f#/	.	.	.	.	16ff#\yy	.	16ff#\	.
.	.	.	.	8BB/	.	8B/	.	16g/	.	16b\	.	.	.	.	.	8B\	.	8dd/ 8g/	.	.	.	16g/	.	8dd/	8b\	.	16gg\yy	.	16gg\	.
.	.	.	.	.	.	.	.	16d/	.	16dd\	.	.	.	.	.	.	.	.	.	.	.	16a/	.	.	.	.	16aa\yy	.	16aa\	.
.	.	.	.	8D/J	.	8d/J	.	16g/	.	16b\	.	.	.	.	.	8d\J	.	8dd/J 8g/	.	.	.	16b/	.	8dd/J	8b\J	.	16bb\yy	.	16bb\	.
.	.	.	.	.	.	.	.	16d/JJ	.	16dd\JJ	.	.	.	.	.	.	.	.	.	.	.	16cc/JJ	.	.	.	.	16ccc\JJyy	.	16ccc\JJ	.
.	.	.	.	8GG/	.	8G/	.	8g/)	.	8b\	.	.	.	.	.	8G\	.	8dd/ 8g/	.	.	.	8dd\)	.	8dd/)	8b\)	.	8ddd\)yy	.	8ddd\)	.
*	*	*	*	*	*	*	*	*	*	*	*	*	*	*	*	*	*	*Xtremolo	*	*	*	*	*	*Xtremolo	*Xtremolo	*	*	*	*	*
.	.	.	.	8r	.	8r	.	8r	.	8r	.	.	.	.	.	8r	.	8r	.	.	.	8r	.	8r	8ryy	.	8r	.	8r	.
.	.	.	.	.	.	.	.	.	.	(8qff#/	.	.	.	.	.	.	.	.	.	.	.	(8qff#/	.	.	.	.	.	.	8qfff#/	.
.	.	.	.	8r	.	8r	.	8r	.	8gg^<\)	.	.	.	.	.	8r	.	8r	.	.	.	8gg^<\)	.	8r	8ryy	.	8r	.	8ggg\	.
*	*	*	*	*	*	*	*	*	*	*	*	*	*	*	*	*	*	*	*	*	*	*	*	*v	*v	*	*	*	*	*
=15	=15	=15	=15	=15	=15	=15	=15	=15	=15	=15	=15	=15	=15	=15	=15	=15	=15	=15	=15	=15	=15	=15	=15	=15	=15	=15	=15	=15	=15
*	*	*	*	*	*	*	*	*	*	*	*	*	*	*	*	*	*	*^	*	*^	*	*	*	*	*	*	*	*	*
*	*	*tremolo	*	*tremolo	*	*	*	*	*	*	*	*	*	*	*	*	*	*	*	*	*	*	*	*	*	*	*	*	*	*	*
!LO:SIC:s=2.GT\	!	!	!LO:DY:rj	!LO:TX:b:t=arco	!LO:DY:rj	!LO:TX:i:t=l'arco	!LO:DY:rj	!	!	!	!LO:DY:rj	!	!LO:DY:rj	!	!LO:DY:rj	!	!LO:DY:a:rj	!	!	!	!	!	!	!	!LO:DY:rj	!	!	!	!LO:DY:rj	!	!
2.Re\T	.	8A\L	f	8A\L	f	8e\L 8A\	f	8g/L 8A/	.	(16gg\LL	f	[4.AA/	f	[4.a/ [4.e/	f	[4.A\ [>4.AA\	f	[4.ee/	[4.cc#X\	.	[4.a/	[4.g\	.	[4.a/ [4.e/	f	[4.cc#X/ [4.g/	.	16gg\LL	f	2.r	.
.	.	.	.	.	.	.	.	.	.	16aa\)	.	.	.	.	.	.	.	.	.	.	.	.	.	.	.	.	.	16aa\	.	.	.
.	.	8A\	.	8A\	.	8e\ 8A\	.	8g/ 8A/	.	16gg'\	.	.	.	.	.	.	.	.	.	.	.	.	.	.	.	.	.	16gg\	.	.	.
.	.	.	.	.	.	.	.	.	.	16ff#'\	.	.	.	.	.	.	.	.	.	.	.	.	.	.	.	.	.	16ff#\	.	.	.
.	.	8A\J	.	8A\J	.	8e\ 8A\	.	8g/ 8A/	.	16ee\	.	.	.	.	.	.	.	.	.	.	.	.	.	.	.	.	.	16ee\	.	.	.
.	.	.	.	.	.	.	.	.	.	16dd\JJ	.	.	.	.	.	.	.	.	.	.	.	.	.	.	.	.	.	16dd\JJ	.	.	.
.	.	8AA/L	.	8AA/L	.	8e\ 8A\	.	8g/ 8A/	.	(16cc#X\LL	.	8AA/L]	.	8a/]L 8e/]	.	8A\]L 8AA\]	.	8ee/L]	8cc#\L]	.	8a/L]	8g\L]	.	8a/]L 8e/]	.	8cc#/]L 8g/]	.	16cc#X\LL	.	.	.
.	.	.	.	.	.	.	.	.	.	16dd\)	.	.	.	.	.	.	.	.	.	.	.	.	.	.	.	.	.	16dd\	.	.	.
.	.	8AA/	.	8AA/	.	8e\ 8A\	.	8g/ 8A/	.	16cc#\	.	8AA/	.	8a/ 8e'/	.	8A\ 8AA\	.	8ee/	8cc#\	.	8a/	8g\	.	8a/ 8e'/	.	8cc#/ 8g'/	.	16cc#\	.	.	.
.	.	.	.	.	.	.	.	.	.	16b\	.	.	.	.	.	.	.	.	.	.	.	.	.	.	.	.	.	16b\	.	.	.
.	.	8AA/J	.	8AA/J	.	8e\J 8A\	.	8g/J 8A/	.	16a\	.	8AA/J	.	8a/J 8e'/	.	8A\J 8AA\	.	8ee/J	8cc#\J	.	8a/J	8g\J	.	8a/J 8e'/	.	8cc#/J 8g'/	.	16a\	.	.	.
.	.	.	.	.	.	.	.	.	.	16cc#\JJ	.	.	.	.	.	.	.	.	.	.	.	.	.	.	.	.	.	16cc#\JJ	.	.	.
=16	=16	=16	=16	=16	=16	=16	=16	=16	=16	=16	=16	=16	=16	=16	=16	=16	=16	=16	=16	=16	=16	=16	=16	=16	=16	=16	=16	=16	=16	=16	=16
*tremolo	*	*	*	*	*	*	*	*	*	*	*	*	*	*	*	*	*	*tremolo	*tremolo	*	*tremolo	*tremolo	*	*tremolo	*	*tremolo	*	*	*	*	*
!LO:SIC:s=8D/L	!	!	!	!	!	!	!	!	!	!	!	!	!	!	!	!	!	!	!	!	!	!	!	!	!	!	!	!	!	!	!
8Re/L	.	8D\L	.	8D\Lyy	.	8d\L	.	8f#/L 8A/	.	(16dd\LL	.	8D\L	.	8a/L 8d/	.	8D\L	.	8dd/L	8dd\L	.	8a/L	8f#\L	.	8a/L 8d/	.	8dd/L 8f#/	.	(16dd\LL	.	4r	.
.	.	.	.	.	.	.	.	.	.	16ff#\	.	.	.	.	.	.	.	.	.	.	.	.	.	.	.	.	.	16ff#\	.	.	.
!LO:SIC:s=8D/	!	!	!	!	!	!	!	!	!	!	!	!	!	!	!	!	!	!	!	!	!	!	!	!	!	!	!	!	!	!	!
8Re/	.	8F#\	.	8F#\yy	.	8d\	.	8f#/ 8A/	.	16aa\	.	8F#\	.	8a/ 8d/	.	8F#\	.	8dd/	8dd\	.	8a/	8f#\	.	8a/ 8d/	.	8dd/ 8f#/	.	16aa\	.	.	.
.	.	.	.	.	.	.	.	.	.	16bb\	.	.	.	.	.	.	.	.	.	.	.	.	.	.	.	.	.	16bb\	.	.	.
!LO:SIC:s=8D/J	!	!	!	!	!	!	!	!	!	!	!	!	!	!	!	!	!	!	!	!	!	!	!	!	!	!	!	!	!	!	!
8Re/J	.	8A\J	.	8A\Jyy	.	8d\J	.	8f#/J 8A/	.	16aa\	.	8A\J	.	8a/J 8d/	.	8A\J	.	8dd/J	8dd\J	.	8a/J	8f#\J	.	8a/J 8d/	.	8dd/J 8f#/	.	16aa\	.	8r	.
.	.	.	.	.	.	.	.	.	.	16ff#\JJ)	.	.	.	.	.	.	.	.	.	.	.	.	.	.	.	.	.	16ff#\JJ)	.	.	.
!LO:SIC:s=8D/	!	!	!	!	!	!	!	!	!	!	!	!	!	!	!	!	!	!	!	!	!	!	!	!	!	!	!	!	!	!	!
8Re/	.	8d\	.	8d\yy	.	8d\	.	8f#/ 8A/	.	8dd\	.	8D\	.	8a/ 8d/	.	8d\ 8D\	.	8dd/	8dd\	.	8a/	8f#\	.	8a/ 8d/	.	8dd/ 8f#/	.	8dd'\	.	8r	.
8r	.	8r	.	8ryy	.	8r	.	8r	.	8r	.	8r	.	8r	.	8r	.	8r	4ryy	.	8r	8ryy	.	(16f#/LL 16d/	.	4r	.	(16dd\LL	.	(16ff#\LL	.
.	.	.	.	.	.	.	.	.	.	.	.	.	.	.	.	.	.	.	.	.	.	.	.	16g/ 16e/	.	.	.	16ee\	.	16gg\	.
8r	.	8r	.	8ryy	.	8r	.	8r	.	8r	.	8r	.	8r	.	8r	.	8r	.	.	8r	8ryy	.	16a/ 16f#/	.	.	.	16ff#\	.	16aa\	.
.	.	.	.	.	.	.	.	.	.	.	.	.	.	.	.	.	.	.	.	.	.	.	.	16b/JJ 16g/	.	.	.	16gg\JJ	.	16bb\JJ	.
*	*	*	*	*	*	*	*	*	*	*	*	*	*	*	*	*	*	*v	*v	*	*	*	*	*	*	*	*	*	*	*	*
*	*	*	*	*	*	*	*	*	*	*	*	*	*	*	*	*	*	*	*	*v	*v	*	*	*	*	*	*	*	*	*
!!LO:PB:g=original
=17	=17	=17	=17	=17	=17	=17	=17	=17	=17	=17	=17	=17	=17	=17	=17	=17	=17	=17	=17	=17	=17	=17	=17	=17	=17	=17	=17	=17	=17
*	*	*	*	*	*	*	*	*	*	*	*	*	*	*	*	*	*	*^	*	*	*	*	*	*	*	*	*	*	*
.	.	.	.	.	.	.	.	.	.	.	.	.	.	.	.	.	.	.	.	.	.	.	.	.	16qqff#/LL	.	(16qqaa/LL	.	.	.
!	!	!	!	!	!	!LO:TX:b:t=pizz	!	!	!	!	!	!	!	!	!	!	!	!	!	!	!	!	!	!	!	!	!	!	!	!
.	.	.	.	.	.	.	.	.	.	.	.	.	.	.	.	.	.	.	.	.	.	.	.	.	16qqgg/JJ	.	16qqbb/JJ	.	.	.
*	*	*	*	*	*	*	*	*	*	*	*	*	*	*	*	*	*	*	*	*	*	*	*	*	*^	*	*	*	*	*
!	!	!	!	!	!	!	!	!	!	!	!	!	!	!	!	!	!LO:DY:a:rj	!	!	!	!	!	!LO:TX:t=P:problem=brak zakończenia łuku	!	!	!	!	!LO:TX:t=P:problem=brak zakończenia łuku	!	!LO:TX:t=P:problem=brak zakończenia łuku	!
2.r	.	2.r	.	8D\L	.	8d\L	.	(16a/LL	.	(16cc\LL	p	2.r	.	2.r	.	2.d\	p	2.dd\	2.dd/	p	2.r	.	4cc/ 4a/)	.	4aa/	2.r	.	4ccc\))	.	4ccc\)	.
.	.	.	.	.	.	.	.	16d/	.	16dd\	.	.	.	.	.	.	.	.	.	.	.	.	.	.	.	.	.	.	.	.	.
.	.	.	.	8F#\	.	8f#\	.	16a/	.	16cc\	.	.	.	.	.	.	.	.	.	.	.	.	.	.	.	.	.	.	.	.	.
.	.	.	.	.	.	.	.	16d/	.	16dd\	.	.	.	.	.	.	.	.	.	.	.	.	.	.	.	.	.	.	.	.	.
.	.	.	.	8A\J	.	8a\J	.	16a/	.	16cc\	.	.	.	.	.	.	.	.	.	.	.	.	8d/	.	8dd/	.	.	8dd\	.	8dd\	.
.	.	.	.	.	.	.	.	16d/JJ)	.	16dd\JJ)	.	.	.	.	.	.	.	.	.	.	.	.	.	.	.	.	.	.	.	.	.
.	.	.	.	.	.	.	.	.	.	.	.	.	.	.	.	.	.	.	.	.	.	.	(16qqa/LL 16qqf#/	.	(16qqff#/LL	.	.	.	.	(16qqaa/LL	.
.	.	.	.	.	.	.	.	.	.	.	.	.	.	.	.	.	.	.	.	.	.	.	16qqb/JJ 16qqg/	.	16qqgg/JJ	.	.	.	.	16qqbb/JJ	.
*	*	*	*	*	*	*	*	*rep	*	*rep	*	*	*	*	*	*	*	*	*	*	*	*	*	*	*	*	*	*rep	*	*	*
.	.	.	.	8D\	.	8d\	.	(16a/LL	.	(16cc\LL	.	.	.	.	.	.	.	.	.	.	.	.	4cc/ 4a/)	.	4aa/)	.	.	4ccc\	.	4ccc\)	.
.	.	.	.	.	.	.	.	16d/	.	16dd\	.	.	.	.	.	.	.	.	.	.	.	.	.	.	.	.	.	.	.	.	.
.	.	.	.	8r	.	8r	.	16a/	.	16cc\	.	.	.	.	.	.	.	.	.	.	.	.	.	.	.	.	.	.	.	.	.
.	.	.	.	.	.	.	.	16d/	.	16dd\	.	.	.	.	.	.	.	.	.	.	.	.	.	.	.	.	.	.	.	.	.
.	.	.	.	8r	.	8r	.	16a/	.	16cc\	.	.	.	.	.	.	.	.	.	.	.	.	8d/	.	8dd/	.	.	8dd\	.	8dd\	.
.	.	.	.	.	.	.	.	16d/JJ)	.	16dd\JJ)	.	.	.	.	.	.	.	.	.	.	.	.	.	.	.	.	.	.	.	.	.
*	*	*	*	*	*	*	*	*Xrep	*	*Xrep	*	*	*	*	*	*	*	*Xtremolo	*	*	*	*	*	*	*	*	*	*Xrep	*	*	*
*	*	*	*	*	*	*	*	*	*	*	*	*	*	*	*	*	*	*v	*v	*	*	*	*	*	*	*	*	*	*	*	*
=18	=18	=18	=18	=18	=18	=18	=18	=18	=18	=18	=18	=18	=18	=18	=18	=18	=18	=18	=18	=18	=18	=18	=18	=18	=18	=18	=18	=18	=18	=18
.	.	.	.	.	.	.	.	.	.	.	.	.	.	.	.	.	.	.	.	.	.	8qa/	.	.	.	.	8qaa/	.	8qaa/	.
2.r	.	2.r	.	8GG/L	.	8G/L	.	(16g/LL	.	(16b\LL	.	2.r	.	2.r	.	8G\L	.	8dd/L 8g/	.	2.r	.	16g/LL	.	8dd/L	8b\L	.	(16gg\LL	.	(16gg\LL	.
.	.	.	.	.	.	.	.	16d/	.	16dd\	.	.	.	.	.	.	.	.	.	.	.	16f#/	.	.	.	.	16ff#\	.	16ff#\	.
.	.	.	.	8BB/	.	8B/	.	16g/	.	16b\	.	.	.	.	.	8B\	.	8dd/ 8g/	.	.	.	16g/	.	8dd/	8b\	.	16gg\	.	16gg\	.
.	.	.	.	.	.	.	.	16d/	.	16dd\	.	.	.	.	.	.	.	.	.	.	.	16a/	.	.	.	.	16aa\	.	16aa\	.
.	.	.	.	8D/J	.	8d/J	.	16g/	.	16b\	.	.	.	.	.	8d\J	.	8dd/J 8g/	.	.	.	16b/	.	8dd/J	8b\J	.	16bb\	.	16bb\	.
.	.	.	.	.	.	.	.	16d/JJ)	.	16dd\JJ)	.	.	.	.	.	.	.	.	.	.	.	16cc/JJ	.	.	.	.	16ccc\JJ)	.	16ccc\JJ	.
*	*	*	*	*	*	*	*	*	*	*	*	*	*	*	*	*	*	*	*	*	*	*	*	*	*Xtremolo	*	*	*	*	*
.	.	.	.	8GG/	.	8G/	.	8g/	.	8b\	.	.	.	.	.	8G\	.	8dd/ 8g/	.	.	.	8dd\	.	8dd/	8b\	.	8ddd\	.	8ddd\)	.
.	.	.	.	8r	.	8r	.	8r	.	8r	.	.	.	.	.	8r	.	8r	.	.	.	8r	.	8r	8ryy	.	8r	.	8r	.
.	.	.	.	.	.	.	.	.	.	(8qff#/	.	.	.	.	.	.	.	.	.	.	.	(8qff#/	.	.	.	.	.	.	(8qfff#/	.
.	.	.	.	8r	.	8r	.	8r	.	8gg^<\)	.	.	.	.	.	8r	.	8r	.	.	.	8gg\)	.	8r	8ryy	.	8r	.	8ggg^<\)	.
*	*	*	*	*	*	*	*	*	*	*	*	*	*	*	*	*	*	*	*	*	*	*	*	*v	*v	*	*	*	*	*
=19	=19	=19	=19	=19	=19	=19	=19	=19	=19	=19	=19	=19	=19	=19	=19	=19	=19	=19	=19	=19	=19	=19	=19	=19	=19	=19	=19	=19	=19
*	*	*	*	*	*	*	*	*	*	*	*	*	*	*	*	*	*	*^	*	*^	*	*	*	*	*	*	*	*	*
*	*	*	*	*	*	*	*	*	*	*	*	*	*	*	*	*	*	*	*Xtremolo	*	*Xtremolo	*	*	*Xtremolo	*	*	*	*	*	*	*
!LO:SIC:s=2.GT\	!	!	!LO:DY:rj	!	!LO:DY:rj	!LO:TX:b:t=l'arco	!LO:DY:rj	!	!LO:DY:rj	!	!LO:DY:rj	!	!LO:DY:rj	!	!	!	!LO:DY:a:rj	!	!	!	!	!	!LO:DY:rj	!	!LO:DY:a:rj	!	!LO:DY:a:rj	!	!	!LO:TX:a:t=Col 1o Vo8	!LO:DY:rj
2.Re\T	.	8A\L	f	8A\L	f	8e\L 8A\	f	8g/L 8A/	f	16gg\LL	f	[4.AA/	f	[4.a/ [4.e/	.	[4.A\ [>4.AA\	f	[4.ee/	[4.cc#X\	.	[4.a/	[4.g\	f	[4.a/ [4.e/	f	[4.cc#X/ [4.g/	f	16gg\LL	.	16ggg\LLyy	f
.	.	.	.	.	.	.	.	.	.	16aa\	.	.	.	.	.	.	.	.	.	.	.	.	.	.	.	.	.	16aa\	.	16aaa\yy	.
.	.	8A\	.	8A\	.	8e\ 8A\	.	8g/ 8A/	.	16gg\	.	.	.	.	.	.	.	.	.	.	.	.	.	.	.	.	.	16gg\	.	16ggg\yy	.
.	.	.	.	.	.	.	.	.	.	16ff#\	.	.	.	.	.	.	.	.	.	.	.	.	.	.	.	.	.	16ff#\	.	16fff#\yy	.
.	.	8A\J	.	8A\J	.	8e\ 8A\	.	8g/ 8A/	.	16ee\	.	.	.	.	.	.	.	.	.	.	.	.	.	.	.	.	.	16ee\	.	16eee\yy	.
.	.	.	.	.	.	.	.	.	.	16dd\JJ	.	.	.	.	.	.	.	.	.	.	.	.	.	.	.	.	.	16dd\JJ	.	16ddd\JJyy	.
.	.	8AA/L	.	8AA/L	.	8e\ 8A\	.	8g/ 8A/	.	16cc#X\LL	.	8AA/L]	.	8a/]L 8e/]	.	8A\]L 8AA\]	.	8ee/L]	8cc#\L]	.	8a/L]	8g\L]	.	8a/]L 8e/]	.	8cc#/]L 8g/]	.	16cc#X\LL	.	16ccc#X\LLyy	.
.	.	.	.	.	.	.	.	.	.	16dd\	.	.	.	.	.	.	.	.	.	.	.	.	.	.	.	.	.	16dd\	.	16ddd\yy	.
.	.	8AA/	.	8AA/	.	8e\ 8A\	.	8g/ 8A/	.	16cc#\	.	8AA'/	.	8a/ 8e'/	.	8A\ 8AA\	.	8ee/	8cc#\	.	8a/	8g\	.	8a/ 8e'/	.	8cc#/ 8g'/	.	16cc#\	.	16ccc#\yy	.
.	.	.	.	.	.	.	.	.	.	16b\	.	.	.	.	.	.	.	.	.	.	.	.	.	.	.	.	.	16b\	.	16bb\yy	.
.	.	8AA/J	.	8AA/J	.	8e\J 8A\	.	8g/J 8A/	.	16a\	.	8AA'/J	.	8a/J 8e'/	.	8A\J 8AA\	.	8ee/J	8cc#\J	.	8a/J	8g\J	.	8a/J 8e'/	.	8cc#/J 8g'/	.	16a\	.	16aa\yy	.
.	.	.	.	.	.	.	.	.	.	16cc#\JJ	.	.	.	.	.	.	.	.	.	.	.	.	.	.	.	.	.	16cc#\JJ	.	16ccc#\JJyy	.
*	*	*	*	*	*	*	*	*Xtremolo	*	*	*	*	*	*	*	*	*	*	*	*	*	*	*	*	*	*	*	*	*	*	*
=20	=20	=20	=20	=20	=20	=20	=20	=20	=20	=20	=20	=20	=20	=20	=20	=20	=20	=20	=20	=20	=20	=20	=20	=20	=20	=20	=20	=20	=20	=20	=20
*	*	*	*	*	*	*	*	*	*	*	*	*	*	*	*	*^	*	*	*	*	*	*	*	*	*	*	*	*	*	*	*
*	*	*	*	*	*	*Xtremolo	*	*	*	*	*	*	*	*	*	*	*	*	*	*	*	*	*	*	*	*	*	*	*	*	*	*
!LO:SIC:s=4D/	!	!	!	!	!	!	!	!	!	!	!	!	!	!	!	!	!	!	!	!	!LO:DY:rj	!	!	!LO:DY:rj	!	!	!	!	!	!	!	!
4Re/	.	4D\	.	4D\	.	(8d/L	.	8f#/L 8A/	.	4dd\	.	4D/	.	4a/ 4d/	.	4D/	4D\	.	2.dd/	2.dd\	fp	2.a/	2.f#\	fp	4a/ 4d/	.	4dd/ 4f#/	.	4dd\	.	4ddd\	.
.	.	.	.	.	.	8A/)	.	8A/	.	.	.	.	.	.	.	.	.	.	.	.	.	.	.	.	.	.	.	.	.	.	.	.
8r	.	8r	.	8r	.	8d'/J	.	8f#/J	.	8r	.	8r	.	8r	.	8r	8ryy	.	.	.	.	.	.	.	8r	.	8r	.	8r	.	8r	.
*	*	*	*	*	*	*rep	*	*	*	*	*	*	*	*	*	*	*	*	*	*	*	*	*	*	*	*	*	*	*	*	*	*
!	!	!	!	!	!	!	!	!	!	!LO:TX:i:a:t=dolce	!	!	!	!	!	!	!	!	!	!	!	!	!	!	!	!	!	!	!	!	!	!
4r	.	4r	.	4r	.	(8d/L	.	(8f#/L	.	4r	.	4r	.	4r	.	8rG	4rGG	.	.	.	.	.	.	.	4r	.	4r	.	4r	.	8r	.
.	.	.	.	.	.	8A/)	.	8A/)	.	.	.	.	.	.	.	8rG	.	.	.	.	.	.	.	.	.	.	.	.	.	.	8r	.
8r	.	8r	.	8f#\	.	8d'/J	.	8f#'/J	.	8ff#\	.	8r	.	8r	.	8f#/	8rGG	.	.	.	.	.	.	.	8r	.	8r	.	8r	.	8fff#\	.
*	*	*	*	*	*	*Xrep	*	*	*	*	*	*	*	*	*	*	*	*	*	*	*	*	*	*	*	*	*	*	*	*	*	*
=21!|:	=21!|:	=21!|:	=21!|:	=21!|:	=21!|:	=21!|:	=21!|:	=21!|:	=21!|:	=21!|:	=21!|:	=21!|:	=21!|:	=21!|:	=21!|:	=21!|:	=21!|:	=21!|:	=21!|:	=21!|:	=21!|:	=21!|:	=21!|:	=21!|:	=21!|:	=21!|:	=21!|:	=21!|:	=21!|:	=21!|:	=21!|:	=21!|:
*>B	*	*>B	*	*>B	*	*>B	*	*>B	*	*>B	*	*>B	*	*>B	*	*>B	*>B	*	*>B	*>B	*	*>B	*>B	*	*>B	*	*>B	*	*>B	*	*>B	*
2.r	.	4D\	.	(8f#\L	.	(8d/L	.	(8f#/L	.	(8ff#\L	.	2.r	.	2.r	.	(8f#/L	2.r	.	2.dd/	2.dd\	.	4.a/	4.f#\	.	2.r	.	2.r	.	2.r	.	(8fff#\L	.
.	.	.	.	8e\)	.	8A/)	.	8A/)	.	8ee\)	.	.	.	.	.	8e/)	.	.	.	.	.	.	.	.	.	.	.	.	.	.	8eee\)	.
.	.	8r	.	8d'\J	.	8d'/J	.	8f#'/J	.	8dd'\J	.	.	.	.	.	8d/J	.	.	.	.	.	.	.	.	.	.	.	.	.	.	8ddd\J	.
.	.	4r	.	(8c#X\L	.	(8B/L	.	(8g/L	.	(8cc#X\L	.	.	.	.	.	(8c#X/L	.	.	.	.	.	4.b/	4.g\	.	.	.	.	.	.	.	(8ccc#X\L	.
.	.	.	.	8d\)	.	8d/)	.	8B/)	.	8dd\)	.	.	.	.	.	8d/)	.	.	.	.	.	.	.	.	.	.	.	.	.	.	8ddd\)	.
.	.	8r	.	(8B\J|	.	8B'/J	.	8g'/J	.	(8b'\J	.	.	.	.	.	8B'/J	.	.	.	.	.	.	.	.	.	.	.	.	.	.	(8bb|\J	.
=22	=22	=22	=22	=22	=22	=22	=22	=22	=22	=22	=22	=22	=22	=22	=22	=22	=22	=22	=22	=22	=22	=22	=22	=22	=22	=22	=22	=22	=22	=22	=22	=22
*	*	*	*	*	*	*	*	*	*	*	*	*	*	*	*	*	*	*	*	*	*	*	*	*	*	*	*^	*	*	*	*	*
2.r	.	4D\	.	4A\)	.	(8d/L	.	(8f#/L	.	(4a\)	.	2.r	.	2.r	.	4A/	2.r	.	2.dd/	2.dd\	.	2.a/	2.f#\	.	4r	.	4r	2r.f	.	4r	.	4aa\)	.
.	.	.	.	.	.	8A/)	.	8A/)	.	.	.	.	.	.	.	.	.	.	.	.	.	.	.	.	.	.	.	.	.	.	.	.	.
.	.	8r	.	8d\	.	8d'/J	.	8f#'/J	.	8dd\	.	.	.	.	.	8d/	.	.	.	.	.	.	.	.	8r	.	8r	.	.	8r	.	8ddd\	.
*	*	*	*	*	*	*rep	*	*rep	*	*	*	*	*	*	*	*	*	*	*	*	*	*	*	*	*	*	*	*	*	*	*	*	*
.	.	4r	.	4f#\	.	(8d/L	.	(8f#/L	.	4ff#\)	.	.	.	.	.	4f#/	.	.	.	.	.	.	.	.	4r	.	4r	.	.	4r	.	4fff#\	.
.	.	.	.	.	.	8A/)	.	8A/)	.	.	.	.	.	.	.	.	.	.	.	.	.	.	.	.	.	.	.	.	.	.	.	.	.
.	.	8r	.	8r	.	8d'/J	.	8f#'/J	.	8r	.	.	.	.	.	8r	.	.	.	.	.	.	.	.	(8a/	.	(8aa\	.	.	(8aa\	.	8r	.
*	*	*	*	*	*	*	*	*	*	*	*	*	*	*	*	*v	*v	*	*	*	*	*	*	*	*	*	*	*	*	*	*	*	*
*	*	*	*	*	*	*Xrep	*	*Xrep	*	*	*	*	*	*	*	*	*	*	*	*	*	*	*	*	*	*	*	*	*	*	*	*
=23	=23	=23	=23	=23	=23	=23	=23	=23	=23	=23	=23	=23	=23	=23	=23	=23	=23	=23	=23	=23	=23	=23	=23	=23	=23	=23	=23	=23	=23	=23	=23	=23
2.r	.	4D\	.	4D\yy	.	(8e/L	.	(8g/L	.	2.r	.	2.r	.	2.r	.	2.A\ 2.D\	.	2.ee/	2.cc#X\	.	2.a/	2.g\	.	8cc#X/L)	.	8ccc#X\L)	2r.f	.	8ccc#X\L)	.	2.r	.
.	.	.	.	.	.	8A/)	.	8A/)	.	.	.	.	.	.	.	.	.	.	.	.	.	.	.	8b'/	.	8bb'\	.	.	8bb'\	.	.	.
.	.	8r	.	8ryy	.	8e'/J	.	8g'/J	.	.	.	.	.	.	.	.	.	.	.	.	.	.	.	8a'/J	.	8aa'\J	.	.	8aa'\J	.	.	.
!	!	!	!	!	!	!	!	!	!	!	!	!	!	!	!	!	!	!	!	!	!	!	!	!LO:TX:a:t=P:problem=klamra łukowa	!	!LO:TUP:a	!	!	!LO:TX:a:t=P:problem=klamra łukowa, kropka zamiast numeru	!	!	!
!	!	!	!	!	!	!	!	!	!	!	!	!	!	!	!	!	!	!	!	!	!	!	!	!LO:TUP:b	!	!LO:TX:a:t=P:problem=klamra łukowa	!	!	!LO:TUP:a	!	!	!
*	*	*	*	*	*	*rep	*	*rep	*	*	*	*	*	*	*	*	*	*	*	*	*	*	*	*	*	*	*	*	*	*	*	*
.	.	4r	.	4ryy	.	(8e/L	.	(8g/L	.	.	.	.	.	.	.	.	.	.	.	.	.	.	.	24g/LL	.	24gg\L	.	.	24gg\LL	.	.	.
.	.	.	.	.	.	.	.	.	.	.	.	.	.	.	.	.	.	.	.	.	.	.	.	24a/	.	24aa\	.	.	24aa\	.	.	.
.	.	.	.	.	.	.	.	.	.	.	.	.	.	.	.	.	.	.	.	.	.	.	.	.	.	.	.	.	.	.	.	.
.	.	.	.	.	.	.	.	.	.	.	.	.	.	.	.	.	.	.	.	.	.	.	.	24g/J	.	24gg\	.	.	24gg\J	.	.	.
.	.	.	.	.	.	8A/)	.	8A/)	.	.	.	.	.	.	.	.	.	.	.	.	.	.	.	8f#/	.	8ff#\	.	.	8ff#'\	.	.	.
.	.	8r	.	8ryy	.	8e'/J	.	8g'/J	.	.	.	.	.	.	.	.	.	.	.	.	.	.	.	8e'/J	.	8ee'\J	.	.	8ee'\J	.	.	.
*	*	*	*	*	*	*	*	*	*	*	*	*	*	*	*	*	*	*	*	*	*	*	*	*	*	*v	*v	*	*	*	*	*
*	*	*	*	*	*	*Xrep	*	*Xrep	*	*	*	*	*	*	*	*	*	*	*	*	*	*	*	*	*	*	*	*	*	*	*
!!LO:PB:g=original
=24	=24	=24	=24	=24	=24	=24	=24	=24	=24	=24	=24	=24	=24	=24	=24	=24	=24	=24	=24	=24	=24	=24	=24	=24	=24	=24	=24	=24	=24	=24	=24
*	*	*	*	*	*	*	*	*	*	*	*	*	*	*	*	*^	*	*	*	*	*	*	*	*	*	*	*	*	*	*	*
2.r	.	4D\	.	4D\	.	(8d/L	.	(8f#/L	.	4r	.	2.r	.	2.r	.	[4.A/	2.D\	.	2.dd/	2.dd\	.	2.a/	2.f#\	.	&(4.f#/	.	(4.ff#/	.	(4.ff#\	.	4r	.
.	.	.	.	.	.	8A/)	.	8A/)	.	.	.	.	.	.	.	.	.	.	.	.	.	.	.	.	.	.	.	.	.	.	.	.
.	.	8r	.	8r	.	8d'/J	.	8f#'/J	.	8r	.	.	.	.	.	.	.	.	.	.	.	.	.	.	.	.	.	.	.	.	8r	.
.	.	.	.	.	.	.	.	.	.	.	.	.	.	.	.	.	.	.	.	.	.	.	.	.	(16qqf#/LL	.	(16qqff#/LL	.	(16qqff#/LL	.	.	.
.	.	.	.	.	.	.	.	.	.	.	.	.	.	.	.	.	.	.	.	.	.	.	.	.	16qqe/JJ&)	.	16qqee/JJ)	.	16qqee/JJ	.	.	.
*	*	*	*	*	*	*rep	*	*rep	*	*	*	*	*	*	*	*	*	*	*	*	*	*	*	*	*	*	*	*	*	*	*	*
.	.	4r	.	4r	.	(8d/L	.	(8f#/L	.	4r	.	.	.	.	.	4A/]	.	.	.	.	.	.	.	.	4d/)	.	4dd/)	.	4dd\))	.	4r	.
.	.	.	.	.	.	8A/)	.	8A/)	.	.	.	.	.	.	.	.	.	.	.	.	.	.	.	.	.	.	.	.	.	.	.	.
.	.	8r	.	8f#\	.	8d'/J	.	8f#'/J	.	8ff#\	.	.	.	.	.	8f#/	.	.	.	.	.	.	.	.	8r	.	8r	.	8r	.	8fff#\	.
*	*	*	*	*	*	*Xrep	*	*Xrep	*	*	*	*	*	*	*	*	*	*	*	*	*	*	*	*	*	*	*	*	*	*	*	*
=25	=25	=25	=25	=25	=25	=25	=25	=25	=25	=25	=25	=25	=25	=25	=25	=25	=25	=25	=25	=25	=25	=25	=25	=25	=25	=25	=25	=25	=25	=25	=25	=25
2.r	.	4D\	.	(8f#\L	.	(8d/L	.	(8f#/L	.	(8ff#\L	.	2.r	.	2.r	.	(8f#/L	2.r	.	2.dd/	2.dd\	.	4.a/	4.f#\	.	2.r	.	2.r	.	2.r	.	(8fff#\L	.
.	.	.	.	8e\)	.	8A/)	.	8A/)	.	8ee\)	.	.	.	.	.	8e/)	.	.	.	.	.	.	.	.	.	.	.	.	.	.	8eee\)	.
.	.	8r	.	8d'\J	.	8d'/J	.	8f#'/J	.	8dd'\J	.	.	.	.	.	8d/J	.	.	.	.	.	.	.	.	.	.	.	.	.	.	8ddd'\J	.
.	.	4r	.	8c#X'\L	.	(8B/L	.	(8g/L	.	(8cc#X'\L	.	.	.	.	.	8c#X/L	.	.	.	.	.	4.b/	4.g\	.	.	.	.	.	.	.	(8ccc#X\L	.
.	.	.	.	(8qe/	.	.	.	.	.	(8qee/	.	.	.	.	.	(8qe/	.	.	.	.	.	.	.	.	.	.	.	.	.	.	8qeee/	.
.	.	.	.	8d\)	.	8d/)	.	8B/)	.	8dd\))	.	.	.	.	.	8d/)	.	.	.	.	.	.	.	.	.	.	.	.	.	.	8ddd\)	.
.	.	8r	.	(8B'\J	.	8B'/J	.	8g'/J	.	(8b'\J	.	.	.	.	.	(8B'</J	.	.	.	.	.	.	.	.	.	.	.	.	.	.	(8bb|\J	.
=26	=26	=26	=26	=26	=26	=26	=26	=26	=26	=26	=26	=26	=26	=26	=26	=26	=26	=26	=26	=26	=26	=26	=26	=26	=26	=26	=26	=26	=26	=26	=26	=26
2.r	.	4D\	.	4A\)	.	8d/L	.	(8f#/L	.	4a\)	.	2.r	.	2.r	.	4A/)	2.r	.	2.dd/	2.dd\	.	2.a/	2.f#\	.	4r	.	4r	.	4r	.	4aa\)	.
.	.	.	.	.	.	8A/	.	8A/)	.	.	.	.	.	.	.	.	.	.	.	.	.	.	.	.	.	.	.	.	.	.	.	.
.	.	8r	.	8d\	.	8d/J	.	8f#'/J	.	8dd\	.	.	.	.	.	8d/	.	.	.	.	.	.	.	.	8r	.	8r	.	8r	.	8ddd\	.
*	*	*	*	*	*	*rep	*	*rep	*	*	*	*	*	*	*	*	*	*	*	*	*	*	*	*	*	*	*	*	*	*	*	*
.	.	4r	.	4f#\	.	8d/L	.	(8f#/L	.	4ff#\	.	.	.	.	.	4f#/	.	.	.	.	.	.	.	.	4r	.	4r	.	4r	.	4fff#\	.
.	.	.	.	.	.	8A/	.	8A/)	.	.	.	.	.	.	.	.	.	.	.	.	.	.	.	.	.	.	.	.	.	.	.	.
.	.	8r	.	8r	.	8d/J	.	8f#'/J	.	8r	.	.	.	.	.	8r	.	.	.	.	.	.	.	.	&(8a/	.	(8aa\	.	(8aa\	.	8r	.
*	*	*	*	*	*	*	*	*	*	*	*	*	*	*	*	*v	*v	*	*	*	*	*	*	*	*	*	*	*	*	*	*	*
*	*	*	*	*	*	*Xrep	*	*Xrep	*	*	*	*	*	*	*	*	*	*	*	*	*	*	*	*	*	*	*	*	*	*	*
=27	=27	=27	=27	=27	=27	=27	=27	=27	=27	=27	=27	=27	=27	=27	=27	=27	=27	=27	=27	=27	=27	=27	=27	=27	=27	=27	=27	=27	=27	=27	=27
.	.	.	.	.	.	.	.	.	.	.	.	.	.	.	.	.	.	.	.	.	.	.	.	(16qqa/LL	.	(16qqaa/LL	.	(32qqaa/LLL	.	.	.
.	.	.	.	.	.	.	.	.	.	.	.	.	.	.	.	.	.	.	.	.	.	.	.	16qqb/JJ&)	.	16qqbb/JJ	.	32qqbb/JJJ	.	.	.
2.r	.	4D\	.	4D\	.	(8e/L	.	(8g/L	.	2.r	.	2.r	.	2.r	.	2.A\ 2.D^<\	.	2.ee/	2.cc#X\	>	2.a/	2.g\	>	8cc#X/L)	.	8ccc#X\L))	.	8ccc#X\L))	.	2.r	.
.	.	.	.	.	.	8A/)	.	8A/)	.	.	.	.	.	.	.	.	.	.	.	.	.	.	.	8b'/	.	8bb'\	.	8bb'\	.	.	.
.	.	8r	.	8r	.	8e'/J	.	8g'/J	.	.	.	.	.	.	.	.	.	.	.	.	.	.	.	8a'/J	.	8aa'\J	.	8aa'\J	.	.	.
*	*	*	*	*	*	*rep	*	*rep	*	*	*	*	*	*	*	*	*	*	*	*	*	*	*	*	*	*	*	*	*	*	*
.	.	4r	.	4r	.	(8e/L	.	(8g/L	.	.	.	.	.	.	.	.	.	.	.	]	.	.	.	8g'/L	.	8gg'\L	.	8gg'\L	.	.	.
.	.	.	.	.	.	8A/)	.	8A/)	.	.	.	.	.	.	.	.	.	.	.	.	.	.	.	8f#'/	.	8ff#'\	.	8ff#'\	.	.	.
.	.	8r	.	8r	.	8e'/J	.	8g'/J	.	.	.	.	.	.	.	.	.	.	.	.	.	.	.	8e'/J	.	8ee'\J	.	8ee'\J	.	.	.
*	*	*	*	*	*	*Xrep	*	*Xrep	*	*	*	*	*	*	*	*	*	*	*	*	*	*	*	*	*	*	*	*	*	*	*
=28	=28	=28	=28	=28	=28	=28	=28	=28	=28	=28	=28	=28	=28	=28	=28	=28	=28	=28	=28	=28	=28	=28	=28	=28	=28	=28	=28	=28	=28	=28	=28
2.r	.	8D\	.	8D\	.	8d\	.	8f#/ 8A/	.	8r	.	2.r	.	2.r	.	8A\ 8D\	.	8dd/	8dd\	.	8a/	8f#\	]	8d/	.	8dd\	.	8dd\	.	2.r	.
.	.	8r	.	8r	.	8r	.	16d/LL	.	16dd\LL	.	.	.	.	.	8r	.	8r	8ryy	.	8r	8ryy	.	8r	.	8r	.	8r	.	.	.
.	.	.	.	.	.	.	.	16e/	.	16ee\	.	.	.	.	.	.	.	.	.	.	.	.	.	.	.	.	.	.	.	.	.
.	.	8r	.	16D\LL	.	16d\LL	.	16f#/	.	16ff#\	.	.	.	.	.	8r	.	8r	2ryy	.	8r	2ryy	.	8r	.	8r	.	8r	.	.	.
.	.	.	.	16E\JJ	.	16e\JJ	.	16g/JJ	.	16gg\JJ	.	.	.	.	.	.	.	.	.	.	.	.	.	.	.	.	.	.	.	.	.
.	.	4r	.	16F#\LL	.	16f#\LL	.	16a/LL	.	16aa\LL	.	.	.	.	.	4r	.	4r	.	.	4r	.	.	4r	.	4r	.	4r	.	.	.
.	.	.	.	16E\	.	16e\	.	16g/	.	16gg\	.	.	.	.	.	.	.	.	.	.	.	.	.	.	.	.	.	.	.	.	.
.	.	.	.	16D\	.	16d\	.	16f#/	.	16ff#\	.	.	.	.	.	.	.	.	.	.	.	.	.	.	.	.	.	.	.	.	.
.	.	.	.	16E\	.	16e\	.	16g/	.	16gg\	.	.	.	.	.	.	.	.	.	.	.	.	.	.	.	.	.	.	.	.	.
.	.	8r	.	16F#\	.	16f#\	.	16a/	.	16aa\	.	.	.	.	.	8r	.	8r	.	.	8r	.	.	8r	.	8r	.	8r	.	.	.
.	.	.	.	16G\JJ	.	16g\JJ	.	16b/JJ	.	16bb\JJ	.	.	.	.	.	.	.	.	.	.	.	.	.	.	.	.	.	.	.	.	.
*	*	*	*	*	*	*	*	*	*	*	*	*	*	*	*	*	*	*v	*v	*	*	*	*	*	*	*	*	*	*	*	*
*	*	*	*	*	*	*	*	*	*	*	*	*	*	*	*	*	*	*	*	*v	*v	*	*	*	*	*	*	*	*	*
=29	=29	=29	=29	=29	=29	=29	=29	=29	=29	=29	=29	=29	=29	=29	=29	=29	=29	=29	=29	=29	=29	=29	=29	=29	=29	=29	=29	=29	=29
2.rF	.	2.r	.	16A\LL	.	16a\LL	.	16cc/LL	.	16ccc\LL	.	2.r	.	2.r	.	2.r	.	2.r	.	2.r	.	2.r	.	2.r	.	2.r	.	2.r	.
.	.	.	.	16G\	.	16g\	.	16b/	.	16bb\	.	.	.	.	.	.	.	.	.	.	.	.	.	.	.	.	.	.	.
.	.	.	.	16F#\	.	16f#\	.	16a/	.	16aa\	.	.	.	.	.	.	.	.	.	.	.	.	.	.	.	.	.	.	.
.	.	.	.	16G\	.	16g\	.	16b/	.	16bb\	.	.	.	.	.	.	.	.	.	.	.	.	.	.	.	.	.	.	.
.	.	.	.	16A\	.	16a\	.	16cc/	.	16ccc\	.	.	.	.	.	.	.	.	.	.	.	.	.	.	.	.	.	.	.
.	.	.	.	16B\JJ	.	16b\JJ	.	16dd/JJ	.	16ddd\JJ	.	.	.	.	.	.	.	.	.	.	.	.	.	.	.	.	.	.	.
.	.	.	.	16cn\LL	.	16ccn\LL	.	16ee/LL	.	16eee\LL	.	.	.	.	.	.	.	.	.	.	.	.	.	.	.	.	.	.	.
.	.	.	.	16B\	.	16b\	.	16dd/	.	16ddd\	.	.	.	.	.	.	.	.	.	.	.	.	.	.	.	.	.	.	.
.	.	.	.	16A\	.	16a\	.	16cc/	.	16ccc\	.	.	.	.	.	.	.	.	.	.	.	.	.	.	.	.	.	.	.
.	.	.	.	16G\	.	16g\	.	16b/	.	16bb\	.	.	.	.	.	.	.	.	.	.	.	.	.	.	.	.	.	.	.
.	.	.	.	16F#\	.	16f#\	.	16a/	.	16aa\	.	.	.	.	.	.	.	.	.	.	.	.	.	.	.	.	.	.	.
.	.	.	.	16E\JJ	.	16e\JJ	.	16g/JJ	.	16gg\JJ	.	.	.	.	.	.	.	.	.	.	.	.	.	.	.	.	.	.	.
!!LO:PB:g=original
=30	=30	=30	=30	=30	=30	=30	=30	=30	=30	=30	=30	=30	=30	=30	=30	=30	=30	=30	=30	=30	=30	=30	=30	=30	=30	=30	=30	=30	=30
*	*	*	*	*	*	*	*	*	*	*	*	*	*	*	*	*	*	*	*	*^	*	*	*	*	*	*	*	*	*
*	*	*	*	*Xtremolo	*	*	*	*	*	*Xtremolo	*	*	*	*	*	*	*	*	*	*	*	*	*	*	*	*	*	*	*	*
2.r	.	2.r	.	8D#X\L	.	8d#X\L	.	8f#/L	.	8ff#~\L	.	2.r	.	2.r	.	4r	.	2.r	.	4r	4ryy	.	4r	.	4r	.	2.r	.	2.r	.
.	.	.	.	8d#X\	.	8b\	.	8f#/	.	(16bb\L	.	.	.	.	.	.	.	.	.	.	.	.	.	.	.	.	.	.	.	.
.	.	.	.	.	.	.	.	.	.	16ccc\	.	.	.	.	.	.	.	.	.	.	.	.	.	.	.	.	.	.	.	.
.	.	.	.	8d#\J	.	8b\J	.	8f#/J	.	16bb\	.	.	.	.	.	8r	.	.	.	8r	8ryy	.	8r	.	8r	.	.	.	.	.
.	.	.	.	.	.	.	.	.	.	16ccc\JJ)	.	.	.	.	.	.	.	.	.	.	.	.	.	.	.	.	.	.	.	.
!	!	!	!	!	!	!	!	!	!	!	!	!	!	!	!	!	!	!	!	!	!	!	!	!	!	!LO:DY:a:rj	!	!	!	!
.	.	.	.	(4.d#^<\	.	[4.b\	.	(4.f#^/	.	8bb\L	.	.	.	.	.	8r	.	.	.	8r	8ryy	.	8r	.	8r	p	.	.	.	.
!	!	!	!	!	!	!	!	!	!	!	!	!	!	!	!	!	!LO:DY:rj	!	!	!	!	!	!	!	!	!	!	!	!	!
.	.	.	.	.	.	.	.	.	.	(8bb\^<|	.	.	.	.	.	8d#X\L	p	.	.	8B/L	8B\L	.	8b/L 8f#'/	.	8ff#\L 8b'\	.	.	.	.	.
.	.	.	.	.	.	.	.	.	.	8aa\J)	.	.	.	.	.	8d#\J	.	.	.	8B/J	8B\J	.	8b/J 8f#'/	.	8ff#\J 8b'\	.	.	.	.	.
=31	=31	=31	=31	=31	=31	=31	=31	=31	=31	=31	=31	=31	=31	=31	=31	=31	=31	=31	=31	=31	=31	=31	=31	=31	=31	=31	=31	=31	=31	=31
2.r	.	2.r	.	8e'\L)	.	8b\L]	.	8g/L)	.	8gg'\L	.	2.r	.	2.r	.	8e\	.	2.r	.	8B/	8B\	.	8b/ 8g/	.	8gg\ 8b\	.	2.r	.	8r	.
.	.	.	.	8e'\	.	8b'\	.	8g/	.	(16ee\L	.	.	.	.	.	8r	.	.	.	8r	8ryy	.	8r	.	8r	.	.	.	(16eee\LL	.
.	.	.	.	.	.	.	.	.	.	16ff#\	.	.	.	.	.	.	.	.	.	.	.	.	.	.	.	.	.	.	16fff#\	.
.	.	.	.	8e'\J	.	8b'\J	.	8g/J	.	16ee\	.	.	.	.	.	8r	.	.	.	8r	8ryy	.	8r	.	8r	.	.	.	16eee\	.
.	.	.	.	.	.	.	.	.	.	16ff#\JJ	.	.	.	.	.	.	.	.	.	.	.	.	.	.	.	.	.	.	16fff#\JJ	.
.	.	.	.	4.f#^<\	.	4.a\^<	.	4.a^/	.	8ee\L)	.	.	.	.	.	8r	.	.	.	4r	4ryy	.	8r	.	8r	.	.	.	8eee\L)	.
.	.	.	.	.	.	.	.	.	.	(8dd\^<|	.	.	.	.	.	8f#\L	.	.	.	.	.	.	8dd\L 8a'\	.	8aa\L 8dd'\	.	.	.	(8ddd|^<\	.
.	.	.	.	.	.	.	.	.	.	8cc\J)	.	.	.	.	.	8f#\J	.	.	.	8r	8ryy	.	8dd\J 8a'\	.	8aa\J 8dd'\	.	.	.	8ccc\J)	.
=32	=32	=32	=32	=32	=32	=32	=32	=32	=32	=32	=32	=32	=32	=32	=32	=32	=32	=32	=32	=32	=32	=32	=32	=32	=32	=32	=32	=32	=32	=32
*	*	*	*	*	*	*	*	*	*	*	*	*	*	*	*	*	*	*^	*	*	*	*	*	*	*	*	*	*	*	*
!LO:SIC:s=4G\	!	!	!LO:DY:rj	!	!LO:DY:rj	!	!	!	!	!	!LO:DY:rj	!	!	!	!LO:DY:rj	!	!LO:DY:a:rj	!	!	!	!	!	!	!	!LO:DY:a:rj	!	!	!LO:TX:a:t=Col. Vo.1o. loco	!LO:DY:rj	!LO:TX:a:t=Col. Vo.1o.8va.	!LO:DY:rj
4Re\	.	4G\	f	4g\	f	4g\	.	4b/ 4d/	.	8b'\L	f	4GG/	.	4g/ 4G/	f	4g\	f	4dd/ 4g/	4ryy	.	4b/	4g\	.	4dd/ 4g/	f	4bb\ 4dd\	.	8b'\Lyy	f	8bb'\Lyy	f
.	.	.	.	.	.	.	.	.	.	(16ff#\L	.	.	.	.	.	.	.	.	.	.	.	.	.	.	.	.	.	(16ff#\Lyy	.	(16fff#\Lyy	.
.	.	.	.	.	.	.	.	.	.	16gg\	.	.	.	.	.	.	.	.	.	.	.	.	.	.	.	.	.	16gg\yy	.	16ggg\yy	.
8r	.	8r	.	8r	.	8r	.	8r	.	16ff#\	.	8r	.	8r	.	8r	.	8r	8ryy	.	8r	8ryy	.	8r	.	8r	.	16ff#\yy	.	16fff#\yy	.
.	.	.	.	.	.	.	.	.	.	16gg\JJ)	.	.	.	.	.	.	.	.	.	.	.	.	.	.	.	.	.	16gg\JJ)yy	.	16ggg\JJ)yy	.
4r	.	4C/	.	4C/	.	4a\ 4e\ 4A\	.	4cc/ 4e/	.	8a'\L	.	4C/	.	4e/ 4c/	.	4e\ 4c\	.	4ee/	4cc\	.	4a/	4a\	.	4aa\ 4cc\	.	4ccc\ 4ee\	.	8a'\Lyy	.	8aa'\Lyy	.
.	.	.	.	.	.	.	.	.	.	(16dd#X\L	.	.	.	.	.	.	.	.	.	.	.	.	.	.	.	.	.	(16dd#X\Lyy	.	(16ddd#X\Lyy	.
.	.	.	.	.	.	.	.	.	.	16ee\	.	.	.	.	.	.	.	.	.	.	.	.	.	.	.	.	.	16ee\yy	.	16eee\yy	.
8r	.	8r	.	8r	.	8r	.	8r	.	16dd#\	.	8r	.	8r	.	8r	.	8r	8ryy	.	8r	8ryy	.	8r	.	8r	.	16dd#\yy	.	16ddd#\yy	.
.	.	.	.	.	.	.	.	.	.	16ee\JJ)	.	.	.	.	.	.	.	.	.	.	.	.	.	.	.	.	.	16ee\JJ)yy	.	16eee\JJ)yy	.
=33	=33	=33	=33	=33	=33	=33	=33	=33	=33	=33	=33	=33	=33	=33	=33	=33	=33	=33	=33	=33	=33	=33	=33	=33	=33	=33	=33	=33	=33	=33	=33
!LO:SIC:s=4D/	!	!	!	!	!	!	!	!	!	!	!	!	!	!	!	!	!	!	!	!	!	!	!	!	!	!	!	!	!	!	!
4Re/	.	4D\	.	4D\yy	.	4g\ 4B\	.	4b/ 4d/	.	8b'\L	.	4D\	.	4g/ 4B/	.	4d\	<	4dd/	4dd\	.	4b/	4g\	.	4gg\ 4b\	.	4bb\ 4gg\	.	8b'\Lyy	.	8bb'\Lyy	.
.	.	.	.	.	.	.	.	.	.	(16cc#X\L	.	.	.	.	.	.	.	.	.	.	.	.	.	.	.	.	.	(16cc#X\Lyy	.	(16ccc#X\Lyy	.
.	.	.	.	.	.	.	.	.	.	16dd\	.	.	.	.	.	.	.	.	.	.	.	.	.	.	.	.	.	16dd\yy	.	16ddd\yy	.
!	!	!	!LO:HP:a	!	!	!	!	!	!	!	!	!	!	!	!	!	!	!	!	!	!	!	!	!	!	!	!	!	!	!	!
8r	.	8r	<	8ryy	.	8r	.	8r	.	16cc#\	.	8r	.	8r	.	8r	.	8r	8ryy	.	8r	8ryy	.	8r	.	8r	.	16cc#\yy	.	16ccc#\yy	.
.	.	.	.	.	.	.	.	.	.	16dd\JJ)	.	.	.	.	.	.	.	.	.	.	.	.	.	.	.	.	.	16dd\JJ)yy	.	16ddd\JJ)yy	.
!LO:SIC:s=4D/	!	!	!	!	!	!	!	!	!	!	!	!	!	!	!	!	!	!	!	!	!	!	!	!	!	!	!	!	!	!	!
4Re/	.	4D\	.	4D\yy	.	4f#\ 4c\	.	4a/ 4d/	.	8a'\L	.	4D\	.	4f#X/ 4A/	.	4c\ 4D\	.	4dd/	4dd\	.	4a/ 4d/	4ryy	.	4ff#\ 4cc\	.	4aa\ 4ff#\	.	8a'\Lyy	.	8aa'\Lyy	.
.	.	.	.	.	.	.	.	.	.	(16cc#\L	.	.	.	.	.	.	.	.	.	.	.	.	.	.	.	.	.	(16cc#\Lyy	.	(16ccc#\Lyy	.
.	.	.	.	.	.	.	.	.	.	16dd\	.	.	.	.	.	.	.	.	.	.	.	.	.	.	.	.	.	16dd\yy	.	16ddd\yy	.
8r	.	8r	.	8ryy	.	8r	.	8r	.	16cc#\	.	8r	.	8r	.	8r	.	8r	8ryy	.	8r	8ryy	.	8r	.	8r	.	16cc#\yy	.	16ccc#\yy	.
.	.	.	.	.	.	.	.	.	.	16dd\JJ)	.	.	.	.	.	.	.	.	.	.	.	.	.	.	.	.	.	16dd\JJ)yy	.	16ddd\JJ)yy	.
=34	=34	=34	=34	=34	=34	=34	=34	=34	=34	=34	=34	=34	=34	=34	=34	=34	=34	=34	=34	=34	=34	=34	=34	=34	=34	=34	=34	=34	=34	=34	=34
!LO:SIC:s=4G\	!	!	!	!	!	!	!	!	!	!	!	!	!	!	!	!	!	!	!	!	!	!	!	!	!	!	!	!	!	!	!
4Re\	.	4G\	.	4G\yy	.	4g\ 4B\	.	4b/ 4d/	.	8b\L|	.	4G\	.	4g/ 4G/	.	4B\ 4G\	.	4dd/ 4g/	4ryy	.	4b/	4g\	.	4gg\ 4b\	.	4bb\ 4gg\	.	8b|\Lyy	.	8bb|\Lyy	.
.	.	.	.	.	.	.	.	.	.	(16ff#\L	.	.	.	.	.	.	.	.	.	.	.	.	.	.	.	.	.	(16ff#\Lyy	.	(16fff#\Lyy	.
.	.	.	.	.	.	.	.	.	.	16gg\	.	.	.	.	.	.	.	.	.	.	.	.	.	.	.	.	.	16gg\yy	.	16ggg\yy	.
8r	.	8r	.	8ryy	.	8r	.	8r	.	16ff#\	.	8r	.	8r	.	8r	.	8r	8ryy	.	8r	8ryy	.	8r	.	8r	.	16ff#\yy	.	16fff#\yy	.
.	.	.	.	.	.	.	.	.	.	16gg\JJ)	.	.	.	.	.	.	.	.	.	.	.	.	.	.	.	.	.	16gg\JJ)yy	.	16ggg\JJ)yy	.
4r	.	4C/	.	4C/yy	.	4a\ 4d\ 4A\	.	4cc/ 4e/	.	8a\L|	.	4C/	.	4e/ 4c/	.	4e\ 4c\	.	4ee/	4cc\	.	4a/	4a\	.	4aa\ 4cc\	.	4ccc\ 4ee\	.	8a|\Lyy	.	8aa|\Lyy	.
.	.	.	.	.	.	.	.	.	.	(16dd#X\L	.	.	.	.	.	.	.	.	.	.	.	.	.	.	.	.	.	(16dd#X\Lyy	.	(16ddd#X\Lyy	.
.	.	.	.	.	.	.	.	.	.	16ee\	.	.	.	.	.	.	.	.	.	.	.	.	.	.	.	.	.	16ee\yy	.	16eee\yy	.
8r	.	8r	.	8ryy	.	8r	.	8r	.	16dd#\	.	8r	.	8r	.	8r	.	8r	8ryy	.	8r	8ryy	.	8r	.	8r	.	16dd#\yy	.	16ddd#\yy	.
.	.	.	.	.	.	.	.	.	.	16ee\JJ)	.	.	.	.	.	.	.	.	.	.	.	.	.	.	.	.	.	16ee\JJ)yy	.	16eee\JJ)yy	.
=35	=35	=35	=35	=35	=35	=35	=35	=35	=35	=35	=35	=35	=35	=35	=35	=35	=35	=35	=35	=35	=35	=35	=35	=35	=35	=35	=35	=35	=35	=35	=35
!LO:SIC:s=4D/	!	!	!	!	!	!	!	!	!	!	!	!	!	!	!	!	!	!	!	!	!	!	!	!	!	!	!	!	!	!	!
4Re/	.	4D/	.	4D/yy	.	4g\ 4B\	.	4b/ 4d/	.	8b\L|	.	4D\	.	4g/ 4G/	.	4d\	.	4dd/	4dd\	.	4b/	4g\	.	4gg\ 4b\	.	4bb\ 4gg\	.	8b|\Lyy	.	8bb|\Lyy	.
.	.	.	.	.	.	.	.	.	.	(16cc#X\L	.	.	.	.	.	.	.	.	.	.	.	.	.	.	.	.	.	(16cc#X\Lyy	.	(16ccc#X\Lyy	.
.	.	.	.	.	.	.	.	.	.	16dd\	.	.	.	.	.	.	.	.	.	.	.	.	.	.	.	.	.	16dd\yy	.	16ddd\yy	.
8r	.	8r	.	8ryy	.	8r	.	8r	.	16cc#\	.	8r	.	8r	.	8r	.	8r	8ryy	.	8r	8ryy	.	8r	.	8r	.	16cc#\yy	.	16ccc#\yy	.
.	.	.	.	.	.	.	.	.	.	16dd\JJ)	.	.	.	.	.	.	.	.	.	.	.	.	.	.	.	.	.	16dd\JJ)yy	.	16ddd\JJ)yy	.
!LO:SIC:s=4D/	!	!	!	!	!	!	!	!	!	!	!	!	!	!	!	!	!	!	!	!	!	!	!	!	!	!	!	!	!	!	!
4Re/	.	4D/	.	4D/yy	.	4f#\ 4c\	.	4a/ 4d/	.	8a\L|	.	4D\	.	4f#X/ 4A/	.	4c\ 4E\	.	4dd/	4dd\	.	4a/ 4d/	4ryy	.	4ff#\ 4cc\	.	4aa\ 4ff#\	.	8a/|Lyy	.	8aa|\Lyy	.
.	.	.	.	.	.	.	.	.	.	(16cc#\L	.	.	.	.	.	.	.	.	.	.	.	.	.	.	.	.	.	(16cc#\Lyy	.	(16ccc#\Lyy	.
.	.	.	.	.	.	.	.	.	.	16dd\	.	.	.	.	.	.	.	.	.	.	.	.	.	.	.	.	.	16dd\yy	.	16ddd\yy	.
8r	.	8r	.	8ryy	.	8r	.	8r	.	16cc#\	.	8r	.	8r	.	8r	.	8r	8ryy	.	8r	8ryy	.	8r	.	8r	.	16cc#\yy	.	16ccc#\yy	.
.	.	.	.	.	.	.	.	.	.	16dd\JJ)	.	.	.	.	.	.	.	.	.	.	.	.	.	.	.	.	.	16dd\JJ)yy	.	16ddd\JJ)yy	.
=36	=36	=36	=36	=36	=36	=36	=36	=36	=36	=36	=36	=36	=36	=36	=36	=36	=36	=36	=36	=36	=36	=36	=36	=36	=36	=36	=36	=36	=36	=36	=36
!LO:SIC:s=4G\	!	!	!	!	!	!	!	!	!	!	!	!	!	!	!	!	!	!	!	!	!	!	!	!	!	!	!	!	!	!	!
4Re\	.	4G\	.	4G\yy	.	4g\ 4B\	.	8b\L 8d'\	.	8b'\L	.	4G\	.	4g/ 4G/	.	4B\ 4G\	.	4dd/ 4g/	4ryy	.	4b/	4g\	.	4gg\ 4b\	.	4bb\ 4gg\	.	8b'\Lyy	.	8bb'\Lyy	.
.	.	.	.	.	.	.	.	(16ff#\L	.	(16ff#\L	.	.	.	.	.	.	.	.	.	.	.	.	.	.	.	.	.	(16ff#\Lyy	.	(16fff#\Lyy	.
.	.	.	.	.	.	.	.	16gg\	.	16gg\	.	.	.	.	.	.	.	.	.	.	.	.	.	.	.	.	.	16gg\yy	.	16ggg\yy	.
8r	.	8r	.	8ryy	.	8r	.	16ff#\	.	16ff#\	.	8r	.	8r	.	8r	.	8r	8ryy	.	8r	8ryy	.	8r	.	8r	.	16ff#\yy	.	16fff#\yy	.
.	.	.	.	.	.	.	.	16gg\JJ)	.	16gg\JJ)	.	.	.	.	.	.	.	.	.	.	.	.	.	.	.	.	.	16gg\JJ)yy	.	16ggg\JJ)yy	.
4r	.	4c\	.	4c\yy	.	4e\ 4c\	.	8a'\L	.	8a'\L	.	4C/	.	4e/ 4c/	.	4e\ 4c\	.	4ee/	4cc\	.	4a/	4a\	.	4aa\ 4cc\	.	4ccc\ 4ee\	.	8a'\Lyy	.	8aa'\Lyy	.
.	.	.	.	.	.	.	.	(16dd#X\L	.	(16dd#X\L	.	.	.	.	.	.	.	.	.	.	.	.	.	.	.	.	.	(16dd#X\Lyy	.	(16ddd#X\Lyy	.
.	.	.	.	.	.	.	.	16ee\	.	16ee\	.	.	.	.	.	.	.	.	.	.	.	.	.	.	.	.	.	16ee\yy	.	16eee\yy	.
8r	.	8r	.	8ryy	.	8r	.	16dd#\	.	16dd#\	.	8r	.	8r	.	8r	.	8r	8ryy	.	8r	8ryy	.	8r	.	8r	.	16dd#\yy	.	16ddd#\yy	.
.	.	.	.	.	.	.	.	16ee\JJ)	.	16ee\JJ)	.	.	.	.	.	.	.	.	.	.	.	.	.	.	.	.	.	16ee\JJ)yy	.	16eee\JJ)yy	.
=37	=37	=37	=37	=37	=37	=37	=37	=37	=37	=37	=37	=37	=37	=37	=37	=37	=37	=37	=37	=37	=37	=37	=37	=37	=37	=37	=37	=37	=37	=37	=37
!LO:SIC:s=4D/	!	!	!	!	!	!	!	!	!	!	!	!	!	!	!	!	!	!	!	!	!	!	!	!	!	!	!	!	!	!	!
4Re/	.	4d\	.	4d\yy	.	4g\ 4B\	.	8b~\L	.	8b'\L	.	4D\	.	4g/ 4B/	.	4d\	.	4dd/	4dd\	.	4b/	4g\	.	4gg\ 4b\	.	4bb\ 4gg\	.	8b'\Lyy	.	8bb'\Lyy	.
.	.	.	.	.	.	.	.	(16cc#X\L	.	(16cc#X\L	.	.	.	.	.	.	.	.	.	.	.	.	.	.	.	.	.	(16cc#X\Lyy	.	(16ccc#X\Lyy	.
.	.	.	.	.	.	.	.	16dd\	.	16dd\	.	.	.	.	.	.	.	.	.	.	.	.	.	.	.	.	.	16dd\yy	.	16ddd\yy	.
8r	.	8r	.	8ryy	.	8r	.	16cc#\	.	16cc#\	.	8r	.	8r	.	8r	.	8r	8ryy	.	8r	8ryy	.	8r	.	8r	.	16cc#\yy	.	16ccc#\yy	.
.	.	.	.	.	.	.	.	16dd\JJ)	.	16dd\JJ	.	.	.	.	.	.	.	.	.	.	.	.	.	.	.	.	.	16dd\JJyy	.	16ddd\JJyy	.
!LO:SIC:s=4D/	!	!	!	!	!	!	!	!	!	!	!	!	!	!	!	!	!	!	!	!	!	!	!	!	!	!	!	!	!	!	!
4Re/	.	4D/	.	4D/yy	.	4f#\ 4A\	.	(16a\LL	.	(16a\LL	.	4D\	.	4f#X/ 4A/	.	4c\ 4D\	.	4dd/	4dd\	.	4a/ 4d/	4ryy	.	4ff#\ 4cc\	.	4aa\ 4ff#\	.	(16a\LLyy	.	(16aa\LLyy	.
.	.	.	.	.	.	.	.	16b\)	.	16b\))	.	.	.	.	.	.	.	.	.	.	.	.	.	.	.	.	.	16b\))yy	.	16bb\))yy	.
.	.	.	.	.	.	.	.	16ccn'\	.	16ccn'\	.	.	.	.	.	.	.	.	.	.	.	.	.	.	.	.	.	16ccn'\yy	.	16cccn'\yy	.
.	.	.	.	.	.	.	.	16dd'\	.	16dd'\	.	.	.	.	.	.	.	.	.	.	.	.	.	.	.	.	.	16dd'\yy	.	16ddd'\yy	.
8r	.	8r	.	8ryy	.	8r	.	16ee'\	.	16ee'\	.	8r	.	8r	.	8r	.	8r	8ryy	.	8r	8ryy	.	8r	.	8r	.	16ee'\yy	.	16eee'\yy	.
.	.	.	.	.	.	.	.	16ff#'\JJ	.	16ff#'\JJ	.	.	.	.	.	.	.	.	.	.	.	.	.	.	.	.	.	16ff#'\JJyy	.	16fff#'\JJyy	.
*	*	*	*	*	*	*	*	*	*	*	*	*	*	*	*	*	*	*v	*v	*	*	*	*	*	*	*	*	*	*	*	*
*	*	*	*	*	*	*	*	*	*	*	*	*	*	*	*	*	*	*	*	*v	*v	*	*	*	*	*	*	*	*	*
!!LO:PB:g=original
=38	=38	=38	=38	=38	=38	=38	=38	=38	=38	=38	=38	=38	=38	=38	=38	=38	=38	=38	=38	=38	=38	=38	=38	=38	=38	=38	=38	=38	=38
*	*	*	*	*	*	*	*	*	*	*	*	*	*	*	*	*	*	*	*	*	*	*	*	*	*	*	*	*^	*
!	!	!	!	!	!	!	!	!	!	!	!	!	!	!	!	!LO:TX:a:t=Fagotti	!	!	!	!	!	!	!	!	!	!	!	!	!	!
!LO:SIC:s=4G\	!	!	!	!	!	!	!	!	!	!	!	!	!	!LO:TX:a:t=P:problem=w t. 38-44 Tromby zamienione miejscami z Fagotti	!	!LO:TX:a:t=P:problem=w t. 38-44 inna kolejność pięciolinii&colon; najpier fagot potem trombe	!	!	!	!	!	!	!	!	!	!	!	!	!	!
4Re\	.	4G\	.	4G\yy	.	4g\ 4B\	.	4gg\ 4b\ 4d\	.	4gg\ 4b\ 4d\	.	4G\	.	4g/ 4B/	.	8B\L 8G\	.	8dd/L 8g/	.	8b\L 8g\	.	8gg\L 8b\	.	8bb\L 8gg\	.	8gg\L	.	8ggg\L	4ryy	.
.	.	.	.	.	.	.	.	.	.	.	.	.	.	.	.	16g\L	.	16dd/L 16g/	.	16b\L 16g\	.	16dd\L 16b\	.	16dd\L 16b\	.	16dd\L	.	16bb\L	.	.
.	.	.	.	.	.	.	.	.	.	.	.	.	.	.	.	16g\J	.	16dd/J 16g/	.	16b\J 16g\	.	16dd\J 16b\	.	16dd\J 16b\	.	16dd\J	.	16bb\J	.	.
8r	.	8r	.	8ryy	.	8r	.	8r	.	8r	.	8r	.	8r	.	8g\J	.	8dd/J 8g/	.	8b\J 8g\	.	8dd\J 8b\	.	8dd\J 8b\	.	8dd\J	.	8bb\J	8r	.
4r	.	4r	.	4ryy	.	4r	.	4r	.	4r	.	4r	.	4r	.	8g\L	.	8dd/L 8g/	.	8b\L 8g\	.	8dd\L 8b\	.	8dd\L 8b\	.	8dd\L	.	8bb\L	4r	.
.	.	.	.	.	.	.	.	.	.	.	.	.	.	.	.	8g\	.	8dd/ 8g/	.	8b\ 8g\	.	8dd\ 8b\	.	8dd\ 8b\	.	8dd\	.	8bb\	.	.
8r	.	8r	.	8ryy	.	8r	.	8r	.	8r	.	8r	.	8r	.	8g\J	.	8dd/J 8g/	.	8b\J 8g\	.	8dd\J 8b\	.	8dd\J 8b\	.	8dd\J	.	8bb\J	8r	.
*	*	*	*	*	*	*	*	*	*	*	*	*	*	*	*	*	*	*	*	*	*	*	*	*	*	*	*	*v	*v	*
=39	=39	=39	=39	=39	=39	=39	=39	=39	=39	=39	=39	=39	=39	=39	=39	=39	=39	=39	=39	=39	=39	=39	=39	=39	=39	=39	=39	=39	=39
2.r	.	2.r	.	2.r	.	2.r	.	2.r	.	2.r	.	2.r	.	2.r	.	(4f#^<\	.	4ee\ 4cc\	.	(4a\ 4f#^<\	.	(4ee\ 4a^<\	.	(4ee\ 4cc^<\	.	4ee^<T\	.	4ccc^<T\	.
.	.	.	.	.	.	.	.	.	.	.	.	.	.	.	.	8g\)	.	8dd/ 8g/	.	8b\ 8g\)	.	8dd\ 8b\)	.	8dd\ 8b\)	.	8dd\	.	8bb\	.
.	.	.	.	.	.	.	.	.	.	.	.	.	.	.	.	(4f#^<\	.	4ee\ 4cc\	.	(4a\ 4f#^<\	.	(4ee\ 4a^<\	.	(4ee\ 4cc^<\	.	4ee^<T\	.	4ccc^<T\	.
.	.	.	.	.	.	.	.	.	.	.	.	.	.	.	.	8g\)	.	8dd/ 8g/	.	8b\ 8g\)	.	8dd\ 8b\)	.	8dd\ 8b\)	.	8dd\	.	8bb\	.
=40	=40	=40	=40	=40	=40	=40	=40	=40	=40	=40	=40	=40	=40	=40	=40	=40	=40	=40	=40	=40	=40	=40	=40	=40	=40	=40	=40	=40	=40
*	*	*	*	*	*	*	*	*	*	*	*	*	*	*^	*	*	*	*^	*	*	*	*	*	*	*	*	*	*	*
!	!	!	!	!	!	!	!	!LO:TX:a:t=unis	!	!	!	!	!	!	!	!	!	!	!	!	!	!	!	!	!	!	!	!	!	!	!
2.r	.	4c\	.	(16c\LL	.	(16c/LL	.	(16cc\LLyy	.	(16cc\LL	.	4c\	.	4ee/	4cc\	.	(16c\LL	.	4ee/	4cc\	.	4cc\ 4g\	.	4ee\ 4cc\	.	4ee\ 4cc\	.	4ee\	.	4ccc\	.
.	.	.	.	16B\)	.	16B/)	.	16b\)yy	.	16b\)	.	.	.	.	.	.	16B\)	.	.	.	.	.	.	.	.	.	.	.	.	.	.
.	.	.	.	16c'\	.	16c/	.	16cc'\yy	.	16cc'\	.	.	.	.	.	.	16c'\	.	.	.	.	.	.	.	.	.	.	.	.	.	.
.	.	.	.	16d'\	.	16d/	.	16dd'\yy	.	16dd'\	.	.	.	.	.	.	16d'\	.	.	.	.	.	.	.	.	.	.	.	.	.	.
.	.	8r	.	16e'\	.	16e/	.	16ee'\yy	.	16ee'\	.	8r	.	8r	8ryy	.	16e'\	.	8r	8ryy	.	8r	.	8r	.	8r	.	8r	.	8r	.
.	.	.	.	16c'\JJ	.	16c/JJ	.	16cc'\JJyy	.	16cc'\JJ	.	.	.	.	.	.	16c'\JJ	.	.	.	.	.	.	.	.	.	.	.	.	.	.
.	.	4A\	.	(16A\LL	.	(16A/LL	.	(16a/LLyy	.	(16a/LL	.	4A\	.	4ee/	4cc\	.	(16A\LL	.	4ee/	4cc\	.	4cc\ 4a\	.	4ee\ 4cc\	.	4gg\ 4cc\	.	4ccc\	.	4aaa\	.
.	.	.	.	16G#X\)	.	16G#X/)	.	16g#X/)yy	.	16g#X/)	.	.	.	.	.	.	16G#X\)	.	.	.	.	.	.	.	.	.	.	.	.	.	.
.	.	.	.	16A'\	.	16A/	.	16a'/yy	.	16a'/	.	.	.	.	.	.	16A'\	.	.	.	.	.	.	.	.	.	.	.	.	.	.
.	.	.	.	16B'\	.	16B/	.	16b'/yy	.	16b'/	.	.	.	.	.	.	16B'\	.	.	.	.	.	.	.	.	.	.	.	.	.	.
.	.	8r	.	16c'\	.	16c/	.	16cc'/yy	.	16cc'/	.	8r	.	8r	8ryy	.	16c'\	.	8r	8ryy	.	8r	.	8r	.	8r	.	8r	.	8r	.
.	.	.	.	16A'\JJ	.	16A/JJ	.	16a'/JJyy	.	16a'/JJ	.	.	.	.	.	.	16A'\JJ	.	.	.	.	.	.	.	.	.	.	.	.	.	.
=41	=41	=41	=41	=41	=41	=41	=41	=41	=41	=41	=41	=41	=41	=41	=41	=41	=41	=41	=41	=41	=41	=41	=41	=41	=41	=41	=41	=41	=41	=41	=41
!LO:SIC:s=4D/	!	!	!	!	!	!	!	!	!	!	!	!	!	!	!	!	!	!	!	!	!	!	!	!	!	!	!	!	!	!	!
4Re/	.	4d\	.	(16F#\LL	.	(16F#/LL	.	(16f#/LLyy	.	(16f#/LL	.	4d\	.	4dd/	4dd\	.	(16F#\LL	.	4dd/	4dd\	.	4a/ 4d/	.	4dd\ 4a\	.	4ff#\ 4cc\	.	4aa\	.	4fff#\	.
.	.	.	.	16E\)	.	16E/)	.	16e/)yy	.	16e/)	.	.	.	.	.	.	16E\)	.	.	.	.	.	.	.	.	.	.	.	.	.	.
.	.	.	.	16D'\	.	16D/	.	16d'/yy	.	16d'/	.	.	.	.	.	.	16D'\	.	.	.	.	.	.	.	.	.	.	.	.	.	.
.	.	.	.	16E'\	.	16E/	.	16e'/yy	.	16e'/	.	.	.	.	.	.	16E'\	.	.	.	.	.	.	.	.	.	.	.	.	.	.
8r	.	8r	.	16F#'\	.	16F#/	.	16f#'/yy	.	16f#'/	.	8r	.	8r	8ryy	.	16F#'\	.	8r	8ryy	.	8r	.	8r	.	8r	.	8r	.	8r	.
.	.	.	.	16G'\JJ	.	16G/JJ	.	16g'/JJyy	.	16g'/JJ	.	.	.	.	.	.	16G'\JJ	.	.	.	.	.	.	.	.	.	.	.	.	.	.
!LO:SIC:s=4D/	!	!	!	!	!	!	!	!	!	!	!	!	!	!	!	!	!	!	!	!	!	!	!	!	!	!	!	!	!	!	!
4Re/	.	4D\	.	(16A\LL	.	(16A/LL	.	(16a\LLyy	.	(16a\LL	.	4D\	.	4dd/	4dd\	.	(16A\LL	.	4dd/	4dd\	.	4a/ 4d/	.	4dd\ 4a\	.	4ff#\ 4cc\	.	4aa\	.	4fff#\	.
.	.	.	.	16B\)	.	16B/)	.	16b\)yy	.	16b\)	.	.	.	.	.	.	16B\)	.	.	.	.	.	.	.	.	.	.	.	.	.	.
.	.	.	.	16c'\	.	16c/	.	16cc'\yy	.	16cc'\	.	.	.	.	.	.	16c'\	.	.	.	.	.	.	.	.	.	.	.	.	.	.
.	.	.	.	16d'\	.	16d/	.	16dd'\yy	.	16dd'\	.	.	.	.	.	.	16d'\	.	.	.	.	.	.	.	.	.	.	.	.	.	.
8r	.	8r	.	16e'\	.	16e/	.	16ee'\yy	.	16ee'\	.	8r	.	8r	8ryy	.	16e'\	.	8r	8ryy	.	8r	.	8r	.	8r	.	8r	.	8r	.
.	.	.	.	16f#'\JJ	.	16f#/JJ	.	16ff#'\JJyy	.	16ff#'\JJ	.	.	.	.	.	.	16f#'\JJ	.	.	.	.	.	.	.	.	.	.	.	.	.	.
*	*	*	*	*	*	*	*	*	*	*	*	*	*	*v	*v	*	*	*	*v	*v	*	*	*	*	*	*	*	*	*	*	*
=42	=42	=42	=42	=42	=42	=42	=42	=42	=42	=42	=42	=42	=42	=42	=42	=42	=42	=42	=42	=42	=42	=42	=42	=42	=42	=42	=42	=42	=42
*	*	*	*	*	*	*	*	*	*	*	*	*	*	*	*	*	*	*	*	*^	*	*	*	*	*	*	*	*	*
!LO:SIC:s=4G\	!	!	!	!	!	!	!	!	!	!	!	!	!	!	!	!	!	!	!	!	!	!	!	!	!	!	!	!	!	!
4Re\	.	4G\	.	4g'\	.	4g\	.	4gg\yy	.	4gg\	.	4G\	.	4dd/ 4g/	.	8g\L	.	8dd/L 8g/	.	8g/L	8B\L	.	8dd\L 8b\	.	8gg\L 8b\	.	8gg\L	.	8ggg\L	.
.	.	.	.	.	.	.	.	.	.	.	.	.	.	.	.	16g\L	.	16dd/L 16g/	.	16b/L	16g\L	.	16dd\L 16b\	.	16dd\L 16b\	.	16dd\L	.	16bb\L	.
.	.	.	.	.	.	.	.	.	.	.	.	.	.	.	.	16g\J	.	16dd/J 16g/	.	16b/J	16g\J	.	16dd\J 16b\	.	16dd\J 16b\	.	16dd\J	.	16bb\J	.
8r	.	8r	.	8r	.	8r	.	8ryy	.	8r	.	8r	.	8r	.	8g\J	.	8dd/J 8g/	.	8b/J	8g\J	.	8dd\J 8b\	.	8dd\J 8b\	.	8dd\J	.	8bb\J	.
*	*	*	*	*	*	*	*	*	*	*	*	*	*	*	*	*tremolo	*	*tremolo	*	*tremolo	*tremolo	*	*tremolo	*	*tremolo	*	*tremolo	*	*tremolo	*
!	!	!	!	!	!	!	!	!	!	!	!	!	!	!	!	!	!	!	!	!	!	!	!	!	!LO:TX:t=P:problem=3 kropki art.	!	!	!	!LO:TX:t=P:problem=3 kropki art.	!
4r	.	4r	.	4r	.	4r	.	4ryy	.	4r	.	4r	.	4r	.	8g\L	.	8dd/L 8g/	.	8b/L	8g\L	.	8dd\L 8b\	.	8dd\'L 8b'\	.	8dd\L	.	8bb'\L	.
.	.	.	.	.	.	.	.	.	.	.	.	.	.	.	.	8g\	.	8dd/ 8g/	.	8b/	8g\	.	8dd\ 8b\	.	8dd\' 8b\	.	8dd\	.	8bb'\	.
8r	.	8r	.	8r	.	8r	.	8ryy	.	8r	.	8r	.	8r	.	8g\J	.	8dd/J 8g/	.	8b/J	8g\J	.	8dd\J 8b\	.	8dd\'J 8b\	.	8dd\J	.	8bb'\J	.
*	*	*	*	*	*	*	*	*	*	*	*	*	*	*	*	*Xtremolo	*	*Xtremolo	*	*Xtremolo	*Xtremolo	*	*Xtremolo	*	*Xtremolo	*	*Xtremolo	*	*Xtremolo	*
*	*	*	*	*	*	*	*	*	*	*	*	*	*	*	*	*	*	*	*	*v	*v	*	*	*	*	*	*	*	*	*
=43	=43	=43	=43	=43	=43	=43	=43	=43	=43	=43	=43	=43	=43	=43	=43	=43	=43	=43	=43	=43	=43	=43	=43	=43	=43	=43	=43	=43	=43
!LO:SIC:s=4D/	!	!	!	!	!	!	!	!	!	!	!	!	!	!	!	!	!	!	!	!	!	!	!	!	!	!	!	!	!
4Re/	.	2.r	.	2.r	.	2.r	.	2.ryy	.	2.r	.	2.r	.	2.r	.	(4f#\	.	4ee\ 4cc\	.	4a\ 4f#\	.	(4ee\ 4a^<\	.	(4ee\^< 4cc\	.	4ee^<T\	.	4ccc^<T\	.
8r	.	.	.	.	.	.	.	.	.	.	.	.	.	.	.	8g\)	.	8dd/ 8g/	.	8b\ 8g\	.	8dd\ 8b\)	.	8dd\ 8b\)	.	8dd\	.	8bb\	.
!LO:SIC:s=4D/	!	!	!	!	!	!	!	!	!	!	!	!	!	!	!	!	!	!	!	!	!	!	!	!	!	!	!	!	!
4Re/	.	.	.	.	.	.	.	.	.	.	.	.	.	.	.	(4f#\	.	4ee\ 4cc\	.	4a\ 4f#\	.	(4ee\ 4a^<\	.	(4ee\^< 4cc\	.	4ee^<T\	.	4ccc^<T\	.
8r	.	.	.	.	.	.	.	.	.	.	.	.	.	.	.	8g\)	.	8dd/ 8g/	.	8b\ 8g\	.	8dd\ 8b\)	.	8dd\ 8b\)	.	8dd\	.	8bb\	.
=44	=44	=44	=44	=44	=44	=44	=44	=44	=44	=44	=44	=44	=44	=44	=44	=44	=44	=44	=44	=44	=44	=44	=44	=44	=44	=44	=44	=44	=44
*	*	*	*	*	*	*	*	*	*	*	*	*	*	*^	*	*	*	*^	*	*	*	*	*	*	*	*	*	*	*
!	!	!	!	!	!	!	!	!	!	!	!	!	!	!	!	!	!LO:TX:a:t=Col Violoncelli	!	!	!	!	!	!	!	!	!	!	!	!	!	!
2.r	.	4c\	.	(16c\LL	.	(16c/LL	.	(16cc\LLyy	.	(16cc\LL	.	4c\	.	4ee/	4cc\	.	(16c\LLyy	.	4ee/	4cc\	.	4cc\ 4g\	.	4ee\ 4cc\	.	4ee\ 4cc\	.	4ee\	.	4ccc\	.
.	.	.	.	16B\)	.	16B/)	.	16b\)yy	.	16b\)	.	.	.	.	.	.	16B\)yy	.	.	.	.	.	.	.	.	.	.	.	.	.	.
.	.	.	.	16c\	.	16c/	.	16cc'\yy	.	16cc'\	.	.	.	.	.	.	16c\yy	.	.	.	.	.	.	.	.	.	.	.	.	.	.
.	.	.	.	16d\	.	16d/	.	16dd'\yy	.	16dd'\	.	.	.	.	.	.	16d\yy	.	.	.	.	.	.	.	.	.	.	.	.	.	.
.	.	8r	.	16e\	.	16e/	.	16ee'\yy	.	16ee'\	.	8r	.	8r	8ryy	.	16e\yy	.	8r	8ryy	.	8r	.	8r	.	8r	.	8r	.	8r	.
.	.	.	.	16c\JJ	.	16c/JJ	.	16cc'\JJyy	.	16cc'\JJ	.	.	.	.	.	.	16c\JJyy	.	.	.	.	.	.	.	.	.	.	.	.	.	.
.	.	4A\	.	(16A\LL	.	(16A/LL	.	(16a/LLyy	.	(16a/LL	.	4A\	.	4ee/	4cc\	.	(16A\LLyy	.	4ee/	4cc\	.	4cc\ 4a\	.	4ee\ 4cc\	.	4aa\ 4cc\	.	4ee\	.	4ccc\	.
.	.	.	.	16G#X\)	.	16G#X/)	.	16g#X/)yy	.	16g#X/)	.	.	.	.	.	.	16G#X\)yy	.	.	.	.	.	.	.	.	.	.	.	.	.	.
.	.	.	.	16A\	.	16A/	.	16a'/yy	.	16a'/	.	.	.	.	.	.	16A\yy	.	.	.	.	.	.	.	.	.	.	.	.	.	.
.	.	.	.	16B\	.	16B/	.	16b'/yy	.	16b'/	.	.	.	.	.	.	16B\yy	.	.	.	.	.	.	.	.	.	.	.	.	.	.
.	.	8r	.	16c\	.	16c/	.	16cc'/yy	.	16cc'/	.	8r	.	8r	8ryy	.	16c\yy	.	8r	8ryy	.	8r	.	8r	.	8r	.	8r	.	8r	.
.	.	.	.	16A\JJ	.	16A/JJ	.	16a'/JJyy	.	16a'/JJ	.	.	.	.	.	.	16A\JJyy	.	.	.	.	.	.	.	.	.	.	.	.	.	.
!!LO:PB:g=original
=45	=45	=45	=45	=45	=45	=45	=45	=45	=45	=45	=45	=45	=45	=45	=45	=45	=45	=45	=45	=45	=45	=45	=45	=45	=45	=45	=45	=45	=45	=45	=45
!	!	!	!	!	!	!	!	!	!	!	!	!	!	!	!	!	!LO:TX:a:t=Fagotti	!	!	!	!	!	!	!	!	!	!	!	!	!	!
!LO:SIC:s=4D/	!	!	!	!	!	!	!	!	!	!	!	!	!	!LO:TX:a:t=Trombe	!	!	!LO:TX:a:t=Col V&colon;cello	!	!	!	!	!	!	!	!	!	!	!	!	!	!
4Re/	.	4d\	.	(16F#\LL	.	(16F#/LL	.	(16f#/LLyy	.	(16f#/LL	.	4d\	.	4dd/	4dd\	.	(16F#\LLyy	.	4dd/	4dd\	.	4a/ 4d/	.	4dd\ 4a\	.	4ff#\ 4cc\	.	4ff#\	.	4aa\	.
.	.	.	.	16E\)	.	16E/)	.	16e/)yy	.	16e/)	.	.	.	.	.	.	16E\)yy	.	.	.	.	.	.	.	.	.	.	.	.	.	.
.	.	.	.	16D\	.	16D/	.	16d'/yy	.	16d'/	.	.	.	.	.	.	16D\yy	.	.	.	.	.	.	.	.	.	.	.	.	.	.
.	.	.	.	16E\	.	16E/	.	16e'/yy	.	16e'/	.	.	.	.	.	.	16E\yy	.	.	.	.	.	.	.	.	.	.	.	.	.	.
8r	.	8r	.	16F#\	.	16F#/	.	16f#'/yy	.	16f#'/	.	8r	.	8r	8ryy	.	16F#\yy	.	8r	8ryy	.	8r	.	8r	.	8r	.	8r	.	8r	.
.	.	.	.	16G\JJ	.	16G/JJ	.	16g'/JJyy	.	16g'/JJ	.	.	.	.	.	.	16G\JJyy	.	.	.	.	.	.	.	.	.	.	.	.	.	.
!LO:SIC:s=4D/	!	!	!	!	!	!	!	!	!	!	!	!	!	!	!	!	!	!	!	!	!	!	!	!	!	!	!	!	!	!	!
4Re/	.	4D\	.	(16A\LL	.	(16A/LL	.	(16a\LLyy	.	(16a\LL	.	4D\	.	4dd/	4dd\	.	(16A\LLyy	.	4dd/	4dd\	.	4a/ 4d/	.	4dd\ 4a\	.	4ff#\ 4cc\	.	4ff#\	.	4ddd\	.
.	.	.	.	16B\)	.	16B/)	.	16b\)yy	.	16b\)	.	.	.	.	.	.	16B\)yy	.	.	.	.	.	.	.	.	.	.	.	.	.	.
.	.	.	.	16c\	.	16c/	.	16cc'\yy	.	16cc'\	.	.	.	.	.	.	16c\yy	.	.	.	.	.	.	.	.	.	.	.	.	.	.
.	.	.	.	16d\	.	16d/	.	16dd'\yy	.	16dd'\	.	.	.	.	.	.	16d\yy	.	.	.	.	.	.	.	.	.	.	.	.	.	.
8r	.	8r	.	16e\	.	16e/	.	16ee'\yy	.	16ee'\	.	8r	.	8r	8ryy	.	16e\yy	.	8r	8ryy	.	8r	.	8r	.	8r	.	8r	.	8r	.
.	.	.	.	16f#\JJ	.	16f#/JJ	.	16ff#'\JJyy	.	16ff#'\JJ	.	.	.	.	.	.	16f#\JJyy	.	.	.	.	.	.	.	.	.	.	.	.	.	.
*	*	*	*	*	*	*	*	*	*	*	*	*	*	*v	*v	*	*	*	*	*	*	*	*	*	*	*	*	*	*	*	*
=46	=46	=46	=46	=46	=46	=46	=46	=46	=46	=46	=46	=46	=46	=46	=46	=46	=46	=46	=46	=46	=46	=46	=46	=46	=46	=46	=46	=46	=46	=46
!LO:SIC:s=4G\	!	!	!	!	!	!	!	!	!	!	!	!	!	!	!	!	!	!	!	!	!	!	!	!	!	!	!LO:TX:a:t=col Flauto	!	!	!
4Re\	.	4G\	.	4g\	.	4g\	.	4gg\	.	4gg\	.	4G\	.	4dd/ 4g/	.	4g\	.	4dd/ 4g/	4ryy	.	4g/ 4B/	.	8dd\L 8b'\	.	8gg\L 8b\	.	8gg'\Lyy	.	8gg'\L	.
.	.	.	.	.	.	.	.	.	.	.	.	.	.	.	.	.	.	.	.	.	.	.	8b'\	.	8b'\	.	8bb'\yy	.	8bb'\	.
8r	.	8r	.	8r	.	8r	.	8r	.	8r	.	8r	.	8r	.	8r	.	8r	8ryy	.	8r	.	[8dd\J	.	8dd'\J	.	[8ddd\Jyy	.	[8ddd\J	.
!LO:SIC:s=4D/	!	!	!	!	!	!	!	!	!	!	!	!	!	!	!	!	!	!	!	!	!	!	!	!	!	!	!	!	!	!
4Re/	.	4D\	.	4A\ 4D\	.	4a\ 4d\	.	4ff#\ 4a\	.	4aa\ 4dd\	.	4D\	.	4a/ 4f#X/	.	4A\ 4F#\	.	4dd/	4dd\	.	4a/ 4d/	.	8dd\L]	.	8dd'\L	.	8ddd\L]yy	.	8ddd\L]	.
.	.	.	.	.	.	.	.	.	.	.	.	.	.	.	.	.	.	.	.	.	.	.	8a'\	.	8a'\	.	8aa'\yy	.	8aa'\	.
8r	.	8r	.	8r	.	8r	.	8r	.	8r	.	8r	.	8r	.	8r	.	8r	8ryy	.	8r	.	[8dd'\J	.	[8dd\J	.	[8ddd'\Jyy	.	[8ddd'\J	.
=47	=47	=47	=47	=47	=47	=47	=47	=47	=47	=47	=47	=47	=47	=47	=47	=47	=47	=47	=47	=47	=47	=47	=47	=47	=47	=47	=47	=47	=47	=47
!LO:SIC:s=4G\	!	!	!	!	!	!	!	!	!	!	!	!	!	!	!	!	!	!	!	!	!	!	!LO:TX:a:t=col Oboe	!	!	!	!	!	!	!
4Re\	.	4G\	.	4B\ 4G\	.	4b\ 4d\	.	4gg\ 4b\	.	4bb\ 4dd\	.	4G\	.	4b/ 4g/	.	4B\ 4G\	.	4dd/ 4g/	4ryy	.	4b\ 4g\	.	8dd\L]yy	.	8dd\L]	.	8ddd\L]yy	.	8ddd\L]	.
.	.	.	.	.	.	.	.	.	.	.	.	.	.	.	.	.	.	.	.	.	.	.	8b\yy	.	8b\	.	8bb'\yy	.	8bb'\	.
8r	.	8r	.	8r	.	8r	.	8r	.	8r	.	8r	.	8r	.	8r	.	8r	8ryy	.	8r	.	8dd\Jyy	.	8dd\J	.	[8ddd'\Jyy	.	[8ddd'\J	.
!LO:SIC:s=4D/	!	!	!	!	!	!	!	!	!	!	!	!	!	!	!	!	!	!	!	!	!	!	!	!	!	!	!	!	!	!
4Re/	.	4D\	.	4A\ 4D\	.	4a\ 4d\	.	4ff#\ 4a\	.	4aa\ 4dd\	.	4D\	.	4a/ 4f#X/	.	4A\ 4F#\	.	4dd/	4dd\	.	4a/ 4d/	.	8dd\Lyy	.	8dd\L	.	8ddd\L]yy	.	8ddd\L]	.
.	.	.	.	.	.	.	.	.	.	.	.	.	.	.	.	.	.	.	.	.	.	.	8a\yy	.	8a\	.	8aa\yy	.	8aa\	.
8r	.	8r	.	8r	.	8r	.	8r	.	8r	.	8r	.	8r	.	8r	.	8r	8ryy	.	8r	.	8dd\Jyy	.	8dd\J	.	8ddd\Jyy	.	8ddd\J	.
=48	=48	=48	=48	=48	=48	=48	=48	=48	=48	=48	=48	=48	=48	=48	=48	=48	=48	=48	=48	=48	=48	=48	=48	=48	=48	=48	=48	=48	=48	=48
!LO:SIC:s=4G\	!	!	!	!	!	!	!	!	!	!	!	!	!	!	!	!	!	!	!	!	!	!	!	!	!	!	!	!	!	!
4Re\	.	4G\	.	4B\ 4G\	.	4b\ 4d\	.	4gg\ 4b\	.	4bb\ 4dd\	.	4G\	.	4b/ 4g/	.	4B\ 4G\	.	4dd/ 4g/	4ryy	.	4b\ 4g\	.	8g/Lyy	.	8g/L	.	8gg'\Lyy	.	8gg'\L	.
.	.	.	.	.	.	.	.	.	.	.	.	.	.	.	.	.	.	.	.	.	.	.	8b/yy	.	8b/	.	8bb'\yy	.	8bb'\	.
8r	.	8r	.	8r	.	8r	.	8r	.	8r	.	8r	.	8r	.	8r	.	8r	8ryy	.	8r	.	[8dd/Jyy	.	[8dd/J	.	[8ddd\Jyy	.	[8ddd\J	.
!LO:SIC:s=4D/	!	!	!	!	!	!	!	!	!	!	!	!	!	!	!	!	!	!	!	!	!	!	!	!	!	!	!	!	!	!
4Re/	.	4D\	.	4A\ 4D\	.	4a\ 4d\	.	4ff#\ 4a\	.	4aa\ 4dd\	.	4D\	.	4a/ 4f#X/	.	4A\ 4F#\	.	4dd/	4dd\	.	4a/ 4d/	.	8dd\L]yy	.	8dd\L]	.	8ddd\L]yy	.	8ddd\L]	.
.	.	.	.	.	.	.	.	.	.	.	.	.	.	.	.	.	.	.	.	.	.	.	8a\yy	.	8a\	.	8aa'\yy	.	8aa'\	.
8r	.	8r	.	8r	.	8r	.	8r	.	8r	.	8r	.	8r	.	8r	.	8r	8ryy	.	8r	.	[8dd\Jyy	.	[8dd\J	.	[8ddd'\Jyy	.	[8ddd'\J	.
=49	=49	=49	=49	=49	=49	=49	=49	=49	=49	=49	=49	=49	=49	=49	=49	=49	=49	=49	=49	=49	=49	=49	=49	=49	=49	=49	=49	=49	=49	=49
!LO:TX:t=1ma	!	!	!	!	!	!	!	!	!	!	!	!	!	!	!	!	!	!	!	!	!	!	!	!	!	!	!	!	!	!
*>B1	*	*>B1	*	*>B1	*	*>B1	*	*>B1	*	*>B1	*	*>B1	*	*>B1	*	*>B1	*	*>B1	*>B1	*	*>B1	*	*>B1	*	*>B1	*	*>B1	*	*>B1	*
*	*	*	*	*	*	*	*	*	*	*	*	*	*	*	*	*^	*	*	*	*	*^	*	*	*	*	*	*	*	*	*
!LO:SIC:s=4D/	!	!	!	!	!	!	!	!	!	!	!	!	!	!	!	!	!	!	!	!	!	!	!	!	!	!	!	!	!	!	!	!
4Re/	.	4G\	.	4B\ 4G\	.	4b\ 4g\	.	4gg\ 4b\ 4d\	.	4bb\ 4dd\	.	4G\	.	4b/ 4g/	.	4B\ 4G\	4ryy	.	4dd/ 4g/	4ryy	.	4b/	4g\	.	8dd\L]	.	8dd\L]	.	8ddd\L]	.	8ddd\L]	.
.	.	.	.	.	.	.	.	.	.	.	.	.	.	.	.	.	.	.	.	.	.	.	.	.	8b'\	.	8b'\	.	8bb'\	.	8bb'\	.
8r	.	8r	.	8r	.	8r	.	8r	.	8r	.	8r	.	8r	.	8r	8r	.	8r	8ryy	.	8r	8r	.	8dd'\J	.	8dd'\J	.	8ddd'\J	.	8ddd'\J	.
!LO:SIC:s=4.G^T\	!	!	!	!	!	!	!	!	!	!	!	!	!	!	!	!	!	!	!	!	!	!	!	!	!	!	!	!	!	!	!	!
4.Re^<\TT	.	4.AA^/	.	4.E/ 4.AA^/	.	4.e\ 4.A^<\	.	4.g/ 4.A^>/	.	8cc#X'^<\L	.	4.A\	.	4.a/ 4.e/	.	4.G/	4.E^\	.	4.ee/	4.cc#X^\	.	4.a/	4.g^\	.	8cc#X'\L	.	8cc#X'\L	.	8ccc#X'\L	.	8ccc#X'\L	.
.	.	.	.	.	.	.	.	.	.	8bb'\	.	.	.	.	.	.	.	.	.	.	.	.	.	.	8bb\ 8b'\	.	8bb'\	.	8bb'\	.	8aa'\	.
.	.	.	.	.	.	.	.	.	.	8aa'\J	.	.	.	.	.	.	.	.	.	.	.	.	.	.	8aa\J 8a'\	.	8aa'\J	.	8aa'\J	.	8aa'\J	.
=50	=50	=50	=50	=50	=50	=50	=50	=50	=50	=50	=50	=50	=50	=50	=50	=50	=50	=50	=50	=50	=50	=50	=50	=50	=50	=50	=50	=50	=50	=50	=50	=50
!LO:SIC:s=4D/	!	!	!	!	!	!	!	!	!	!	!	!	!	!	!	!	!	!	!	!	!	!	!	!LO:DY:rj	!	!	!	!	!	!	!	!
4Re/	.	4D/	.	4D\	.	(8d\L	.	8f#/L 8A/	.	4dd\	.	4D\	.	4a/ 4f#/	.	4F#/	4D\	.	2.dd/	2.dd\	.	2.a/	2.f#\	fp	4dd\	.	4dd\	.	4dd\	.	4ddd\	.
.	.	.	.	.	.	8A\)	.	8A/	.	.	.	.	.	.	.	.	.	.	.	.	.	.	.	.	.	.	.	.	.	.	.	.
8r	.	8r	.	8r	.	8d'\J	.	8f#/J	.	8r	.	8r	.	8r	.	8r	8ryy	.	.	.	.	.	.	.	8r	.	8r	.	8r	.	8r	.
4r	.	4r	.	4r	.	(8d\L	.	(8f#/L	.	4r	.	4r	.	4r	.	4r	4ryy	.	.	.	.	.	.	.	4r	.	4r	.	4r	.	4r	.
.	.	.	.	.	.	8A\)	.	8A/)	.	.	.	.	.	.	.	.	.	.	.	.	.	.	.	.	.	.	.	.	.	.	.	.
8r	.	8r	.	8f#\	.	8d'\J	.	8f#'/J	.	8ff#\|	.	8r	.	8r	.	8r	8ryy	.	.	.	.	.	.	.	8r	.	8r	.	8r	.	8ddd\	.
*	*	*	*	*	*	*	*	*	*	*	*	*	*	*	*	*v	*v	*	*	*	*	*	*	*	*	*	*	*	*	*	*	*
=51:|!	=51:|!	=51:|!	=51:|!	=51:|!	=51:|!	=51:|!	=51:|!	=51:|!	=51:|!	=51:|!	=51:|!	=51:|!	=51:|!	=51:|!	=51:|!	=51:|!	=51:|!	=51:|!	=51:|!	=51:|!	=51:|!	=51:|!	=51:|!	=51:|!	=51:|!	=51:|!	=51:|!	=51:|!	=51:|!	=51:|!	=51:|!
!LO:TX:t=2	!	!	!	!	!	!	!	!	!	!	!	!	!	!	!	!	!	!	!	!	!	!	!	!	!	!	!	!	!	!	!
*>B2	*	*>B2	*	*>B2	*	*>B2	*	*>B2	*	*>B2	*	*>B2	*	*>B2	*	*>B2	*	*>B2	*>B2	*	*>B2	*>B2	*	*>B2	*	*>B2	*	*>B2	*	*>B2	*
!LO:SIC:s=4G\	!	!	!	!	!	!	!	!	!	!	!	!	!	!	!	!	!	!	!	!	!	!	!	!	!	!	!	!	!	!	!
4Re\	.	4G\	.	4B\ 4G\	.	4b\ 4d\	.	4gg\ 4b\	.	4bb\ 4dd\	.	4G\	.	4b/ 4g/	.	4B\ 4G\	.	4dd/ 4g/	4ryy	.	4b/	4g\	.	8dd'\L	.	8dd'\L	.	8ddd\L	.	8ddd\L	.
.	.	.	.	.	.	.	.	.	.	.	.	.	.	.	.	.	.	.	.	.	.	.	.	8b'\	.	8b'\	.	8bb\	.	8bb\	.
8r	.	8r	.	8r	.	8r	.	8r	.	8r	.	8r	.	8r	.	8r	.	8r	8ryy	.	8r	8r	.	[8dd\J	.	[8dd\J	.	[8ddd\J	.	8ddd\J	.
!LO:SIC:s=4D/	!	!	!	!	!	!	!	!	!	!	!	!	!	!	!	!	!	!	!	!	!	!	!	!	!	!	!	!	!	!	!
4Re/	.	4D\	.	4A\ 4D\	.	4a\ 4d\	.	4ff#\ 4a\ 4d\	.	4aa\ 4dd\	.	4D\	.	4a/ 4f#/	.	4A\ 4F#\	.	4dd/	4dd\	.	4a/	4d\	.	8dd\L]	.	8dd\L]	.	8ddd\L]	.	8ddd\L	.
.	.	.	.	.	.	.	.	.	.	.	.	.	.	.	.	.	.	.	.	.	.	.	.	8a'\	.	8b'\	.	8aa\	.	8aa\	.
8r	.	8r	.	8r	.	8r	.	8r	.	8r	.	8r	.	8r	.	8r	.	8r	8ryy	.	8r	8r	.	8dd'\J	.	8dd'\J	.	8ddd\J	.	8ddd\J	.
*	*	*	*	*	*	*	*	*	*	*	*	*	*	*	*	*	*	*v	*v	*	*	*	*	*	*	*	*	*	*	*	*
*	*	*	*	*	*	*	*	*	*	*	*	*	*	*	*	*	*	*	*	*v	*v	*	*	*	*	*	*	*	*	*
=52	=52	=52	=52	=52	=52	=52	=52	=52	=52	=52	=52	=52	=52	=52	=52	=52	=52	=52	=52	=52	=52	=52	=52	=52	=52	=52	=52	=52	=52
*	*	*	*	*	*	*	*	*	*	*	*	*	*	*^	*	*	*	*	*	*	*	*^	*	*	*	*	*	*	*
*	*	*Xtremolo	*	*	*	*tremolo	*	*tremolo	*	*tremolo	*	*	*	*	*	*	*	*	*	*	*	*	*	*	*	*	*	*	*	*	*
!LO:SIC:s=4G\	!	!	!LO:DY:a::rj:t=ffo	!	!	!	!	!	!	!	!LO:DY:rj:t=ffo	!	!	!	!	!LO:DY:rj	!	!	!	!	!	!	!	!	!LO:DY:rj	!	!	!	!	!	!LO:DY:rj
4Re\	.	8G\L	ff	8G\L	.	16g\LL	.	16gg\LL	.	16gg\LL	ff	4G\	.	4b/	4g\	ff	8B\L 8G\	.	4dd/ 4g/	.	4g/ 4B/	.	4dd/	4b\	ff	4gg\ 4b\	.	4gg\	.	4gg\	ff
.	.	.	.	.	.	16g\	.	16gg\	.	16gg\	.	.	.	.	.	.	.	.	.	.	.	.	.	.	.	.	.	.	.	.	.
*	*	*	*	*	*	*Xtremolo	*	*Xtremolo	*	*Xtremolo	*	*	*	*	*	*	*	*	*	*	*	*	*	*	*	*	*	*	*	*	*
*	*	*	*	*	*	*tremolo	*	*tremolo	*	*tremolo	*	*	*	*	*	*	*	*	*	*	*	*	*	*	*	*	*	*	*	*	*
.	.	8G\	.	8G\	.	16g\	.	16gg\	.	16gg\	.	.	.	.	.	.	8G\	.	.	.	.	.	.	.	.	.	.	.	.	.	.
.	.	.	.	.	.	16g\	.	16gg\	.	16gg\	.	.	.	.	.	.	.	.	.	.	.	.	.	.	.	.	.	.	.	.	.
8r	.	8D\J	.	8D\J	.	16d\	.	16dd\	.	16dd\	.	8r	.	8r	8ryy	.	8D\J	.	8r	.	8r	.	8r	8ryy	.	8r	.	8r	.	8r	.
.	.	.	.	.	.	16d\JJ	.	16dd\JJ	.	16dd\JJ	.	.	.	.	.	.	.	.	.	.	.	.	.	.	.	.	.	.	.	.	.
!LO:SIC:s=4G\	!	!	!	!	!	!	!	!	!	!	!	!	!	!	!	!	!	!	!	!	!	!	!	!	!	!	!	!	!	!	!
4Re\	.	8BB/L	.	8BB/L	.	16B\LL	.	16b\LL	.	16b\LL	.	4G\	.	4dd/ 4g/	4ryy	.	8BB/L	.	4dd/ 4g/	.	4b\ 4g\	.	4gg\ 4b\	4ryy	.	4bb\ 4dd\	.	4bb\	.	4ggg\	.
.	.	.	.	.	.	16B\	.	16b\	.	16b\	.	.	.	.	.	.	.	.	.	.	.	.	.	.	.	.	.	.	.	.	.
.	.	8D/	.	8D/	.	16d\	.	16dd\	.	16dd\	.	.	.	.	.	.	8D/	.	.	.	.	.	.	.	.	.	.	.	.	.	.
.	.	.	.	.	.	16d\	.	16dd\	.	16dd\	.	.	.	.	.	.	.	.	.	.	.	.	.	.	.	.	.	.	.	.	.
8r	.	8BB/J	.	8BB/J	.	16B\	.	16b\	.	16b\	.	8r	.	8r	8ryy	.	8BB/J	.	8r	.	8r	.	8r	8ryy	.	8r	.	8r	.	8r	.
.	.	.	.	.	.	16B\JJ	.	16b\JJ	.	16b\JJ	.	.	.	.	.	.	.	.	.	.	.	.	.	.	.	.	.	.	.	.	.
*	*	*	*	*	*	*	*	*	*	*	*	*	*	*v	*v	*	*	*	*	*	*	*	*v	*v	*	*	*	*	*	*	*
!!LO:PB:g=original
=53	=53	=53	=53	=53	=53	=53	=53	=53	=53	=53	=53	=53	=53	=53	=53	=53	=53	=53	=53	=53	=53	=53	=53	=53	=53	=53	=53	=53	=53
*>C	*	*>C	*	*>C	*	*>C	*	*>C	*	*>C	*	*>C	*	*>C	*	*>C	*	*>C	*	*>C	*	*>C	*	*>C	*	*>C	*	*>C	*
*	*	*	*	*	*	*	*	*	*	*	*	*	*	*	*	*	*	*	*	*^	*	*	*	*	*	*	*	*	*
!	!	!LO:TX:a:t=P:mixedbeam:problem	!	!LO:TX:a:t=P:problem=mixedbeam	!	!LO:TX:a:t=P:problem=mixedbeam	!	!	!	!	!	!	!	!	!	!LO:TX:a:t=P:problem=mixedbeam	!	!	!	!	!	!	!	!	!	!	!	!	!	!
2.r	.	8GG/L	.	8GG/Lyy	.	16G/LL	.	16g\LLyy	.	16g\LL	.	4G\	.	4dd/ 4g/	.	8GG/L	.	4dd/ 4g/	.	4g/ 4B/	4ryy	.	4dd\ 4b\	.	4gg\ 4b\	.	4b\	.	4gg\	.
.	.	.	.	.	.	16G/	.	16g\yy	.	16g\	.	.	.	.	.	.	.	.	.	.	.	.	.	.	.	.	.	.	.	.
.	.	8G\	.	8G\yy	.	16g\	.	16gg\yy	.	16gg\	.	.	.	.	.	8G\	.	.	.	.	.	.	.	.	.	.	.	.	.	.
.	.	.	.	.	.	16g\	.	16gg\yy	.	16gg\	.	.	.	.	.	.	.	.	.	.	.	.	.	.	.	.	.	.	.	.
.	.	8D\J	.	8D\Jyy	.	16d\	.	16dd\yy	.	16dd\	.	8r	.	8r	.	8D\J	.	8r	.	8r	8ryy	.	8r	.	8r	.	8r	.	8r	.
.	.	.	.	.	.	16d\JJ	.	16dd\JJyy	.	16dd\JJ	.	.	.	.	.	.	.	.	.	.	.	.	.	.	.	.	.	.	.	.
.	.	8BB/L	.	8BB/Lyy	.	16B/LL	.	16b\LLyy	.	16b\LL	.	4G\	.	4dd/ 4g/	.	8BB/L	.	4dd/ 4g/	.	4b/	4g\	.	4gg\ 4b\	.	4bb\ 4dd\	.	4bb\	.	4ggg\	.
.	.	.	.	.	.	16B/	.	16b\yy	.	16b\	.	.	.	.	.	.	.	.	.	.	.	.	.	.	.	.	.	.	.	.
.	.	8D/	.	8D/yy	.	16d/	.	16dd\yy	.	16dd\	.	.	.	.	.	8D/	.	.	.	.	.	.	.	.	.	.	.	.	.	.
.	.	.	.	.	.	16d/	.	16dd\yy	.	16dd\	.	.	.	.	.	.	.	.	.	.	.	.	.	.	.	.	.	.	.	.
.	.	8BB/J	.	8BB/Jyy	.	16B/	.	16b\yy	.	16b\	.	8r	.	8r	.	8BB/J	.	8r	.	8r	8ryy	.	8r	.	8r	.	8r	.	8r	.
.	.	.	.	.	.	16B/JJ	.	16b\JJyy	.	16b\JJ	.	.	.	.	.	.	.	.	.	.	.	.	.	.	.	.	.	.	.	.
*	*	*	*	*	*	*	*	*Xtremolo	*	*Xtremolo	*	*	*	*	*	*	*	*	*	*	*	*	*	*	*	*	*	*	*	*
=54	=54	=54	=54	=54	=54	=54	=54	=54	=54	=54	=54	=54	=54	=54	=54	=54	=54	=54	=54	=54	=54	=54	=54	=54	=54	=54	=54	=54	=54	=54
2.r	.	4GG/	.	4GG/yy	.	4G/	.	4g/	.	4g/	.	4G\	.	4dd/ 4g/	.	4GG/	.	4dd/ 4g/	.	4g/ 4B/	4ryy	.	4dd\ 4b\	.	4gg\ 4b\	.	4b\	.	4gg\	.
.	.	8r	.	8ryy	.	8r	.	8r	.	8r	.	8r	.	8r	.	8r	.	8r	.	8r	8ryy	.	8r	.	8r	.	8r	.	8r	.
.	.	4r	.	4ryy	.	4r	.	4r	.	4r	.	4r	.	4r	.	4r	.	4r	.	4r	4ryy	.	4r	.	4r	.	4r	.	4r	.
.	.	8r	.	8ryy	.	8r	.	8r	.	8r	.	16r	.	16r	.	16r	.	16r	.	16r	16ryy	.	16r	.	16r	.	16r	.	16r	.
.	.	.	.	.	.	.	.	.	.	.	.	16B-X\	.	16ff#\ 16dd\	.	16B-X\ 16BB-X\	.	16ff#\ 16dd\ 16a-X\	.	16d/	16d\	.	16ffn\ 16b-X\	.	16bb-X\ 16aa-X\	.	16dd\	.	16ddd\	.
=55	=55	=55	=55	=55	=55	=55	=55	=55	=55	=55	=55	=55	=55	=55	=55	=55	=55	=55	=55	=55	=55	=55	=55	=55	=55	=55	=55	=55	=55	=55
2.r	.	2.r	.	2.r	.	2.r	.	2.r	.	2.r	.	4B-X\	.	4ff#\ 4dd\	.	4B-X\ 4BB-X\	.	4ff#\ 4dd\ 4a-X\	.	4d/	4d\	.	4ffn\ 4b-X\	.	4bb-X\ 4aa-X\	.	4dd\	.	4ddd\	.
.	.	.	.	.	.	.	.	.	.	.	.	8r	.	8r	.	8r	.	8r	.	8r	8ryy	.	8r	.	8r	.	8r	.	8r	.
.	.	.	.	.	.	.	.	.	.	.	.	4r	.	4r	.	4r	.	4r	.	4r	4ryy	.	4r	.	4r	.	4r	.	4r	.
.	.	.	.	.	.	.	.	.	.	.	.	16r	.	16r	.	16r	.	16r	.	16r	16ryy	.	16r	.	16r	.	16r	.	16r	.
.	.	.	.	.	.	.	.	.	.	.	.	16BB-X/	.	16ff#\ 16dd\	.	16B-\ 16BB-\	.	16ff#\ 16dd\ 16a-\	.	16d/	16d\	.	16dd\ 16b-\	.	16bb-\ 16aa-\	.	16ffn\	.	16fffn\	.
*	*	*	*	*	*	*	*	*	*	*	*	*	*	*	*	*	*	*	*	*v	*v	*	*	*	*	*	*	*	*	*
==56	==56	==56	==56	==56	==56	==56	==56	==56	==56	==56	==56	==56	==56	==56	==56	==56	==56	==56	==56	==56	==56	==56	==56	==56	==56	==56	==56	==56	==56
*k[]	*	*k[b-e-a-]	*	*k[b-e-a-]	*	*k[b-e-a-]	*	*k[b-e-a-]	*	*k[b-e-a-]	*	*k[b-e-a-]	*	*k[b-e-a-]	*	*k[b-e-a-]	*	*k[b-e-a-]	*	*k[b-e-a-]	*	*k[b-e-a-]	*	*k[b-e-a-]	*	*k[b-e-a-]	*	*k[b-e-a-]	*
*M2/4	*	*M2/4	*	*M2/4	*	*M2/4	*	*M2/4	*	*M2/4	*	*M2/4	*	*M2/4	*	*M2/4	*	*M2/4	*	*M2/4	*	*M2/4	*	*M2/4	*	*M2/4	*	*M2/4	*
*	*	*	*	*	*	*	*	*	*	*	*	*	*	*	*	*	*	*	*	*^	*	*^	*	*	*	*	*	*	*
2r	.	4r	.	4ryy	.	4r	.	4r	.	4r	.	4BB-/	.	4ff\ 4dd\	.	4B-X\ 4BB-X\	.	4ff\ 4dd\ 4a-X\	.	4d/	4d\	.	4dd/	4b-X\	.	4bb-X\ 4aa-X\	.	4ffn\	.	4fffn\	.
.	.	8r	.	8ryy	.	8r	.	8r	.	8r	.	4r	.	4r	.	4r	.	4r	.	4r	4ryy	.	4r	4ryy	.	4r	.	4r	.	4r	.
!	!	!LO:TX:a:t=P:problem=klamra łukowa	!	!LO:TX:a:t=P:problem=klamra łukowa	!	!LO:TX:a:t=P:problem=klamra łukowa	!	!LO:TX:a:t=P:problem=klamra łukowa	!	!LO:TX:a:t=P:problem=klamra łukowa	!	!	!	!	!	!	!	!	!	!	!	!	!	!	!	!	!	!	!	!	!
!	!	!LO:TUP:b	!LO:DY:rj	!LO:TUP:b	!LO:DY:rj	!LO:TUP:b	!LO:DY:rj	!LO:TUP:b	!LO:DY:rj	!LO:TUP:b	!LO:DY:a:rj	!	!	!	!	!	!	!	!	!	!	!	!	!	!	!	!	!	!	!	!
.	.	24BB-/LL	f	24BB-/LLyy	f	24B-/LL	f	24B-/LL	f	24B-/LL	f	.	.	.	.	.	.	.	.	.	.	.	.	.	.	.	.	.	.	.	.
.	.	24C/	.	24C/yy	.	24c/	.	24c/	.	24c/	.	.	.	.	.	.	.	.	.	.	.	.	.	.	.	.	.	.	.	.	.
.	.	24D/JJ	.	24D/JJyy	.	24d/JJ	.	24d/JJ	.	24d/JJ	.	.	.	.	.	.	.	.	.	.	.	.	.	.	.	.	.	.	.	.	.
*	*	*	*	*	*	*	*	*	*	*	*	*	*	*	*	*	*	*	*	*v	*v	*	*	*	*	*	*	*	*	*	*
*	*	*	*	*	*	*	*	*	*	*	*	*	*	*	*	*	*	*	*	*	*	*v	*v	*	*	*	*	*	*	*
=57	=57	=57	=57	=57	=57	=57	=57	=57	=57	=57	=57	=57	=57	=57	=57	=57	=57	=57	=57	=57	=57	=57	=57	=57	=57	=57	=57	=57	=57
*	*	*	*	*	*	*Xtremolo	*	*	*	*	*	*	*	*	*	*	*	*	*	*	*	*	*	*	*	*	*	*	*
2r	.	8E-\L	.	8E-\Lyy	.	8e-\L	.	8e-/L	.	8e-/	.	2ryy	.	2ryy	.	2ryy	.	2ryy	.	2ryy	.	2ryy	.	2ryy	.	2ryy	.	2ryy	.
!	!	!	!LO:DY:rj	!	!LO:DY:rj	!	!	!	!LO:DY:rj	!	!	!	!	!	!	!	!	!	!	!	!	!	!	!	!	!	!	!	!
.	.	8E-\	p	8E-\yy	p	8e-'\	p	8g/ 8B-'/	p	8r	.	.	.	.	.	.	.	.	.	.	.	.	.	.	.	.	.	.	.
.	.	8E-\	.	8E-\yy	.	8e-'\	.	8g/ 8B-'/	.	4r	.	.	.	.	.	.	.	.	.	.	.	.	.	.	.	.	.	.	.
.	.	8E-\J	.	8E-\Jyy	.	8e-'\J	.	8g/J 8B-'/	.	.	.	.	.	.	.	.	.	.	.	.	.	.	.	.	.	.	.	.	.
=58	=58	=58	=58	=58	=58	=58	=58	=58	=58	=58	=58	=58	=58	=58	=58	=58	=58	=58	=58	=58	=58	=58	=58	=58	=58	=58	=58	=58	=58
*	*	*tremolo	*	*tremolo	*	*tremolo	*	*tremolo	*	*	*	*	*	*	*	*	*	*	*	*	*	*	*	*	*	*	*	*	*
2r	.	8E-\L	.	8E-\Lyy	.	8e-\L	.	8g/L 8B-/	.	4r	.	2ryy	.	2ryy	.	2ryy	.	2ryy	.	2ryy	.	2ryy	.	2ryy	.	2ryy	.	2ryy	.
.	.	8E-\	.	8E-\yy	.	8e-\	.	8g/ 8B-/	.	.	.	.	.	.	.	.	.	.	.	.	.	.	.	.	.	.	.	.	.
.	.	8E-\	.	8E-\yy	.	8e-\	.	8g/ 8B-/	.	16r	.	.	.	.	.	.	.	.	.	.	.	.	.	.	.	.	.	.	.
.	.	.	.	.	.	.	.	.	.	16g'/LL	.	.	.	.	.	.	.	.	.	.	.	.	.	.	.	.	.	.	.
.	.	8E-\J	.	8E-\Jyy	.	8e-\J	.	8g/J 8B-/	.	16a-'/	.	.	.	.	.	.	.	.	.	.	.	.	.	.	.	.	.	.	.
.	.	.	.	.	.	.	.	.	.	16an'/JJ	.	.	.	.	.	.	.	.	.	.	.	.	.	.	.	.	.	.	.
=59	=59	=59	=59	=59	=59	=59	=59	=59	=59	=59	=59	=59	=59	=59	=59	=59	=59	=59	=59	=59	=59	=59	=59	=59	=59	=59	=59	=59	=59
2r	.	8E-\L	.	8E-\Lyy	.	8e-\L	.	8g/L 8B-/	.	8b-\L	.	2ryy	.	2ryy	.	2ryy	.	2ryy	.	2ryy	.	2ryy	.	2ryy	.	2ryy	.	2ryy	.
.	.	8E-\	.	8E-\yy	.	8e-\	.	8g/ 8B-/	.	8.b-^\J	.	.	.	.	.	.	.	.	.	.	.	.	.	.	.	.	.	.	.
.	.	8E-\	.	8E-\yy	.	8e-\	.	8g/ 8B-/	.	.	.	.	.	.	.	.	.	.	.	.	.	.	.	.	.	.	.	.	.
.	.	.	.	.	.	.	.	.	.	16ee-'\LL	.	.	.	.	.	.	.	.	.	.	.	.	.	.	.	.	.	.	.
.	.	8E-\J	.	8E-\Jyy	.	8e-\J	.	8g/J 8B-/	.	16ff'\	.	.	.	.	.	.	.	.	.	.	.	.	.	.	.	.	.	.	.
.	.	.	.	.	.	.	.	.	.	16gg'\JJ	.	.	.	.	.	.	.	.	.	.	.	.	.	.	.	.	.	.	.
=60	=60	=60	=60	=60	=60	=60	=60	=60	=60	=60	=60	=60	=60	=60	=60	=60	=60	=60	=60	=60	=60	=60	=60	=60	=60	=60	=60	=60	=60
2r	.	8E-\L	.	8E-\Lyy	.	8e-\L	.	8a-/L 8c/	.	8gg'\L	.	2ryy	.	2ryy	.	2ryy	.	2ryy	.	2ryy	.	2ryy	.	2ryy	.	2ryy	.	2ryy	.
.	.	8E-\	.	8E-\yy	.	8e-\	.	8a-/ 8c/	.	8.cc'^<\J	.	.	.	.	.	.	.	.	.	.	.	.	.	.	.	.	.	.	.
.	.	8E-\	.	8E-\yy	.	8e-\	.	8a-/ 8c/	.	.	.	.	.	.	.	.	.	.	.	.	.	.	.	.	.	.	.	.	.
.	.	.	.	.	.	.	.	.	.	16cc'\LL	.	.	.	.	.	.	.	.	.	.	.	.	.	.	.	.	.	.	.
.	.	8E-\J	.	8E-\Jyy	.	8e-\J	.	8a-/J 8c/	.	16ff'\	.	.	.	.	.	.	.	.	.	.	.	.	.	.	.	.	.	.	.
.	.	.	.	.	.	.	.	.	.	16ee-'\JJ	.	.	.	.	.	.	.	.	.	.	.	.	.	.	.	.	.	.	.
!!LO:PB:g=original
=61	=61	=61	=61	=61	=61	=61	=61	=61	=61	=61	=61	=61	=61	=61	=61	=61	=61	=61	=61	=61	=61	=61	=61	=61	=61	=61	=61	=61	=61
2r	.	8E-\L	.	8d\L	.	8f\L 8d\	.	8a-/L 8B-/	.	8dd'/L	.	2r	.	2r	.	2r	.	2r	.	2r	.	2r	.	2r	.	2r	.	2r	.
.	.	8E-\	.	8c\	.	8f\ 8d\	.	8a-/ 8B-/	.	8cc'/	.	.	.	.	.	.	.	.	.	.	.	.	.	.	.	.	.	.	.
.	.	8E-\	.	8B-\	.	8f\ 8d\	.	8a-/ 8B-/	.	8b-'/	.	.	.	.	.	.	.	.	.	.	.	.	.	.	.	.	.	.	.
.	.	8E-\J	.	8A-\J	.	8f\J 8d\	.	8a-/J 8B-/	.	8a-'/J	.	.	.	.	.	.	.	.	.	.	.	.	.	.	.	.	.	.	.
*	*	*Xtremolo	*	*	*	*Xtremolo	*	*Xtremolo	*	*	*	*	*	*	*	*	*	*	*	*	*	*	*	*	*	*	*	*	*
=62	=62	=62	=62	=62	=62	=62	=62	=62	=62	=62	=62	=62	=62	=62	=62	=62	=62	=62	=62	=62	=62	=62	=62	=62	=62	=62	=62	=62	=62
!	!	!	!LO:DY:rj	!	!LO:DY:rj	!	!LO:DY:rj	!	!LO:DY:rj	!	!LO:DY:rj	!	!	!	!	!	!	!	!	!	!	!	!	!	!	!	!	!	!
2r	.	8E-^<\L	f	16G\LL	f	8e-^<\L	f	8g/L 8B-^/	f	16g'^/LL	f	2r	.	2r	.	2r	.	2r	.	2r	.	2r	.	2r	.	2r	.	4r	.
.	.	.	.	16c\J	.	.	.	.	.	16cc'/J	.	.	.	.	.	.	.	.	.	.	.	.	.	.	.	.	.	.	.
.	.	8E-^<\	.	8B-\J	.	8e-^<\	.	8g/ 8B-^/	.	8b-'^/J	.	.	.	.	.	.	.	.	.	.	.	.	.	.	.	.	.	.	.
!	!	!	!	!	!	!	!LO:DY:rj	!	!LO:DY:rj	!	!LO:DY:a	!	!	!	!	!	!	!	!	!	!	!	!	!	!	!	!	!	!
.	.	8E-\	p	16r	.	8e-\	p	8g/ 8B-/	p	16r	p	.	.	.	.	.	.	.	.	.	.	.	.	.	.	.	.	16r	.
!	!	!	!	!	!LO:DY:rj	!	!	!	!	!	!	!	!	!	!	!	!	!	!	!	!	!	!	!	!	!	!	!	!
.	.	.	.	16G'\LL	p	.	.	.	.	16g/LL	.	.	.	.	.	.	.	.	.	.	.	.	.	.	.	.	.	16gg'\LL	.
.	.	8E-\J	.	16A-'\	.	8e-\J	.	8g/J 8B-/	.	16a-/	.	.	.	.	.	.	.	.	.	.	.	.	.	.	.	.	.	16aa-'\	.
.	.	.	.	16An'\JJ	.	.	.	.	.	16an/JJ	.	.	.	.	.	.	.	.	.	.	.	.	.	.	.	.	.	16aan'\JJ	.
=63	=63	=63	=63	=63	=63	=63	=63	=63	=63	=63	=63	=63	=63	=63	=63	=63	=63	=63	=63	=63	=63	=63	=63	=63	=63	=63	=63	=63	=63
!	!	!	!	!	!	!	!	!	!	!	!	!	!	!	!	!LO:S:s=2:note:problem=note-level slur	!LO:DY:rj	!	!LO:DY:a:rj	!	!	!	!	!	!	!	!	!	!
2r	.	8E-\L	.	8B-'\L	.	8e-\L	.	8g/L 8B-/	.	8b-/L	.	2r	.	2r	.	((>2B-\ 2G\	p	[2ee-X/ [2e-X/	p	2r	.	2r	.	2r	.	2r	.	8bb-\L	.
.	.	8E-^<\	.	8.B-'^<\J	.	8e-^<\	.	8g/ 8B-^/	.	8.b-^/J	.	.	.	.	.	.	.	.	.	.	.	.	.	.	.	.	.	8.bb-^<\J	.
.	.	8E-\	.	.	.	8e-\	.	8g/ 8B-/	.	.	.	.	.	.	.	.	.	.	.	.	.	.	.	.	.	.	.	.	.
.	.	.	.	16e-'\LL	.	.	.	.	.	16ee-'\LL	.	.	.	.	.	.	.	.	.	.	.	.	.	.	.	.	.	16eee-\LL	.
.	.	8E-\J	.	16f'\	.	8e-\J	.	8g/J 8B-/	.	16ff'\	.	.	.	.	.	.	.	.	.	.	.	.	.	.	.	.	.	16fff\	.
.	.	.	.	16g'\JJ	.	.	.	.	.	16gg'\JJ	.	.	.	.	.	.	.	.	.	.	.	.	.	.	.	.	.	16ggg\JJ	.
=64	=64	=64	=64	=64	=64	=64	=64	=64	=64	=64	=64	=64	=64	=64	=64	=64	=64	=64	=64	=64	=64	=64	=64	=64	=64	=64	=64	=64	=64
*	*	*rep	*	*	*	*rep	*	*	*	*	*	*	*	*	*	*	*	*	*	*	*	*	*	*	*	*	*	*	*
2r	.	8E-\L	.	16g'\	.	8e-\L	.	8a-/L 8c/	.	16gg\	.	2r	.	2r	.	(2c\ [>2A-\))	.	(2ee-X/] 2e-X/_	.	2r	.	2r	.	2r	.	2r	.	16fff\	.
.	.	.	.	16r	.	.	.	.	.	16r	.	.	.	.	.	.	.	.	.	.	.	.	.	.	.	.	.	16r	.
.	.	8E-^<\	.	8.c'\	.	8e-^<\	.	8a-/ 8c^/	.	8.cc^<\	.	.	.	.	.	.	.	.	.	.	.	.	.	.	.	.	.	8.ccc\^<	.
.	.	8E-\	.	.	.	8e-\	.	8a-/ 8c/	.	.	.	.	.	.	.	.	.	.	.	.	.	.	.	.	.	.	.	.	.
.	.	.	.	16c'\LL	.	.	.	.	.	16cc'\LL	.	.	.	.	.	.	.	.	.	.	.	.	.	.	.	.	.	16ccc'\LL	.
.	.	8E-\J	.	16f'\	.	8e-\J	.	8a-/J 8c/	.	16ff'\	.	.	.	.	.	.	.	.	.	.	.	.	.	.	.	.	.	16fff'\	.
.	.	.	.	16e-'\JJ	.	.	.	.	.	16ee-'\JJ	.	.	.	.	.	.	.	.	.	.	.	.	.	.	.	.	.	16eee-'\JJ	.
*	*	*Xrep	*	*	*	*Xrep	*	*	*	*	*	*	*	*	*	*	*	*	*	*	*	*	*	*	*	*	*	*	*
=65	=65	=65	=65	=65	=65	=65	=65	=65	=65	=65	=65	=65	=65	=65	=65	=65	=65	=65	=65	=65	=65	=65	=65	=65	=65	=65	=65	=65	=65
*	*	*tremolo	*	*	*	*tremolo	*	*tremolo	*	*	*	*	*	*	*	*	*	*	*	*	*	*	*	*	*	*	*	*	*
2r	.	8E-\L	.	8.d\L	.	8f\L 8d\	.	8a-/L 8B-/	.	8.dd\L	.	2r	.	2r	.	2B-\ 2A-\])	.	2ff\ 2e-X\])	.	2r	.	2r	.	2r	.	2r	.	8.ddd\L	.
.	.	8E-\	.	.	.	8f\ 8d\	.	8a-/ 8B-/	.	.	.	.	.	.	.	.	.	.	.	.	.	.	.	.	.	.	.	.	.
.	.	.	.	16c\Jk	.	.	.	.	.	16cc\Jk	.	.	.	.	.	.	.	.	.	.	.	.	.	.	.	.	.	16ccc\Jk	.
.	.	8E-\	.	16B-'\LL	.	8f\ 8d\	.	8a-/ 8B-/	.	16b-/LL	.	.	.	.	.	.	.	.	.	.	.	.	.	.	.	.	.	16bb-\LL	.
.	.	.	.	16A-'\	.	.	.	.	.	16a-/	.	.	.	.	.	.	.	.	.	.	.	.	.	.	.	.	.	16aa-\	.
.	.	8E-\J	.	16G'\	.	8f\J 8d\	.	8a-/J 8B-/	.	16g/	.	.	.	.	.	.	.	.	.	.	.	.	.	.	.	.	.	16gg\	.
.	.	.	.	16F'\JJ	.	.	.	.	.	16f/JJ	.	.	.	.	.	.	.	.	.	.	.	.	.	.	.	.	.	16ff\JJ	.
*	*	*Xtremolo	*	*Xtremolo	*	*Xtremolo	*	*Xtremolo	*	*	*	*	*	*	*	*	*	*	*	*	*	*	*	*	*	*	*	*	*
=66	=66	=66	=66	=66	=66	=66	=66	=66	=66	=66	=66	=66	=66	=66	=66	=66	=66	=66	=66	=66	=66	=66	=66	=66	=66	=66	=66	=66	=66
*	*	*	*	*	*	*	*	*	*	*	*	*	*	*^	*	*	*	*	*	*	*	*	*	*	*	*	*	*	*
8r	.	8E-\L	.	8E-\L	.	8e-\L	.	8g/L 8B-/	.	8e-/L	.	8r	.	8r	8ryy	.	8B-\ 8G\	.	8ee-X/ 8e-X/	.	8r	.	8r	.	8r	.	8r	.	8ee-'\L	.
!LO:SIC:s=8G\	!	!	!LO:DY:rj:t=ffo	!	!LO:DY:rj:t=ffo	!	!LO:DY:rj:t=ffo	!	!LO:DY:rj:t=ffo	!	!LO:DY:rj	!	!	!	!	!	!	!LO:DY:rj	!	!	!	!LO:DY:rj	!	!LO:DY:rj:t=ffo	!	!	!	!LO:DY:rj:t=fo	!	!LO:DY:t=fo
8Re\	.	8E-\J	ff	8E-\J	ff	8e-\J	ff	8g/J 8B-/	ff	8cc/J 8d^/	ff	8E-X\	.	8e-X/	8e-X\	.	8B-\ 8G\	ff	8ee-/ 8e-/	.	8g/ 8G/	f	8b-/ 8e-/	f	8ee-/ 8g/ 8e-/	.	8eee-\	f	8eee-'\J	f
4r	.	4r	.	4r	.	4r	.	4r	.	8r	.	4r	.	4r	4ryy	.	4r	.	4r	.	4r	.	4r	.	4r	.	4r	.	4r	.
!	!	!	!	!	!	!	!	!	!	!	!LO:DY:rj	!	!	!	!	!	!	!	!	!	!	!	!	!	!	!	!	!	!	!
.	.	.	.	.	.	.	.	.	.	16ee-'\LL	p	.	.	.	.	.	.	.	.	.	.	.	.	.	.	.	.	.	.	.
.	.	.	.	.	.	.	.	.	.	16ee-'\JJ	.	.	.	.	.	.	.	.	.	.	.	.	.	.	.	.	.	.	.	.
*	*	*	*	*	*	*	*	*	*	*	*	*	*	*v	*v	*	*	*	*	*	*	*	*	*	*	*	*	*	*	*
=67	=67	=67	=67	=67	=67	=67	=67	=67	=67	=67	=67	=67	=67	=67	=67	=67	=67	=67	=67	=67	=67	=67	=67	=67	=67	=67	=67	=67	=67
2r	.	8r	.	8ryy	.	8r	.	8r	.	4an/	.	2r	.	2r	.	2r	.	2r	.	2r	.	8r	.	8r	p	2r	.	8r	.
!	!	!LO:TX:a:t=P:problem=mixedbeam	!LO:DY:rj	!LO:TX:a:t=P:problem=mixedbeam	!LO:DY:rj	!	!	!	!LO:DY:rj	!	!	!	!	!	!	!	!	!	!	!	!	!	!	!	!	!	!	!	!LO:DY:rj
.	.	8F\L	p	8F\Lyy	p	8e-\L 8c\	.	8f/L 8c/	p	.	.	.	.	.	.	.	.	.	.	.	.	8f'/L	.	8f'/L	.	.	.	8ff'\L	p
.	.	8FF/J	.	8FF/Jyy	.	8e-\J 8c\	.	8f/J 8c/	.	8r	.	.	.	.	.	.	.	.	.	.	.	8ff'/J	.	8ff'/J	.	.	.	8fff'\J	.
.	.	8r	.	8ryy	.	8r	.	8r	.	16ff'\LL	.	.	.	.	.	.	.	.	.	.	.	8r	.	8r	.	.	.	8r	.
.	.	.	.	.	.	.	.	.	.	16ff'\JJ	.	.	.	.	.	.	.	.	.	.	.	.	.	.	.	.	.	.	.
=68	=68	=68	=68	=68	=68	=68	=68	=68	=68	=68	=68	=68	=68	=68	=68	=68	=68	=68	=68	=68	=68	=68	=68	=68	=68	=68	=68	=68	=68
2r	.	8r	.	8ryy	.	8r	.	8r	.	4b-\	.	2r	.	2r	.	2r	.	2r	.	2r	.	8r	.	8r	.	2r	.	8r	.
!	!	!LO:TX:a:t=P:problem=mixedbeam	!	!LO:TX:a:t=P:problem=mixedbeam	!	!	!	!	!	!	!	!	!	!	!	!	!	!	!	!	!	!	!	!	!	!	!	!	!
.	.	8F\L	.	8F\Lyy	.	8d\L 8B-\	.	8f/L 8B-/	.	.	.	.	.	.	.	.	.	.	.	.	.	8f/L	.	8f'/L	.	.	.	8ff'\L	.
.	.	8FF/J	.	8FF/Jyy	.	8d\J 8B-\	.	8f/J 8B-/	.	8r	.	.	.	.	.	.	.	.	.	.	.	8ff/J	.	8ff'/J	.	.	.	8fff'\J	.
.	.	8r	.	8ryy	.	8r	.	8r	.	16ff'\LL	.	.	.	.	.	.	.	.	.	.	.	8r	.	8r	.	.	.	8r	.
.	.	.	.	.	.	.	.	.	.	16ff'\JJ	.	.	.	.	.	.	.	.	.	.	.	.	.	.	.	.	.	.	.
!!LO:PB:g=original
=69	=69	=69	=69	=69	=69	=69	=69	=69	=69	=69	=69	=69	=69	=69	=69	=69	=69	=69	=69	=69	=69	=69	=69	=69	=69	=69	=69	=69	=69
*	*	*	*	*	*	*	*	*	*	*	*	*	*	*	*	*	*	*^	*	*	*	*	*	*	*	*	*	*	*
2r	.	4F\	.	4F\yy	.	8r	.	8r	.	8.aan\L	.	2r	.	2r	.	2c\ 2F\	.	2ff/	2ee-X\	.	2r	.	2r	.	2r	.	2r	.	2r	.
.	.	.	.	.	.	8e-\L 8c\	.	8f/L 8An/	.	.	.	.	.	.	.	.	.	.	.	.	.	.	.	.	.	.	.	.	.	.
.	.	.	.	.	.	.	.	.	.	16gg\Jk	.	.	.	.	.	.	.	.	.	.	.	.	.	.	.	.	.	.	.	.
.	.	4r	.	4ryy	.	8e-\ 8c\	.	8f/ 8A/	.	16ff\LL	.	.	.	.	.	.	.	.	.	.	.	.	.	.	.	.	.	.	.	.
.	.	.	.	.	.	.	.	.	.	16ee-\	.	.	.	.	.	.	.	.	.	.	.	.	.	.	.	.	.	.	.	.
.	.	.	.	.	.	8e-\J 8c\	.	8f/J 8A/	.	16dd\	.	.	.	.	.	.	.	.	.	.	.	.	.	.	.	.	.	.	.	.
.	.	.	.	.	.	.	.	.	.	16cc\JJ	.	.	.	.	.	.	.	.	.	.	.	.	.	.	.	.	.	.	.	.
*	*	*	*	*	*	*	*	*	*	*	*	*	*	*	*	*	*	*v	*v	*	*	*	*	*	*	*	*	*	*	*
=70	=70	=70	=70	=70	=70	=70	=70	=70	=70	=70	=70	=70	=70	=70	=70	=70	=70	=70	=70	=70	=70	=70	=70	=70	=70	=70	=70	=70	=70
!	!	!	!LO:DY:rj	!	!LO:DY:rj	!	!	!	!LO:DY:rj	!	!LO:DY:rj	!	!	!	!	!	!	!	!LO:DY:rj	!	!	!	!LO:DY:rj	!	!	!	!	!	!LO:DY:rj
2r	.	16BB-'/LL	f	16BB-'/LLyy	f	16d\LL 16B-'\	.	16f/LL 16B-'/	f	16b-~\LL	f	2r	.	2r	.	16B-\LL 16BB-'\	.	16ff\LL 16dd'\	f	2r	.	16b-'\LL	f	16b-'\LL	.	16b-'\LL	.	16bb-'\LL	f
.	.	16BB-'/J	.	16BB-'/Jyy	.	16d\J 16B-'\	.	16f/J 16B-'/	.	16dd~\J	.	.	.	.	.	16B-\J 16BB-'\	.	16ff\J 16dd'\	.	.	.	16dd'\J	.	16dd'\J	.	16dd'\J	.	16ddd'\J	.
.	.	8BB-'/J	.	8BB-'/Jyy	.	8d\J 8B-'\	.	8f/J 8B-'/	.	8ff~\J	.	.	.	.	.	8B-\J 8BB-'\	.	8ff\J 8dd'\	.	.	.	8ff'\J	.	8ff'\J	.	8ff'\J	.	8fff'\J	.
.	.	4r	.	4ryy	.	4r	.	4r	.	16r	.	.	.	.	.	4r	.	4r	.	.	.	4r	.	4r	.	4r	.	4r	.
.	.	.	.	.	.	.	.	.	.	16ff\LL	p	.	.	.	.	.	.	.	.	.	.	.	.	.	.	.	.	.	.
.	.	.	.	.	.	.	.	.	.	16ff\	.	.	.	.	.	.	.	.	.	.	.	.	.	.	.	.	.	.	.
.	.	.	.	.	.	.	.	.	.	16ff\JJ	.	.	.	.	.	.	.	.	.	.	.	.	.	.	.	.	.	.	.
=71	=71	=71	=71	=71	=71	=71	=71	=71	=71	=71	=71	=71	=71	=71	=71	=71	=71	=71	=71	=71	=71	=71	=71	=71	=71	=71	=71	=71	=71
2r	.	8r	.	8ryy	.	8r	.	8r	.	8an/L	.	2r	.	2r	.	8r	.	8r	.	2r	.	16r	.	16r	p	2r	.	16r	.
!	!	!	!	!	!	!	!	!	!	!	!	!	!	!	!	!	!	!	!	!	!	!LO:TX:a:t=P:problem=mixedbeam	!	!LO:TX:a:t=P:problem=mixedbeam	!	!	!	!	!
.	.	.	.	.	.	.	.	.	.	.	.	.	.	.	.	.	.	.	.	.	.	16f/LL	.	16f/LL	.	.	.	16ff\LL	.
!	!	!LO:TX:a:t=P:problem=mixedbeam	!LO:DY:rj	!LO:TX:a:t=P:problem=mixedbeam	!LO:DY:rj	!	!	!	!LO:DY:rj	!	!	!	!	!	!	!	!	!	!LO:DY:rj	!	!	!	!	!	!	!	!	!	!
.	.	8F\L	p	8F\Lyy	p	8e-\L 8c\	.	8f/L 8c/	p	8a/J	.	.	.	.	.	8c\L 8F\	.	8ff\L 8ee-X\	p	.	.	16ff\	.	16ff\	.	.	.	16fff\	.
.	.	.	.	.	.	.	.	.	.	.	.	.	.	.	.	.	.	.	.	.	.	16f/JJ	.	16f/JJ	.	.	.	16ff\JJ	.
.	.	8FF/J	.	8FF/Jyy	.	8e-\J 8c\	.	8f/J 8c/	.	16r	.	.	.	.	.	8c\J 8F\	.	8ff\J 8ee-\	.	.	.	8ff\	.	8ff\	.	.	.	8fff\	.
.	.	.	.	.	.	.	.	.	.	16ff\LL	.	.	.	.	.	.	.	.	.	.	.	.	.	.	.	.	.	.	.
.	.	8r	.	8ryy	.	8r	.	8r	.	16ff\	.	.	.	.	.	8r	.	8r	.	.	.	8r	.	8r	.	.	.	8r	.
.	.	.	.	.	.	.	.	.	.	16ff\JJ	.	.	.	.	.	.	.	.	.	.	.	.	.	.	.	.	.	.	.
=72	=72	=72	=72	=72	=72	=72	=72	=72	=72	=72	=72	=72	=72	=72	=72	=72	=72	=72	=72	=72	=72	=72	=72	=72	=72	=72	=72	=72	=72
2r	.	8r	.	8ryy	.	8r	.	8r	.	8b-\L	.	2r	.	2r	.	8r	.	8r	.	2r	.	16r	.	16r	.	2r	.	16r	.
!	!	!	!	!	!	!	!	!	!	!	!	!	!	!	!	!	!	!	!	!	!	!LO:TX:a:t=P:problem=mixedbeam	!	!LO:TX:a:t=P:problem=mixedbeam	!	!	!	!	!
.	.	.	.	.	.	.	.	.	.	.	.	.	.	.	.	.	.	.	.	.	.	16f/LL	.	16f/LL	.	.	.	16ff\LL	.
!	!	!LO:TX:a:t=P:problem=mixedbeam	!	!LO:TX:a:t=P:problem=mixedbeam	!	!	!	!	!	!	!	!	!	!	!	!	!	!	!	!	!	!	!	!	!	!	!	!	!
.	.	8F\L	.	8F\Lyy	.	8d\L 8B-\	.	8f/L 8B-/	.	8b-\J	.	.	.	.	.	8B-\L 8F\	.	8ff\L 8dd\	.	.	.	16ff\	.	16ff\	.	.	.	16fff\	.
.	.	.	.	.	.	.	.	.	.	.	.	.	.	.	.	.	.	.	.	.	.	16f/JJ	.	16f/JJ	.	.	.	16ff\JJ	.
.	.	8FF/J	.	8FF/Jyy	.	8d\J 8B-\	.	8f/J 8B-/	.	16r	.	.	.	.	.	8B-\J 8F\	.	8ff\J 8dd\	.	.	.	8ff\	.	8ff\	.	.	.	8fff\	.
.	.	.	.	.	.	.	.	.	.	16ff\LL	.	.	.	.	.	.	.	.	.	.	.	.	.	.	.	.	.	.	.
.	.	8r	.	8ryy	.	8r	.	8r	.	16ff\	.	.	.	.	.	8r	.	8r	.	.	.	8r	.	8r	.	.	.	8r	.
.	.	.	.	.	.	.	.	.	.	16ff\JJ	.	.	.	.	.	.	.	.	.	.	.	.	.	.	.	.	.	.	.
=73	=73	=73	=73	=73	=73	=73	=73	=73	=73	=73	=73	=73	=73	=73	=73	=73	=73	=73	=73	=73	=73	=73	=73	=73	=73	=73	=73	=73	=73
*	*	*	*	*	*	*	*	*	*	*	*	*	*	*	*	*	*	*^	*	*	*	*	*	*	*	*	*	*	*
2r	.	4F\	.	4F\yy	>	8r	.	8r	.	8.aan\L	.	2r	.	2r	.	2c\ 2F\	.	2ff/	2ee-X^\	.	2r	.	2r	.	2r	.	2r	.	2r	.
.	.	.	.	.	.	8e-\L 8c\	.	8f/L 8An/	>	.	.	.	.	.	.	.	.	.	.	.	.	.	.	.	.	.	.	.	.	.
.	.	.	.	.	.	.	.	.	.	16gg\Jk	>	.	.	.	.	.	.	.	.	.	.	.	.	.	.	.	.	.	.	.
.	.	4FF/	.	4FF/yy	]]	8e-\ 8c\	.	8f/ 8A/	.	16ff\LL	.	.	.	.	.	.	.	.	.	.	.	.	.	.	.	.	.	.	.	.
.	.	.	.	.	.	.	.	.	]]	16ee-\	]]	.	.	.	.	.	.	.	.	.	.	.	.	.	.	.	.	.	.	.
.	.	.	.	.	.	8e-\J 8c\	.	8f/J 8A/	.	16dd\	.	.	.	.	.	.	.	.	.	.	.	.	.	.	.	.	.	.	.	.
.	.	.	.	.	.	.	.	.	.	16cc\JJ	.	.	.	.	.	.	.	.	.	.	.	.	.	.	.	.	.	.	.	.
*	*	*	*	*	*	*	*	*	*	*	*	*	*	*	*	*	*	*v	*v	*	*	*	*	*	*	*	*	*	*	*
=74	=74	=74	=74	=74	=74	=74	=74	=74	=74	=74	=74	=74	=74	=74	=74	=74	=74	=74	=74	=74	=74	=74	=74	=74	=74	=74	=74	=74	=74
*	*	*	*	*	*	*	*	*	*	*	*	*	*	*	*	*^	*	*^	*	*	*	*	*	*	*	*	*	*	*
2r	.	4BB-/	.	4BB-/	.	4d\ 4B-\	.	4f/ 4B-/	.	4b-\	.	2r	.	2r	.	4B-/	4B-\	.	4ff/	4dd\	.	2r	.	2r	.	2r	.	2r	.	4r	.
.	.	4r	.	16r	.	4r	.	4r	.	16r	.	.	.	.	.	4r	4ryy	.	4r	4ryy	.	.	.	.	.	.	.	.	.	16r	.
.	.	.	.	16G'\LL	.	.	.	.	.	16g'/LL	.	.	.	.	.	.	.	.	.	.	.	.	.	.	.	.	.	.	.	16gg'\LL	.
.	.	.	.	16A-'\	.	.	.	.	.	16a-'/	.	.	.	.	.	.	.	.	.	.	.	.	.	.	.	.	.	.	.	16aa-'\	.
.	.	.	.	16An'\JJ	.	.	.	.	.	16an'/JJ	.	.	.	.	.	.	.	.	.	.	.	.	.	.	.	.	.	.	.	16aan'\JJ	.
*	*	*	*	*	*	*	*	*	*	*	*	*	*	*	*	*v	*v	*	*	*	*	*	*	*	*	*	*	*	*	*	*
*	*	*	*	*	*	*	*	*	*	*	*	*	*	*	*	*	*	*v	*v	*	*	*	*	*	*	*	*	*	*	*
=75	=75	=75	=75	=75	=75	=75	=75	=75	=75	=75	=75	=75	=75	=75	=75	=75	=75	=75	=75	=75	=75	=75	=75	=75	=75	=75	=75	=75	=75
!	!	!	!	!	!	!	!	!	!	!	!	!	!	!	!	!	!	!	!	!	!	!	!	!	!	!	!	!LO:TX:a:t=Col Vo 1o.	!
2r	.	8E-\L	.	8B-\L	.	8e-\L	.	8g/L 8B-/	.	8b-\L	.	2r	.	2r	.	(2B-\ (2G\	.	[2ee-X/ [2e-X/	.	2r	.	2r	.	2r	.	2r	.	8b-\Lyy	.
.	.	8E-^<\	.	8.B-^<\J	.	8e-^\	.	8g/ 8B-^>/	.	8.b-^\J	.	.	.	.	.	.	.	.	.	.	.	.	.	.	.	.	.	8.b-^\Jyy	.
.	.	8E-\	.	.	.	8e-\	.	8g/ 8B-/	.	.	.	.	.	.	.	.	.	.	.	.	.	.	.	.	.	.	.	.	.
.	.	.	.	16e-'\LL	.	.	.	.	.	16ee-'\LL	.	.	.	.	.	.	.	.	.	.	.	.	.	.	.	.	.	16ee-'\LLyy	.
.	.	8E-\J	.	16f'\	.	8e-\J	.	8g/J 8B-/	.	16ff'\	.	.	.	.	.	.	.	.	.	.	.	.	.	.	.	.	.	16ff'\yy	.
.	.	.	.	16g'\JJ	.	.	.	.	.	16gg'\JJ	.	.	.	.	.	.	.	.	.	.	.	.	.	.	.	.	.	16gg'\JJyy	.
=76	=76	=76	=76	=76	=76	=76	=76	=76	=76	=76	=76	=76	=76	=76	=76	=76	=76	=76	=76	=76	=76	=76	=76	=76	=76	=76	=76	=76	=76
2r	.	8E-\L	.	16f\KL	.	8e-\L	.	8a-/L 8c/	.	16gg'\KL	.	2r	.	2r	.	(2c\ [2A-\))	.	(>2ee-X/] 2e-X/_	.	2r	.	2r	.	2r	.	2r	.	16gg'\KLyy	.
.	.	.	.	16r	.	.	.	.	.	16r	.	.	.	.	.	.	.	.	.	.	.	.	.	.	.	.	.	16ryy	.
.	.	8E-^<\	.	8.c^<\J	.	8e-^<\	.	8a-/ 8c^/	.	8.cc^\J	.	.	.	.	.	.	.	.	.	.	.	.	.	.	.	.	.	8.cc^\Jyy	.
.	.	8E-\	.	.	.	8e-\	.	8a-/ 8c/	.	.	.	.	.	.	.	.	.	.	.	.	.	.	.	.	.	.	.	.	.
.	.	.	.	16c'\LL	.	.	.	.	.	16cc'\LL	.	.	.	.	.	.	.	.	.	.	.	.	.	.	.	.	.	16cc'\LLyy	.
.	.	8E-\J	.	16f'\	.	8e-\J	.	8a-/J 8c/	.	16ff'\	.	.	.	.	.	.	.	.	.	.	.	.	.	.	.	.	.	16ff'\yy	.
.	.	.	.	16e-'\JJ	.	.	.	.	.	16ee-'\JJ	.	.	.	.	.	.	.	.	.	.	.	.	.	.	.	.	.	16ee-'\JJyy	.
!!LO:PB:g=original
=77	=77	=77	=77	=77	=77	=77	=77	=77	=77	=77	=77	=77	=77	=77	=77	=77	=77	=77	=77	=77	=77	=77	=77	=77	=77	=77	=77	=77	=77
*	*	*	*	*	*	*	*	*	*	*	*	*	*	*	*	*^	*	*^	*	*	*	*	*	*	*	*	*	*	*
*	*	*tremolo	*	*	*	*tremolo	*	*tremolo	*	*	*	*	*	*	*	*	*	*	*	*	*	*	*	*	*	*	*	*	*	*	*
!	!	!	!	!LO:TX:a:t=P:problem=klamra łukowa, kropka zamiast numeru	!	!	!	!	!	!LO:TX:a:t=P:problem=klamra łukowa	!	!	!	!	!	!	!	!	!	!	!	!	!	!	!	!	!	!	!	!LO:TX:a:t=P:problem=klamra łukowa	!
!	!	!	!	!LO:TUP:a	!	!	!	!	!	!LO:TUP:a	!	!	!	!	!	!LO:TX:t=P:problem=brak zakończenia łuku i ligatury	!	!	!LO:TX:t=P:problem=brak zakończenia łuku i ligatury	!	!	!	!	!	!	!	!	!	!	!LO:TUP:a	!
2r	.	8E-\L	.	24d\LL	.	8f\L 8d\	.	8a-/L 8B-/	.	24dd\LL	.	2r	.	2r	.	2B-/)	2A-\]	.	2ff/)	2e-X\]	.	2r	.	2r	.	2r	.	2r	.	24dd\LLyy	.
.	.	.	.	24f\	.	.	.	.	.	24ee-\	.	.	.	.	.	.	.	.	.	.	.	.	.	.	.	.	.	.	.	24ee-\yy	.
.	.	.	.	24d\J	.	.	.	.	.	24dd\J	.	.	.	.	.	.	.	.	.	.	.	.	.	.	.	.	.	.	.	24dd\Jyy	.
.	.	8E-\	.	8c'\J	.	8f\ 8d\	.	8a-/ 8B-/	.	8cc'\J	.	.	.	.	.	.	.	.	.	.	.	.	.	.	.	.	.	.	.	8cc'\Jyy	.
!	!	!	!	!LO:TX:a:t=P:problem=klamra łukowa, kropka zamiast numeru	!	!	!	!	!	!LO:TX:a:t=P:problem=klamra łukowa	!	!	!	!	!	!	!	!	!	!	!	!	!	!	!	!	!	!	!	!LO:TX:a:t=P:problem=klamra łukowa	!
!	!	!	!	!LO:TUP:a	!	!	!	!	!	!LO:TUP:a	!	!	!	!	!	!	!	!	!	!	!	!	!	!	!	!	!	!	!	!LO:TUP:a	!
.	.	8E-\	.	24B-\LL	.	8f\ 8d\	.	8a-/ 8B-/	.	24b-\LL	.	.	.	.	.	.	.	.	.	.	.	.	.	.	.	.	.	.	.	24b-\LLyy	.
.	.	.	.	24c\	.	.	.	.	.	24cc\	.	.	.	.	.	.	.	.	.	.	.	.	.	.	.	.	.	.	.	24cc\yy	.
.	.	.	.	24B-\J	.	.	.	.	.	24b-\J	.	.	.	.	.	.	.	.	.	.	.	.	.	.	.	.	.	.	.	24b-\Jyy	.
.	.	8E-\J	.	8A-'\J	.	8f\J 8d\	.	8a-/J 8B-/	.	8a-'\J	.	.	.	.	.	.	.	.	.	.	.	.	.	.	.	.	.	.	.	8a-'\Jyy	.
*	*	*Xtremolo	*	*	*	*Xtremolo	*	*Xtremolo	*	*	*	*	*	*	*	*	*	*	*	*	*	*	*	*	*	*	*	*	*	*	*
=78	=78	=78	=78	=78	=78	=78	=78	=78	=78	=78	=78	=78	=78	=78	=78	=78	=78	=78	=78	=78	=78	=78	=78	=78	=78	=78	=78	=78	=78	=78	=78
!	!	!	!LO:DY:rj	!	!LO:DY:rj	!	!LO:DY:rj	!	!LO:DY:rj	!	!LO:DY:rj	!	!	!	!	!	!	!	!	!	!	!	!	!	!	!	!	!	!	!	!LO:DY:rj
2r	.	8E-\L	f	16G'\LL	f	8e-\L	f	8g/L 8B-'/	f	16g'/LL	f	2r	.	2r	.	[2B-/	[2G\	.	[2ee-X/	[2e-X\	.	2r	.	2r	.	2r	.	2r	.	16g'/LLyy	f
.	.	.	.	16c'\J	.	.	.	.	.	16cc'/J	.	.	.	.	.	.	.	.	.	.	.	.	.	.	.	.	.	.	.	16cc'/Jyy	.
.	.	8E-\J	.	8B-'\J	.	8e-\J	.	8g/J 8B-'/	.	8b-'/J	.	.	.	.	.	.	.	.	.	.	.	.	.	.	.	.	.	.	.	8b-'/Jyy	.
!	!	!	!LO:DY:rj	!	!	!	!LO:DY:rj	!	!LO:DY:rj	!	!	!	!	!	!	!	!	!	!	!	!	!	!	!	!	!	!	!	!	!	!
.	.	8E-\L	p	16r	p	8e-\L	p	8g/L 8B-/	p	16r	.	.	.	.	.	.	.	.	.	.	.	.	.	.	.	.	.	.	.	16ryy	.
!	!	!	!	!	!	!	!	!	!	!	!	!	!	!	!	!	!	!	!	!	!	!	!	!	!	!	!	!	!	!	!LO:DY:rj
.	.	.	.	16G'\LL	.	.	.	.	.	16g/LL	p	.	.	.	.	.	.	.	.	.	.	.	.	.	.	.	.	.	.	16g/LLyy	p
.	.	8E-\J	.	16A-'\	.	8e-\J	.	8g/J 8B-/	.	16a-/	.	.	.	.	.	.	.	.	.	.	.	.	.	.	.	.	.	.	.	16a-/yy	.
.	.	.	.	16An'\JJ	.	.	.	.	.	16an/JJ	.	.	.	.	.	.	.	.	.	.	.	.	.	.	.	.	.	.	.	16an/JJyy	.
*	*	*	*	*	*	*	*	*	*	*	*	*	*	*	*	*	*	*	*v	*v	*	*	*	*	*	*	*	*	*	*	*
=79	=79	=79	=79	=79	=79	=79	=79	=79	=79	=79	=79	=79	=79	=79	=79	=79	=79	=79	=79	=79	=79	=79	=79	=79	=79	=79	=79	=79	=79	=79
2r	.	8E-\L	.	8B-\L	.	8e-\L	.	8g/L 8B-/	.	8b-\L	.	8r	.	8r	.	2B-/]	2G\]	.	2ee-X/] 2e-X/]	.	2r	.	8r	.	8r	.	2r	.	8b-\Lyy	.
.	.	8E-^<\	.	8.B-^<\J	.	8e-^<\	.	8g/ 8B-^/	.	8.b-^<\J	.	8E-X^<\	.	8b-X/^< 8e-X/	.	.	.	.	.	.	.	.	8b-/ 8g^/	.	8ee-\ 8g^\	.	.	.	8.b-^<\Jyy	.
.	.	8E-\	.	.	.	8e-\	.	8g/ 8B-/	.	.	.	4r	.	4r	.	.	.	.	.	.	.	.	4r	.	4r	.	.	.	.	.
.	.	.	.	16e-'\LL	.	.	.	.	.	16ee-'\LL	.	.	.	.	.	.	.	.	.	.	.	.	.	.	.	.	.	.	16ee-'\LLyy	.
.	.	8E-\J	.	16f'\	.	8e-\J	.	8g/J 8B-/	.	16ff'\	.	.	.	.	.	.	.	.	.	.	.	.	.	.	.	.	.	.	16ff'\yy	.
.	.	.	.	16g'\JJ	.	.	.	.	.	16gg'\JJ	.	.	.	.	.	.	.	.	.	.	.	.	.	.	.	.	.	.	16gg'\JJyy	.
=80	=80	=80	=80	=80	=80	=80	=80	=80	=80	=80	=80	=80	=80	=80	=80	=80	=80	=80	=80	=80	=80	=80	=80	=80	=80	=80	=80	=80	=80	=80
*	*	*rep	*	*	*	*rep	*	*	*	*	*	*	*	*	*	*	*	*	*	*	*	*	*	*	*	*	*	*	*	*
2r	.	8E-\L	.	8g\L	.	8e-\L	.	8a-/L 8c/	.	8gg\L	.	8r	.	8r	.	2c\	2A-\	.	2ee-X/ 2e-X/	.	2r	.	8r	.	8r	.	2r	.	8gg\Lyy	.
.	.	8E-^<\	.	8c\	.	8e-^<\	.	8a-/ 8c^/	.	8cc^<\	.	8E-X^<\	.	8cc/^< 8e-X/	.	.	.	.	.	.	.	.	8cc/ 8a-^/	.	8ee-\ 8a-^\	.	.	.	8cc^<\yy	.
.	.	8E-\	.	8.f\	.	8e-\	.	8a-/ 8c/	.	8.ff\	.	4r	.	4r	.	.	.	.	.	.	.	.	4r	.	4r	.	.	.	8.ff\yy	.
.	.	8E-\J	.	.	.	8e-\J	.	8a-/J 8c/	.	.	.	.	.	.	.	.	.	.	.	.	.	.	.	.	.	.	.	.	.	.
.	.	.	.	16e-\Jk	.	.	.	.	.	16ee-\Jk	.	.	.	.	.	.	.	.	.	.	.	.	.	.	.	.	.	.	16ee-\Jkyy	.
*	*	*Xrep	*	*	*	*Xrep	*	*	*	*	*	*	*	*	*	*	*	*	*	*	*	*	*	*	*	*	*	*	*	*
=81	=81	=81	=81	=81	=81	=81	=81	=81	=81	=81	=81	=81	=81	=81	=81	=81	=81	=81	=81	=81	=81	=81	=81	=81	=81	=81	=81	=81	=81	=81
*	*	*	*	*	*	*	*	*	*	*	*	*	*	*	*	*	*	*	*^	*	*	*	*	*	*^	*	*	*	*	*
*	*	*tremolo	*	*	*	*tremolo	*	*tremolo	*	*	*	*	*	*	*	*	*	*	*	*	*	*	*	*	*	*	*	*	*	*	*	*
2r	.	8E-\L	.	(16e-\LL	.	8f\L	.	8a-/L 8B-/	.	(16ee-\LL	.	2r	.	2r	.	2B-/	2A-\	.	2dd/	2e-X\	.	2r	.	2b-/ 2f/	.	(16ee-/LL	2a-\	.	2r	.	(16eee-\LL	.
.	.	.	.	16d\)	.	.	.	.	.	16dd\)	.	.	.	.	.	.	.	.	.	.	.	.	.	.	.	16dd/)	.	.	.	.	16ddd\)	.
.	.	8E-\	.	(16d\	.	8f\	.	8a-/ 8B-/	.	(16dd\	.	.	.	.	.	.	.	.	.	.	.	.	.	.	.	(16dd/	.	.	.	.	(16ddd\	.
.	.	.	.	16c\JJ)	.	.	.	.	.	16cc\JJ)	.	.	.	.	.	.	.	.	.	.	.	.	.	.	.	16cc/JJ)	.	.	.	.	16ccc\JJ)	.
.	.	8E-\	.	(16c\LL	.	8f\	.	8a-/ 8B-/	.	(16cc\LL	.	.	.	.	.	.	.	.	.	.	.	.	.	.	.	(16cc/LL	.	.	.	.	(16ccc\LL	.
.	.	.	.	16B-\)	.	.	.	.	.	16b-\)	.	.	.	.	.	.	.	.	.	.	.	.	.	.	.	16b-/)	.	.	.	.	16bb-\)	.
.	.	8E-\J	.	16a-\	.	8f\J	.	8a-/J 8B-/	.	16aa-\	.	.	.	.	.	.	.	.	.	.	.	.	.	.	.	16aa-/	.	.	.	.	16aa-\	.
.	.	.	.	16d\JJ	.	.	.	.	.	16dd\JJ	.	.	.	.	.	.	.	.	.	.	.	.	.	.	.	16dd/JJ	.	.	.	.	16dd\JJ	.
*	*	*	*	*	*	*	*	*	*	*	*	*	*	*	*	*	*	*	*v	*v	*	*	*	*	*	*v	*v	*	*	*	*	*
*	*	*Xtremolo	*	*	*	*	*	*	*	*	*	*	*	*	*	*	*	*	*	*	*	*	*	*	*	*	*	*	*	*
=82	=82	=82	=82	=82	=82	=82	=82	=82	=82	=82	=82	=82	=82	=82	=82	=82	=82	=82	=82	=82	=82	=82	=82	=82	=82	=82	=82	=82	=82	=82
2r	.	4E-\	.	4e-\	.	4e-\	.	4g/ 4B-/	.	4ee-\	.	4r	.	4r	.	4B-/	4G\	.	4ee-X/ 4e-X/	.	4r	.	4b-/ 4g/	.	4ee-/ 4g/	.	2r	.	4ee-\	.
.	.	4r	.	4r	.	4r	.	4r	.	4r	.	8.r	.	8.r	.	8.r	4r	.	8.r	.	8.r	.	4r	.	4r	.	.	.	4r	.
!	!	!	!	!	!	!	!	!	!	!	!	!	!LO:DY:rj	!	!	!	!	!LO:DY:rj	!	!LO:DY:rj	!	!LO:DY:a:rj	!	!	!	!	!	!	!	!
.	.	.	.	.	.	.	.	.	.	.	.	16G\	f	16g/ 16G/	.	16G\ 16GG\	.	f	16g/ 16G/	f	16g/ 16G/|>	f	.	.	.	.	.	.	.	.
*	*	*	*	*	*	*	*	*	*	*	*	*	*	*	*	*v	*v	*	*	*	*	*	*	*	*	*	*	*	*	*
=83	=83	=83	=83	=83	=83	=83	=83	=83	=83	=83	=83	=83	=83	=83	=83	=83	=83	=83	=83	=83	=83	=83	=83	=83	=83	=83	=83	=83	=83
!LO:SIC:s=4G\	!LO:DY:a:rj	!	!	!	!	!	!	!	!	!	!	!	!	!	!	!	!	!	!	!	!	!	!	!	!	!	!	!	!
4Re\	f	2r	.	2r	.	2r	.	2r	.	2r	.	4G\	.	4g/ 4G/	.	4G\ 4GG\	.	4g/ 4G/	.	4g/ 4G^>/	.	4r	.	4r	.	2r	.	4r	.
!LO:SIC:s=4G\	!	!	!	!	!	!	!	!	!	!	!	!	!	!	!	!	!	!	!	!	!	!	!LO:DY:a:rj	!	!	!	!	!	!LO:DY:rj
4Re\	.	.	.	.	.	.	.	.	.	.	.	4G\	.	4g/ 4G/	.	4G\ 4GG\	.	4g/ 4G/	.	4g/ 4G^>/	.	8.ee-/L 8.g/	f	8.gg\L 8.ee-\	.	.	.	8.eee-\L	f
.	.	.	.	.	.	.	.	.	.	.	.	.	.	.	.	.	.	.	.	.	.	16cc/Jk 16e-/	.	16ee-\Jk 16cc\	.	.	.	16ccc\Jk	.
=84	=84	=84	=84	=84	=84	=84	=84	=84	=84	=84	=84	=84	=84	=84	=84	=84	=84	=84	=84	=84	=84	=84	=84	=84	=84	=84	=84	=84	=84
!LO:SIC:s=4G\	!	!	!	!	!	!	!	!	!	!	!	!	!	!	!	!	!	!	!	!	!	!	!	!	!	!	!	!	!
4Re\	.	2r	.	2r	.	2r	.	2r	.	4r	.	4G\	.	4g/ 4G/	.	4G\ 4GG\	.	4g/ 4G/	.	4g/ 4G/	.	4bn/ 4d/	.	4dd\ 4bn\	.	4r	.	4bbn\	.
4r	.	.	.	.	.	.	.	.	.	8r	.	4r	.	4r	.	4r	.	4r	.	4r	.	4r	.	4r	.	8r	.	4r	.
.	.	.	.	.	.	.	.	.	.	(8qff#X^</	.	.	.	.	.	.	.	.	.	.	.	.	.	.	.	(8qff#X/	.	.	.
.	.	.	.	.	.	.	.	.	.	8gg\)	.	.	.	.	.	.	.	.	.	.	.	.	.	.	.	8gg^<\)	.	.	.
=85	=85	=85	=85	=85	=85	=85	=85	=85	=85	=85	=85	=85	=85	=85	=85	=85	=85	=85	=85	=85	=85	=85	=85	=85	=85	=85	=85	=85	=85
*	*	*	*	*	*	*	*	*	*	*	*	*	*	*	*	*	*	*^	*	*	*	*	*	*	*	*	*	*	*
!	!	!	!LO:DY:rj	!	!LO:DY:rj	!	!	!	!	!	!	!	!	!	!	!	!LO:DY:rj	!	!	!LO:DY:rj	!	!	!	!	!	!	!	!	!	!
2r	.	2G^\	p	2G^\yy	p	(16d\LL	.	(16f/LL	.	(4.g/	.	2r	.	2r	.	2G\ 2GG\	p >	2ff/	2dd\	p >	2r	.	2r	.	2r	.	4.g/	.	2r	.
.	.	.	.	.	.	16e-\	.	16g/	.	.	.	.	.	.	.	.	.	.	.	.	.	.	.	.	.	.	.	.	.	.
.	.	.	.	.	.	16d\	.	16f/	.	.	.	.	.	.	.	.	.	.	.	.	.	.	.	.	.	.	.	.	.	.
.	.	.	.	.	.	16c\JJ	.	16e-/JJ	.	.	.	.	.	.	.	.	.	.	.	.	.	.	.	.	.	.	.	.	.	.
.	.	.	.	.	.	16Bn\LL	.	16d/LL	.	.	.	.	.	.	.	.	.	.	.	.	.	.	.	.	.	.	.	.	.	.
.	.	.	.	.	.	16d\	.	16f/	.	.	.	.	.	.	.	.	]	.	.	]	.	.	.	.	.	.	.	.	.	.
.	.	.	.	.	.	16c\	.	16e-/	.	16an/LL	.	.	.	.	.	.	.	.	.	.	.	.	.	.	.	.	(16an/LL	.	.	.
.	.	.	.	.	.	16d\JJ)	.	16f/JJ)	.	16bn/JJ)	.	.	.	.	.	.	.	.	.	.	.	.	.	.	.	.	16bn/JJ)	.	.	.
=86	=86	=86	=86	=86	=86	=86	=86	=86	=86	=86	=86	=86	=86	=86	=86	=86	=86	=86	=86	=86	=86	=86	=86	=86	=86	=86	=86	=86	=86	=86
2r	.	4C/	.	4C/yy	.	4c\	.	4e-/	.	4cc\	.	4r	.	4r	.	4G\ 4C\	.	4ee-X/	4cc\	.	2r	.	4r	.	2r	.	4cc\	.	2r	.
.	.	4r	.	4ryy	.	4r	.	4r	.	4r	.	8.r	.	8.r	.	8.r	.	8.r	8.ryy	.	.	.	8.r	.	.	.	4r	.	.	.
!	!	!	!	!	!	!	!	!	!	!	!	!	!	!	!	!	!LO:DY:rj	!	!	!LO:DY:rj	!	!	!	!	!	!	!	!	!	!
.	.	.	.	.	.	.	.	.	.	.	.	16F\	.	16ff\| 16f\	.	16F\	f	16ff|\ 16f\	16ryy	f	.	.	16ff\| 16f\	.	.	.	.	.	.	.
*	*	*	*	*	*	*	*	*	*	*	*	*	*	*	*	*	*	*v	*v	*	*	*	*	*	*	*	*	*	*	*
!!LO:PB:g=original
=87	=87	=87	=87	=87	=87	=87	=87	=87	=87	=87	=87	=87	=87	=87	=87	=87	=87	=87	=87	=87	=87	=87	=87	=87	=87	=87	=87	=87	=87
2r	.	2r	.	2r	.	2r	.	2r	.	2r	.	4F\	.	4ff\ 4f\	.	4F\	.	4ff\ 4f^<\	.	2r	.	4ff\ 4f^<\	.	4r	.	4r	.	4r	.
!	!	!	!	!	!	!	!	!	!	!	!	!	!	!	!	!	!	!	!	!	!	!	!	!	!	!LO:N:vis=1	!	!	!
.	.	.	.	.	.	.	.	.	.	.	.	4F\	.	4ff\ 4f\	.	4F\	.	4ff\ 4f^<\	.	.	.	4ff\ 4f^<\	.	(8.ee-\L 8.cc\	.	4r	.	(8.ccc\L	.
.	.	.	.	.	.	.	.	.	.	.	.	.	.	.	.	.	.	.	.	.	.	.	.	16cc\Jk 16an\)	.	.	.	16aan\Jk	.
=88	=88	=88	=88	=88	=88	=88	=88	=88	=88	=88	=88	=88	=88	=88	=88	=88	=88	=88	=88	=88	=88	=88	=88	=88	=88	=88	=88	=88	=88
2r	.	2r	.	2r	.	2r	.	2r	.	4r	.	4F\	.	4ff\ 4f\	.	4F\	.	4ff\ 4f^<\	.	2r	.	4ff\ 4f^<\	.	4dd\ 4b-\	.	4r	.	4bb-\)	.
.	.	.	.	.	.	.	.	.	.	8r	.	4r	.	4r	.	4r	.	4r	.	.	.	8r	.	4r	.	8r	.	8r	.
.	.	.	.	.	.	.	.	.	.	(8qeen^</	.	.	.	.	.	.	.	.	.	.	.	(8qeen/	.	.	.	(8qeen/	.	(8qeeen/	.
.	.	.	.	.	.	.	.	.	.	8ff\)	.	.	.	.	.	.	.	.	.	.	.	8ff\)	.	.	.	8ff^<\)	.	8fff\)	.
*	*	*	*	*	*	*	*	*	*	*	*	*	*	*	*	*clefC4	*	*	*	*	*	*	*	*	*	*	*	*	*
=89	=89	=89	=89	=89	=89	=89	=89	=89	=89	=89	=89	=89	=89	=89	=89	=89	=89	=89	=89	=89	=89	=89	=89	=89	=89	=89	=89	=89	=89
*	*	*	*	*	*	*	*	*	*	*	*	*	*	*	*	*	*	*^	*	*	*	*	*	*	*	*	*	*	*
2r	.	2F^<\	.	2F^<\yy	.	(16c/LL	.	(16e-/LL	.	(4.f/	.	2r	.	2r	.	2e-\ 2c\	.	2ff/	2cc\	>	2r	.	(4.f/	.	2ee-\ 2cc^<\	.	(4.f/	.	(4.ff\	.
.	.	.	.	.	.	16d/	.	16f/	.	.	.	.	.	.	.	.	.	.	.	.	.	.	.	.	.	.	.	.	.	.
.	.	.	.	.	.	16c/	.	16e-/	.	.	.	.	.	.	.	.	.	.	.	.	.	.	.	.	.	.	.	.	.	.
.	.	.	.	.	.	16B-/JJ	.	16d/JJ	.	.	.	.	.	.	.	.	.	.	.	.	.	.	.	.	.	.	.	.	.	.
.	.	.	.	.	.	16An/LL	.	16c/LL	.	.	.	.	.	.	.	.	.	.	.	]	.	.	.	.	.	.	.	.	.	.
.	.	.	.	.	.	16c/	.	16e-/	.	.	.	.	.	.	.	.	.	.	.	.	.	.	.	.	.	.	.	.	.	.
.	.	.	.	.	.	16B-/	.	16d/	.	16g/LL	.	.	.	.	.	.	.	.	.	.	.	.	16g/LL	.	.	.	16g/LL	.	16gg\LL	.
.	.	.	.	.	.	16c/JJ)	.	16e-/JJ)	.	16an/JJ)	.	.	.	.	.	.	.	.	.	.	.	.	16an/JJ)	.	.	.	16an/JJ	.	16aan\JJ	.
=90	=90	=90	=90	=90	=90	=90	=90	=90	=90	=90	=90	=90	=90	=90	=90	=90	=90	=90	=90	=90	=90	=90	=90	=90	=90	=90	=90	=90	=90	=90
2r	.	4BB-/	.	4BB-/yy	.	4B-/	.	4d/	.	4b-/	.	2r	.	2r	.	4d\ 4B-\	.	4ff/	4dd\	.	2r	.	4b-/	.	4dd\ 4b-\	.	4b-/)	.	4bb-\)	.
.	.	8.r	.	8.ryy	.	8.r	.	8.r	.	8.r	.	.	.	.	.	4r	.	4r	4ryy	.	.	.	4r	.	4r	.	4r	.	4r	.
.	.	16Bn\|	p	16Bn\|yy	p	16Bn/|>	.	16bn/|	.	16bn/|	.	.	.	.	.	.	.	.	.	.	.	.	.	.	.	.	.	.	.	.
*	*	*	*	*	*	*	*	*	*	*	*	*	*	*	*	*	*	*v	*v	*	*	*	*	*	*	*	*	*	*	*
=91	=91	=91	=91	=91	=91	=91	=91	=91	=91	=91	=91	=91	=91	=91	=91	=91	=91	=91	=91	=91	=91	=91	=91	=91	=91	=91	=91	=91	=91
!	!	!	!	!	!	!	!	!	!	!	!LO:DY:rj	!	!	!	!	!	!	!	!	!	!	!	!	!	!	!	!	!	!
2r	.	8c\|	.	8c\|yy	.	8c/	.	8cc/	.	8cc\|	p	2r	.	2r	.	2r	.	2r	.	2r	.	2r	.	2r	.	2r	.	2r	.
.	.	8r	.	8ryy	.	8r	.	8r	.	8r	.	.	.	.	.	.	.	.	.	.	.	.	.	.	.	.	.	.	.
.	.	8A-\|	.	8A-\|yy	.	8A-/	.	8a-X/	.	8a-X/|	.	.	.	.	.	.	.	.	.	.	.	.	.	.	.	.	.	.	.
.	.	8r	.	8ryy	.	8r	.	8r	.	8r	.	.	.	.	.	.	.	.	.	.	.	.	.	.	.	.	.	.	.
=92	=92	=92	=92	=92	=92	=92	=92	=92	=92	=92	=92	=92	=92	=92	=92	=92	=92	=92	=92	=92	=92	=92	=92	=92	=92	=92	=92	=92	=92
!	!	!	!	!	!	!	!	!LO:TX:a:t=unis	!	!	!	!	!	!	!	!	!	!	!	!	!	!	!	!	!	!	!	!	!
2r	.	4F\|	.	4F\|yy	.	4F/	.	4f/|yy	.	4f/|	.	2r	.	2r	.	2r	.	2r	.	2r	.	2r	.	2r	.	2r	.	2r	.
.	.	8.r	.	8.ryy	.	8.r	.	8.ryy	.	8.r	.	.	.	.	.	.	.	.	.	.	.	.	.	.	.	.	.	.	.
.	.	16G\|	.	16G\|yy	.	16G/	.	16g/|yy	.	16g/|	.	.	.	.	.	.	.	.	.	.	.	.	.	.	.	.	.	.	.
=93	=93	=93	=93	=93	=93	=93	=93	=93	=93	=93	=93	=93	=93	=93	=93	=93	=93	=93	=93	=93	=93	=93	=93	=93	=93	=93	=93	=93	=93
2r	.	8A-\|	.	8A-\|yy	.	8A-/	.	8a-/|yy	.	8a-/|	.	2r	.	2r	.	2r	.	2r	.	2r	.	2r	.	2r	.	2r	.	2r	.
.	.	8r	.	8ryy	.	8r	.	8ryy	.	8r	.	.	.	.	.	.	.	.	.	.	.	.	.	.	.	.	.	.	.
.	.	8F\|	.	8F\|yy	.	8F/	.	8f/|yy	.	8f/|	.	.	.	.	.	.	.	.	.	.	.	.	.	.	.	.	.	.	.
.	.	8r	.	8ryy	.	8r	.	8ryy	.	8r	.	.	.	.	.	.	.	.	.	.	.	.	.	.	.	.	.	.	.
=94	=94	=94	=94	=94	=94	=94	=94	=94	=94	=94	=94	=94	=94	=94	=94	=94	=94	=94	=94	=94	=94	=94	=94	=94	=94	=94	=94	=94	=94
2r	.	8D\|	.	8D\|yy	.	8D/	.	8d/|yy	.	8d/|	.	2r	.	2r	.	2r	.	2r	.	2r	.	2r	.	2r	.	2r	.	2r	.
.	.	8r	.	8ryy	.	8r	.	8ryy	.	8r	.	.	.	.	.	.	.	.	.	.	.	.	.	.	.	.	.	.	.
.	.	4r	.	4ryy	.	4r	.	4ryy	.	4r	.	.	.	.	.	.	.	.	.	.	.	.	.	.	.	.	.	.	.
=95	=95	=95	=95	=95	=95	=95	=95	=95	=95	=95	=95	=95	=95	=95	=95	=95	=95	=95	=95	=95	=95	=95	=95	=95	=95	=95	=95	=95	=95
!	!	!	!LO:DY:rj	!	!LO:DY:rj	!	!	!	!LO:DY:rj	!	!LO:DY:rj	!	!	!	!LO:DY:rj	!	!LO:DY:a:rj	!	!	!	!LO:DY:rj	!	!	!	!LO:DY:rj	!	!	!	!LO:DY:rj
2r	.	8BB-/	f	8BB-/yy	f	8f\ 8B-\	.	8ff\ 8b-\ 8d\	f	8bb-\ 8b-\ 8d\	f	8BB-/	.	8dd\ 8f\	f	8f\ 8F\	f	8ff\ 8dd\	.	8d/ 8D/	f	8ff\ 8b-\	.	8bb-\ 8dd\	f	8bb-\	.	8bb-\	f
.	.	8r	.	8ryy	.	8r	.	8r	.	8r	.	8r	.	8r	.	8r	.	8r	.	8r	.	8r	.	8r	.	8r	.	8r	.
.	.	4r;	.	4r;yy	.	4r;	.	4r;	.	4r;	.	4r;	.	4r;	.	4r;	.	4r;	.	4r;	.	4r;	.	4r;	.	4r;	.	4r;	.
==	==	==	==	==	==	==	==	==	==	==	==	==	==	==	==	==	==	==	==	==	==	==	==	==	==	==	==	==	==
*-	*-	*-	*-	*-	*-	*-	*-	*-	*-	*-	*-	*-	*-	*-	*-	*-	*-	*-	*-	*-	*-	*-	*-	*-	*-	*-	*-	*-	*-
!!!RDF**kern: > = above
!!!RDF**kern: < = below
!!!RDF**dynam: < = "cresc"
!!!RDF**kern: | = vertical stroke
!!!EED: Andrzej Borzym
!!!EEV: 2021-05-16
!!!ENC: Berenika Jozajtis
!!!END: 2021-04-23
!!!YEC: Copyright 2022 Narodowy Instytut Fryderyka Chopina (https://polishscores.org)
!!!YEM: License CC-BY-4.0 (https://creativecommons.org/licenses/by/4.0)
